; HEADER_BLOCK_START
; generated by OrcaSlicer 2.3.0 on 2025-07-23 at 22:16:00
; total layer number: 852
;_GP_TOTAL_LAYER_NUMBER_PLACEHOLDER
; filament_density: 1.24
; filament_diameter: 1.75
; max_z_height: 106.60
; HEADER_BLOCK_END

; external perimeters extrusion width = 0.42mm
; perimeters extrusion width = 0.45mm
; infill extrusion width = 0.45mm
; solid infill extrusion width = 0.42mm
; top infill extrusion width = 0.42mm
; support material extrusion width = 0.38mm
; first layer extrusion width = 0.46mm

; EXECUTABLE_BLOCK_START
M201 X2500 Y2500 Z500 E5000
M203 X250 Y250 Z5 E40
M204 P2500 R500 T2500 ; sets acceleration (P, T) and retract acceleration (R), mm/sec^2
M205 X10.00 Y10.00 Z0.40 E5.00 ; sets the jerk limits, mm/sec
;TYPE:Custom
M220 S100 ;Reset Feedrate 
M221 S100 ;Reset Flowrate 
 
M104 S220 ;Set final nozzle temp 
M190 S55 ;Set and wait for bed temp to stabilize 
G28 ;Home 
G92 E0 ;Reset Extruder 
G1 Z2.0 F3000 ;Move Z Axis up 
G1 X-2.1 Y20 Z0.28 F5000.0 ;Move to start position 
M109 S220 ;Wait for nozzle temp to stabilize 
G1 X-2.1 Y145.0 Z0.28 F1500.0 E15 ;Draw the first line 
G1 X-2.4 Y145.0 Z0.28 F5000.0 ;Move to side a little 
G1 X-2.4 Y20 Z0.28 F1500.0 E30 ;Draw the second line 
G92 E0  ;Reset Extruder 
G1 E-1.0000 F1800 ;Retract a bit 
G1 Z2.0 F3000 ;Move Z Axis up 
G1 E0.0000 F1800
G90
G21
M83 ; use relative distances for extrusion
; filament start gcode
M106 S0
;LAYER_CHANGE
;Z:0.2
;HEIGHT:0.2
;BEFORE_LAYER_CHANGE
;0.2
G92 E0

G1 E-1.2 F2400
;_SET_FAN_SPEED_CHANGING_LAYER
M204 P500
; printing object camera stand-Cut010.stl id:15 copy 0
M204 T500
G1 X71.192 Y50.962 F9000
G1 Z.6
G1 Z.2
G1 E1.2 F1800
;TYPE:Support
;WIDTH:0.46
G1 X71.32 Y50.975 E.00435
G1 X71.446 Y50.994 E.00436
G1 X71.572 Y51.02 E.00436
G1 X71.696 Y51.051 E.00435
G1 X71.818 Y51.089 E.00436
G1 X71.939 Y51.133 E.00436
G1 X72.057 Y51.183 E.00436
G1 X72.172 Y51.238 E.00435
G1 X72.285 Y51.299 E.00436
G1 X72.394 Y51.366 E.00436
G1 X72.5 Y51.438 E.00436
G1 X72.602 Y51.516 E.00435
G1 X72.7 Y51.598 E.00436
G1 X72.794 Y51.685 E.00436
G1 X72.884 Y51.777 E.00435
G1 X72.969 Y51.873 E.00436
G1 X73.049 Y51.973 E.00435
G1 X73.123 Y52.077 E.00436
G1 X73.193 Y52.185 E.00435
G1 X73.257 Y52.296 E.00436
G1 X73.315 Y52.41 E.00436
G1 X73.368 Y52.527 E.00435
G1 X73.415 Y52.646 E.00436
G1 X73.456 Y52.768 E.00436
G1 X73.49 Y52.891 E.00435
G1 X73.519 Y53.016 E.00435
G1 X73.541 Y53.142 E.00435
G1 X73.557 Y53.269 E.00436
G1 X73.567 Y53.397 E.00435
G1 X73.57 Y53.518 E.00412
G1 X73.567 Y53.654 E.00461
G1 X73.557 Y53.781 E.00434
G1 X73.541 Y53.908 E.00436
G1 X73.519 Y54.034 E.00435
G1 X73.49 Y54.159 E.00435
G1 X73.456 Y54.282 E.00435
G1 X73.415 Y54.404 E.00436
G1 X73.368 Y54.523 E.00436
G1 X73.315 Y54.64 E.00435
G1 X73.257 Y54.754 E.00435
G1 X73.193 Y54.865 E.00435
G1 X73.123 Y54.973 E.00436
G1 X73.049 Y55.077 E.00436
G1 X72.969 Y55.177 E.00435
G1 X72.884 Y55.273 E.00436
G1 X72.794 Y55.365 E.00435
G1 X72.7 Y55.452 E.00435
G1 X72.602 Y55.534 E.00436
G1 X72.5 Y55.612 E.00435
G1 X72.394 Y55.684 E.00435
G1 X72.285 Y55.751 E.00436
G1 X72.172 Y55.812 E.00436
G1 X72.057 Y55.867 E.00435
G1 X71.939 Y55.917 E.00436
G1 X71.818 Y55.961 E.00436
G1 X71.696 Y55.999 E.00435
G1 X71.572 Y56.03 E.00436
G1 X71.446 Y56.056 E.00435
G1 X71.32 Y56.075 E.00436
G1 X71.192 Y56.088 E.00435
G1 X71.064 Y56.094 E.00436
G1 X70.936 Y56.094 E.00435
G1 X70.808 Y56.088 E.00435
G1 X70.68 Y56.075 E.00436
G1 X70.554 Y56.056 E.00436
G1 X70.428 Y56.03 E.00435
G1 X70.304 Y55.999 E.00435
G1 X70.182 Y55.961 E.00436
G1 X70.061 Y55.917 E.00435
G1 X69.943 Y55.867 E.00436
G1 X69.828 Y55.812 E.00436
G1 X69.715 Y55.751 E.00435
G1 X69.606 Y55.684 E.00436
G1 X69.5 Y55.612 E.00436
G1 X69.398 Y55.534 E.00435
G1 X69.3 Y55.452 E.00436
G1 X69.206 Y55.365 E.00435
G1 X69.116 Y55.273 E.00436
G1 X69.031 Y55.177 E.00436
G1 X68.951 Y55.077 E.00435
G1 X68.877 Y54.973 E.00436
G1 X68.807 Y54.865 E.00435
G1 X68.743 Y54.754 E.00435
G1 X68.685 Y54.64 E.00436
G1 X68.632 Y54.523 E.00435
G1 X68.585 Y54.404 E.00436
G1 X68.544 Y54.282 E.00435
G1 X68.51 Y54.159 E.00435
G1 X68.481 Y54.034 E.00436
G1 X68.459 Y53.908 E.00435
G1 X68.443 Y53.781 E.00436
G1 X68.433 Y53.653 E.00435
G1 X68.43 Y53.532 E.00412
G1 X68.433 Y53.396 E.00461
G1 X68.443 Y53.269 E.00434
G1 X68.459 Y53.142 E.00435
G1 X68.481 Y53.016 E.00436
G1 X68.51 Y52.891 E.00435
G1 X68.544 Y52.768 E.00436
G1 X68.585 Y52.646 E.00435
G1 X68.632 Y52.527 E.00436
G1 X68.685 Y52.41 E.00435
G1 X68.743 Y52.296 E.00435
G1 X68.807 Y52.185 E.00436
G1 X68.877 Y52.077 E.00435
G1 X68.951 Y51.973 E.00435
G1 X69.031 Y51.873 E.00436
G1 X69.116 Y51.777 E.00435
G1 X69.206 Y51.685 E.00435
G1 X69.3 Y51.598 E.00435
G1 X69.398 Y51.516 E.00436
G1 X69.5 Y51.438 E.00435
G1 X69.606 Y51.366 E.00436
G1 X69.715 Y51.299 E.00435
G1 X69.828 Y51.238 E.00436
G1 X69.943 Y51.183 E.00435
G1 X70.061 Y51.133 E.00436
G1 X70.182 Y51.089 E.00435
G1 X70.304 Y51.051 E.00436
G1 X70.428 Y51.02 E.00435
G1 X70.554 Y50.994 E.00435
G1 X70.68 Y50.975 E.00436
G1 X70.808 Y50.962 E.00435
G1 X70.936 Y50.956 E.00436
G1 X71.064 Y50.956 E.00435
G1 X71.13 Y50.959 E.00223
G1 X72.926 Y54.925 F9000
G1 F1800
G1 X72.926 Y52.474 E.0833
G1 X72.872 Y52.381 E.00366
G1 X72.813 Y52.289 E.00372
G1 X72.749 Y52.2 E.00372
G1 X72.681 Y52.114 E.00372
G1 X72.609 Y52.032 E.00372
G1 X72.532 Y51.954 E.00372
G1 X72.463 Y51.89 E.00321
G1 X72.463 Y55.16 E.11115
G1 X72.452 Y55.17 E.00051
G1 X72.368 Y55.241 E.00372
G1 X72.281 Y55.307 E.00372
G1 X72.191 Y55.368 E.00372
G1 X72.097 Y55.425 E.00372
G1 X72.001 Y55.478 E.00372
G1 X71.999 Y55.478 E.00006
G1 X71.999 Y51.572 E.13279
G1 X71.903 Y51.525 E.00366
G1 X71.802 Y51.482 E.00372
G1 X71.699 Y51.445 E.00372
G1 X71.594 Y51.413 E.00372
G1 X71.536 Y51.398 E.00204
G1 X71.536 Y55.652 E.14459
G1 X71.488 Y55.664 E.00168
G1 X71.381 Y55.686 E.00372
G1 X71.273 Y55.702 E.00372
G1 X71.164 Y55.713 E.00372
G1 X71.073 Y55.718 E.00311
G1 X71.073 Y51.332 E.14905
G1 X71.055 Y51.331 E.00061
G1 X70.945 Y51.331 E.00372
G1 X70.836 Y51.337 E.00372
G1 X70.727 Y51.348 E.00372
G1 X70.619 Y51.364 E.00372
G1 X70.609 Y51.366 E.00034
G1 X70.609 Y55.684 E.14676
G1 X70.512 Y55.664 E.00338
G1 X70.406 Y55.637 E.00372
G1 X70.301 Y55.605 E.00372
G1 X70.198 Y55.568 E.00372
G1 X70.146 Y55.546 E.00194
G1 X70.146 Y51.504 E.13734
G1 X70.097 Y51.525 E.00178
G1 X69.999 Y51.572 E.00372
G1 X69.903 Y51.625 E.00372
G1 X69.809 Y51.682 E.00372
G1 X69.719 Y51.743 E.00372
G1 X69.682 Y51.771 E.00156
G1 X69.682 Y55.279 E.11922
G1 X69.632 Y55.241 E.00215
G1 X69.548 Y55.17 E.00372
G1 X69.468 Y55.096 E.00372
G1 X69.391 Y55.018 E.00372
G1 X69.319 Y54.935 E.00372
G1 X69.251 Y54.85 E.00372
G1 X69.219 Y54.806 E.00185
G1 X69.219 Y51.944 E.09725
G1 E-.84 F2400
;WIPE_START
G1 F1800
G1 X69.219 Y52.944 E-.36
;WIPE_END
G17
G3 Z.6 I-1.216 J.051 P1  F9000
G1 X71.192 Y99.962 Z.6
G1 Z.2
G1 E1.2 F1800
G1 X71.32 Y99.975 E.00435
G1 X71.446 Y99.994 E.00436
G1 X71.572 Y100.02 E.00435
G1 X71.696 Y100.051 E.00436
G1 X71.818 Y100.089 E.00435
G1 X71.939 Y100.133 E.00435
G1 X72.057 Y100.183 E.00436
G1 X72.172 Y100.238 E.00435
G1 X72.285 Y100.299 E.00435
G1 X72.394 Y100.366 E.00436
G1 X72.5 Y100.438 E.00436
G1 X72.602 Y100.516 E.00435
G1 X72.7 Y100.598 E.00436
G1 X72.794 Y100.685 E.00435
G1 X72.884 Y100.777 E.00435
G1 X72.969 Y100.873 E.00435
G1 X73.049 Y100.973 E.00435
G1 X73.123 Y101.077 E.00436
G1 X73.193 Y101.185 E.00435
G1 X73.257 Y101.296 E.00436
G1 X73.315 Y101.41 E.00436
G1 X73.368 Y101.527 E.00435
G1 X73.415 Y101.646 E.00435
G1 X73.456 Y101.768 E.00436
G1 X73.49 Y101.891 E.00435
G1 X73.519 Y102.016 E.00435
G1 X73.541 Y102.142 E.00435
G1 X73.557 Y102.269 E.00436
G1 X73.567 Y102.397 E.00435
G1 X73.57 Y102.518 E.00412
G1 X73.567 Y102.654 E.00461
G1 X73.557 Y102.781 E.00434
G1 X73.541 Y102.908 E.00436
G1 X73.519 Y103.034 E.00436
G1 X73.49 Y103.159 E.00436
G1 X73.456 Y103.282 E.00435
G1 X73.415 Y103.404 E.00436
G1 X73.368 Y103.523 E.00436
G1 X73.315 Y103.64 E.00436
G1 X73.257 Y103.754 E.00435
G1 X73.193 Y103.865 E.00435
G1 X73.123 Y103.973 E.00435
G1 X73.049 Y104.077 E.00436
G1 X72.969 Y104.177 E.00435
G1 X72.884 Y104.273 E.00435
G1 X72.794 Y104.365 E.00435
G1 X72.7 Y104.452 E.00436
G1 X72.602 Y104.534 E.00436
G1 X72.5 Y104.612 E.00435
G1 X72.394 Y104.684 E.00435
G1 X72.285 Y104.751 E.00436
G1 X72.172 Y104.812 E.00435
G1 X72.057 Y104.867 E.00436
G1 X71.939 Y104.917 E.00435
G1 X71.818 Y104.961 E.00435
G1 X71.696 Y104.999 E.00436
G1 X71.572 Y105.03 E.00435
G1 X71.446 Y105.056 E.00436
G1 X71.32 Y105.075 E.00436
G1 X71.192 Y105.088 E.00436
G1 X71.064 Y105.094 E.00435
G1 X70.936 Y105.094 E.00435
G1 X70.808 Y105.088 E.00435
G1 X70.68 Y105.075 E.00436
G1 X70.554 Y105.056 E.00436
G1 X70.428 Y105.03 E.00436
G1 X70.304 Y104.999 E.00436
G1 X70.182 Y104.961 E.00435
G1 X70.061 Y104.917 E.00435
G1 X69.943 Y104.867 E.00436
G1 X69.828 Y104.812 E.00436
G1 X69.715 Y104.751 E.00435
G1 X69.606 Y104.684 E.00435
G1 X69.5 Y104.612 E.00436
G1 X69.398 Y104.534 E.00436
G1 X69.3 Y104.452 E.00435
G1 X69.206 Y104.365 E.00436
G1 X69.116 Y104.273 E.00435
G1 X69.031 Y104.177 E.00436
G1 X68.951 Y104.077 E.00435
G1 X68.877 Y103.973 E.00436
G1 X68.807 Y103.865 E.00435
G1 X68.743 Y103.754 E.00435
G1 X68.685 Y103.64 E.00435
G1 X68.632 Y103.523 E.00436
G1 X68.585 Y103.404 E.00435
G1 X68.544 Y103.282 E.00435
G1 X68.51 Y103.159 E.00435
G1 X68.481 Y103.034 E.00436
G1 X68.459 Y102.908 E.00436
G1 X68.443 Y102.781 E.00436
G1 X68.433 Y102.653 E.00435
G1 X68.43 Y102.532 E.00412
G1 X68.433 Y102.396 E.00461
G1 X68.443 Y102.269 E.00434
G1 X68.459 Y102.142 E.00436
G1 X68.481 Y102.016 E.00436
G1 X68.51 Y101.891 E.00435
G1 X68.544 Y101.768 E.00436
G1 X68.585 Y101.646 E.00436
G1 X68.632 Y101.527 E.00435
G1 X68.685 Y101.41 E.00435
G1 X68.743 Y101.296 E.00436
G1 X68.807 Y101.185 E.00436
G1 X68.877 Y101.077 E.00435
G1 X68.951 Y100.973 E.00436
G1 X69.031 Y100.873 E.00435
G1 X69.116 Y100.777 E.00436
G1 X69.206 Y100.685 E.00435
G1 X69.3 Y100.598 E.00435
G1 X69.398 Y100.516 E.00436
G1 X69.5 Y100.438 E.00435
G1 X69.606 Y100.366 E.00436
G1 X69.715 Y100.299 E.00435
G1 X69.828 Y100.238 E.00436
G1 X69.943 Y100.183 E.00436
G1 X70.061 Y100.133 E.00435
G1 X70.182 Y100.089 E.00435
G1 X70.304 Y100.051 E.00436
G1 X70.428 Y100.02 E.00435
G1 X70.554 Y99.994 E.00436
G1 X70.68 Y99.975 E.00436
G1 X70.808 Y99.962 E.00436
G1 X70.936 Y99.956 E.00435
G1 X71.064 Y99.956 E.00435
G1 X71.13 Y99.959 E.00223
G1 X72.926 Y103.925 F9000
G1 F1800
G1 X72.926 Y101.474 E.0833
G1 X72.872 Y101.381 E.00366
G1 X72.813 Y101.289 E.00372
G1 X72.749 Y101.2 E.00372
G1 X72.681 Y101.114 E.00372
G1 X72.609 Y101.032 E.00372
G1 X72.532 Y100.954 E.00372
G1 X72.463 Y100.89 E.00321
G1 X72.463 Y104.16 E.11115
G1 X72.452 Y104.17 E.0005
G1 X72.368 Y104.241 E.00372
G1 X72.281 Y104.307 E.00372
G1 X72.191 Y104.368 E.00372
G1 X72.097 Y104.425 E.00372
G1 X72.001 Y104.478 E.00372
G1 X71.999 Y104.478 E.00006
G1 X71.999 Y100.572 E.13279
G1 X71.903 Y100.525 E.00366
G1 X71.802 Y100.482 E.00372
G1 X71.699 Y100.445 E.00372
G1 X71.594 Y100.413 E.00372
G1 X71.536 Y100.398 E.00204
G1 X71.536 Y104.652 E.14459
G1 X71.488 Y104.664 E.00167
G1 X71.381 Y104.686 E.00372
G1 X71.273 Y104.702 E.00372
G1 X71.164 Y104.713 E.00372
G1 X71.073 Y104.718 E.00311
G1 X71.073 Y100.332 E.14905
G1 X71.055 Y100.331 E.00061
G1 X70.945 Y100.331 E.00372
G1 X70.836 Y100.337 E.00372
G1 X70.727 Y100.348 E.00372
G1 X70.619 Y100.364 E.00372
G1 X70.609 Y100.366 E.00034
G1 X70.609 Y104.684 E.14676
G1 X70.512 Y104.664 E.00338
G1 X70.406 Y104.637 E.00372
G1 X70.301 Y104.605 E.00372
G1 X70.198 Y104.568 E.00372
G1 X70.146 Y104.546 E.00194
G1 X70.146 Y100.504 E.13734
G1 X70.097 Y100.525 E.00178
G1 X69.999 Y100.572 E.00372
G1 X69.903 Y100.625 E.00372
G1 X69.809 Y100.682 E.00372
G1 X69.719 Y100.743 E.00372
G1 X69.682 Y100.771 E.00156
G1 X69.682 Y104.279 E.11922
G1 X69.632 Y104.241 E.00215
G1 X69.548 Y104.17 E.00372
G1 X69.468 Y104.096 E.00372
G1 X69.391 Y104.018 E.00372
G1 X69.319 Y103.936 E.00372
G1 X69.251 Y103.85 E.00372
G1 X69.219 Y103.806 E.00185
G1 X69.219 Y100.944 E.09725
G1 E-.84 F2400
;WIPE_START
G1 F1800
G1 X69.219 Y101.944 E-.36
;WIPE_END
G17
G3 Z.6 I.04 J1.216 P1  F9000
G1 X129.192 Y99.962 Z.6
G1 Z.2
G1 E1.2 F1800
G1 X129.32 Y99.975 E.00435
G1 X129.446 Y99.994 E.00436
G1 X129.572 Y100.02 E.00435
G1 X129.696 Y100.051 E.00436
G1 X129.818 Y100.089 E.00435
G1 X129.939 Y100.133 E.00436
G1 X130.057 Y100.183 E.00435
G1 X130.172 Y100.238 E.00436
G1 X130.285 Y100.299 E.00435
G1 X130.394 Y100.366 E.00436
G1 X130.5 Y100.438 E.00436
G1 X130.602 Y100.516 E.00435
G1 X130.7 Y100.598 E.00436
G1 X130.794 Y100.685 E.00436
G1 X130.884 Y100.777 E.00435
G1 X130.969 Y100.873 E.00436
G1 X131.049 Y100.973 E.00435
G1 X131.123 Y101.077 E.00436
G1 X131.193 Y101.185 E.00435
G1 X131.257 Y101.296 E.00436
G1 X131.315 Y101.41 E.00436
G1 X131.368 Y101.527 E.00435
G1 X131.415 Y101.646 E.00436
G1 X131.456 Y101.768 E.00435
G1 X131.49 Y101.891 E.00436
G1 X131.519 Y102.016 E.00436
G1 X131.541 Y102.142 E.00435
G1 X131.557 Y102.269 E.00436
G1 X131.567 Y102.397 E.00435
G1 X131.57 Y102.518 E.00412
G1 X131.567 Y102.654 E.00461
G1 X131.557 Y102.781 E.00434
G1 X131.541 Y102.908 E.00436
G1 X131.519 Y103.034 E.00436
G1 X131.49 Y103.159 E.00435
G1 X131.456 Y103.282 E.00436
G1 X131.415 Y103.404 E.00435
G1 X131.368 Y103.523 E.00436
G1 X131.315 Y103.64 E.00436
G1 X131.257 Y103.754 E.00435
G1 X131.193 Y103.865 E.00435
G1 X131.123 Y103.973 E.00436
G1 X131.049 Y104.077 E.00435
G1 X130.969 Y104.177 E.00436
G1 X130.884 Y104.273 E.00435
G1 X130.794 Y104.365 E.00436
G1 X130.7 Y104.452 E.00435
G1 X130.602 Y104.534 E.00436
G1 X130.5 Y104.612 E.00435
G1 X130.394 Y104.684 E.00435
G1 X130.285 Y104.751 E.00436
G1 X130.172 Y104.812 E.00435
G1 X130.057 Y104.867 E.00436
G1 X129.939 Y104.917 E.00435
G1 X129.818 Y104.961 E.00435
G1 X129.696 Y104.999 E.00436
G1 X129.572 Y105.03 E.00435
G1 X129.446 Y105.056 E.00435
G1 X129.32 Y105.075 E.00436
G1 X129.192 Y105.088 E.00435
G1 X129.064 Y105.094 E.00436
G1 X128.936 Y105.094 E.00435
G1 X128.808 Y105.088 E.00435
G1 X128.68 Y105.075 E.00436
G1 X128.554 Y105.056 E.00435
G1 X128.428 Y105.03 E.00436
G1 X128.304 Y104.999 E.00436
G1 X128.182 Y104.961 E.00435
G1 X128.061 Y104.917 E.00436
G1 X127.943 Y104.867 E.00435
G1 X127.828 Y104.812 E.00436
G1 X127.715 Y104.751 E.00436
G1 X127.606 Y104.684 E.00436
G1 X127.5 Y104.612 E.00435
G1 X127.398 Y104.534 E.00436
G1 X127.3 Y104.452 E.00435
G1 X127.206 Y104.365 E.00435
G1 X127.116 Y104.273 E.00436
G1 X127.031 Y104.177 E.00435
G1 X126.951 Y104.077 E.00436
G1 X126.877 Y103.973 E.00435
G1 X126.807 Y103.865 E.00436
G1 X126.743 Y103.754 E.00435
G1 X126.685 Y103.64 E.00435
G1 X126.632 Y103.523 E.00436
G1 X126.585 Y103.404 E.00435
G1 X126.544 Y103.282 E.00436
G1 X126.51 Y103.159 E.00436
G1 X126.481 Y103.034 E.00435
G1 X126.459 Y102.908 E.00435
G1 X126.443 Y102.781 E.00436
G1 X126.433 Y102.653 E.00435
G1 X126.43 Y102.532 E.00412
G1 X126.433 Y102.396 E.00461
G1 X126.443 Y102.269 E.00434
G1 X126.459 Y102.142 E.00435
G1 X126.481 Y102.016 E.00436
G1 X126.51 Y101.891 E.00435
G1 X126.544 Y101.768 E.00436
G1 X126.585 Y101.646 E.00435
G1 X126.632 Y101.527 E.00435
G1 X126.685 Y101.41 E.00436
G1 X126.743 Y101.296 E.00435
G1 X126.807 Y101.185 E.00436
G1 X126.877 Y101.077 E.00435
G1 X126.951 Y100.973 E.00436
G1 X127.031 Y100.873 E.00435
G1 X127.116 Y100.777 E.00436
G1 X127.206 Y100.685 E.00436
G1 X127.3 Y100.598 E.00435
G1 X127.398 Y100.516 E.00436
G1 X127.5 Y100.438 E.00435
G1 X127.606 Y100.366 E.00436
G1 X127.715 Y100.299 E.00435
G1 X127.828 Y100.238 E.00435
G1 X127.943 Y100.183 E.00436
G1 X128.061 Y100.133 E.00436
G1 X128.182 Y100.089 E.00435
G1 X128.304 Y100.051 E.00436
G1 X128.428 Y100.02 E.00435
G1 X128.554 Y99.994 E.00436
G1 X128.68 Y99.975 E.00435
G1 X128.808 Y99.962 E.00435
G1 X128.936 Y99.956 E.00436
G1 X129.064 Y99.956 E.00435
G1 X129.13 Y99.959 E.00223
G1 X130.854 Y104.02 F9000
G1 F1800
G1 X130.854 Y101.352 E.09066
G1 X130.813 Y101.289 E.00256
G1 X130.749 Y101.2 E.00372
G1 X130.681 Y101.114 E.00372
G1 X130.609 Y101.032 E.00372
G1 X130.532 Y100.954 E.00372
G1 X130.452 Y100.88 E.00372
G1 X130.391 Y100.828 E.00273
G1 X130.391 Y104.222 E.11534
G1 X130.368 Y104.241 E.00099
G1 X130.281 Y104.307 E.00372
