;FLAVOR:Marlin
;TIME:6751
;Filament used: 16.9875m
;Layer height: 0.28
;MINX:40.201
;MINY:40.22
;MINZ:0.28
;MAXX:179.799
;MAXY:179.776
;MAXZ:9.72
;TARGET_MACHINE.NAME:Creality Ender-3 V3 SE
;Generated with Cura_SteamEngine 5.10.0
M220 S100 ;Reset Feedrate
M221 S100 ;Reset Flowrate

G28 ;Home

M420 S1; Use saved mesh leveling data

G92 E0 ;Reset Extruder
G1 Z2.0 F3000 ;Move Z Axis up
G1 X-3 Y20 Z0.28 F5000.0 ;Move to start position
M190 S65 ; Set bed temperature and wait
M109 S210.0 ; Set hotend temperature and wait
G1 X-3 Y100.0 Z0.28 F1500.0 E15 ;Draw the first line
G1 X-2 Y100.0 Z0.28 F5000.0 ;Move to side a little
G1 X-2 Y20 Z0.28 F1500.0 E30 ;Draw the second line
G92 E0 ;Reset Extruder
G1 E-1.0000 F1800 ;Retract a bit
G1 Z2.0 F3000 ;Move Z Axis up
G1 E0.0000 F1800 

M82 ;absolute extrusion mode
G92 E0
G92 E0
G1 F2400 E-0.8
;LAYER_COUNT:34
;LAYER:0
M107
G1 F300 Z0.48
G0 F9000 X100.683 Y107.937 Z0.48
;TYPE:SKIRT
G1 F300 Z0.28
G1 F2400 E0
G1 F1800 X100.888 Y107.774 E0.0122
G1 X101.117 Y107.625 E0.02492
G1 X101.364 Y107.497 E0.03787
G1 X101.619 Y107.397 E0.05063
G1 X101.886 Y107.322 E0.06354
G1 X102.153 Y107.273 E0.07618
G1 X102.421 Y107.252 E0.0887
G1 X102.709 Y107.26 E0.10211
G1 X102.974 Y107.292 E0.11454
G1 X103.233 Y107.35 E0.1269
G1 X103.563 Y107.461 E0.14311
G1 X103.868 Y107.616 E0.15904
G1 X104.098 Y107.763 E0.17175
G1 X104.318 Y107.938 E0.18484
G1 X104.515 Y108.13 E0.19765
G1 X104.679 Y108.325 E0.20952
G1 X104.848 Y108.571 E0.22341
G1 X105.015 Y108.877 E0.23965
G1 X105.12 Y109.168 E0.25405
G1 X105.192 Y109.447 E0.26747
G1 X105.234 Y109.712 E0.27996
G1 X105.248 Y109.999 E0.29334
G1 X105.235 Y110.269 E0.30593
G1 X105.196 Y110.542 E0.31877
G1 X105.132 Y110.792 E0.33079
G1 X105.016 Y111.118 E0.3469
G1 X104.845 Y111.432 E0.36355
G1 X104.693 Y111.658 E0.37623
G1 X104.48 Y111.912 E0.39167
G1 X104.17 Y112.188 E0.41099
G1 X103.883 Y112.375 E0.42694
G1 X103.636 Y112.503 E0.4399
G1 X103.389 Y112.601 E0.45227
G1 X103.114 Y112.678 E0.46557
G1 X102.847 Y112.727 E0.47821
G1 X102.579 Y112.748 E0.49073
G1 X102.291 Y112.74 E0.50414
G1 X102.026 Y112.708 E0.51657
G1 X101.767 Y112.65 E0.52893
G1 X101.437 Y112.539 E0.54514
G1 X101.132 Y112.384 E0.56107
G1 X100.902 Y112.237 E0.57378
G1 X100.682 Y112.062 E0.58687
G1 X100.496 Y111.88 E0.59899
G1 X100.297 Y111.644 E0.61336
G1 X100.164 Y111.45 E0.62432
G1 X99.993 Y111.134 E0.64105
G1 X99.875 Y110.811 E0.65706
G1 X99.801 Y110.525 E0.67082
G1 X99.766 Y110.28 E0.68234
G1 X99.752 Y109.998 E0.69549
G1 X99.765 Y109.73 E0.70798
G1 X99.804 Y109.463 E0.72055
G1 X99.878 Y109.175 E0.73439
G1 X99.987 Y108.875 E0.74925
G1 X100.153 Y108.569 E0.76547
G1 X100.307 Y108.343 E0.7782
G1 X100.482 Y108.133 E0.79093
G1 X100.683 Y107.937 E0.804
G0 F9000 X100.944 Y108.24
G1 F1800 X101.12 Y108.101 E0.81444
G1 X101.322 Y107.969 E0.82568
G1 X101.531 Y107.861 E0.83663
G1 X101.744 Y107.777 E0.8473
G1 X101.978 Y107.711 E0.85862
G1 X102.201 Y107.67 E0.86917
G1 X102.432 Y107.653 E0.87996
G1 X102.681 Y107.659 E0.89156
G1 X102.9 Y107.686 E0.90183
G1 X103.134 Y107.738 E0.91299
G1 X103.405 Y107.829 E0.92631
G1 X103.674 Y107.966 E0.94036
G1 X103.863 Y108.087 E0.95081
G1 X104.056 Y108.241 E0.96231
G1 X104.222 Y108.402 E0.97308
G1 X104.359 Y108.565 E0.98299
G1 X104.508 Y108.783 E0.99529
G1 X104.647 Y109.038 E1.00881
G1 X104.739 Y109.291 E1.02135
G1 X104.801 Y109.528 E1.03275
G1 X104.836 Y109.754 E1.0434
G1 X104.848 Y109.998 E1.05478
G1 X104.837 Y110.229 E1.06555
G1 X104.802 Y110.47 E1.07689
G1 X104.751 Y110.669 E1.08645
G1 X104.649 Y110.957 E1.10068
G1 X104.507 Y111.218 E1.11451
G1 X104.377 Y111.411 E1.12535
G1 X104.191 Y111.633 E1.13884
G1 X103.924 Y111.872 E1.15552
G1 X103.683 Y112.029 E1.16891
G1 X103.471 Y112.138 E1.18001
G1 X103.258 Y112.223 E1.19069
G1 X103.025 Y112.288 E1.20196
G1 X102.799 Y112.33 E1.21266
G1 X102.568 Y112.347 E1.22345
G1 X102.319 Y112.341 E1.23504
G1 X102.1 Y112.314 E1.24532
G1 X101.866 Y112.262 E1.25648
G1 X101.595 Y112.171 E1.26979
G1 X101.326 Y112.034 E1.28385
G1 X101.137 Y111.913 E1.2943
G1 X100.95 Y111.764 E1.30543
G1 X100.79 Y111.607 E1.31587
G1 X100.619 Y111.405 E1.32819
G1 X100.501 Y111.233 E1.33791
G1 X100.36 Y110.973 E1.35168
G1 X100.256 Y110.688 E1.36581
G1 X100.195 Y110.45 E1.37725
G1 X100.163 Y110.235 E1.38737
G1 X100.152 Y109.997 E1.39846
G1 X100.162 Y109.778 E1.40867
G1 X100.198 Y109.533 E1.4202
G1 X100.256 Y109.307 E1.43107
G1 X100.355 Y109.034 E1.44459
G1 X100.491 Y108.783 E1.45788
G1 X100.63 Y108.58 E1.46934
G1 X100.777 Y108.403 E1.48005
G1 X100.944 Y108.24 E1.49092
G0 F9000 X101.211 Y108.539
G1 F1800 X101.356 Y108.424 E1.49953
G1 X101.522 Y108.316 E1.50876
G1 X101.687 Y108.23 E1.51742
G1 X101.882 Y108.154 E1.52716
G1 X102.072 Y108.1 E1.53636
G1 X102.247 Y108.068 E1.54465
G1 X102.441 Y108.053 E1.55371
G1 X102.652 Y108.059 E1.56354
G1 X102.837 Y108.082 E1.57222
G1 X103.025 Y108.124 E1.58119
G1 X103.246 Y108.198 E1.59204
G1 X103.475 Y108.314 E1.60399
G1 X103.633 Y108.415 E1.61272
G1 X103.783 Y108.535 E1.62167
G1 X103.933 Y108.681 E1.63142
G1 X104.042 Y108.81 E1.63928
G1 X104.166 Y108.991 E1.6495
G1 X104.281 Y109.203 E1.66073
G1 X104.356 Y109.407 E1.67085
G1 X104.408 Y109.608 E1.68051
G1 X104.436 Y109.789 E1.68904
G1 X104.447 Y109.998 E1.69879
G1 X104.437 Y110.195 E1.70797
G1 X104.409 Y110.388 E1.71705
G1 X104.367 Y110.555 E1.72507
G1 X104.281 Y110.797 E1.73703
G1 X104.162 Y111.015 E1.7486
G1 X104.057 Y111.17 E1.75731
G1 X103.905 Y111.352 E1.76836
G1 X103.678 Y111.555 E1.78254
G1 X103.487 Y111.679 E1.79314
G1 X103.302 Y111.775 E1.80284
G1 X103.129 Y111.844 E1.81152
G1 X102.932 Y111.899 E1.82104
G1 X102.753 Y111.932 E1.82952
G1 X102.559 Y111.947 E1.83858
G1 X102.348 Y111.941 E1.84841
G1 X102.163 Y111.918 E1.85709
G1 X101.975 Y111.876 E1.86606
G1 X101.754 Y111.802 E1.87691
G1 X101.525 Y111.686 E1.88886
G1 X101.367 Y111.585 E1.89759
G1 X101.212 Y111.461 E1.90684
G1 X101.083 Y111.336 E1.9152
G1 X100.934 Y111.159 E1.92597
G1 X100.849 Y111.035 E1.93297
G1 X100.722 Y110.8 E1.94541
G1 X100.637 Y110.567 E1.95696
G1 X100.588 Y110.377 E1.9661
G1 X100.563 Y110.201 E1.97438
G1 X100.553 Y109.996 E1.98393
G1 X100.562 Y109.805 E1.99284
G1 X100.588 Y109.626 E2.00126
G1 X100.642 Y109.417 E2.01131
G1 X100.719 Y109.202 E2.02194
G1 X100.836 Y108.988 E2.0333
G1 X100.951 Y108.819 E2.04282
G1 X101.068 Y108.679 E2.05132
G1 X101.211 Y108.539 E2.06063
G0 F9000 X101.472 Y108.843
G1 F1800 X101.594 Y108.746 E2.06789
G1 X101.726 Y108.66 E2.07523
G1 X101.851 Y108.595 E2.08179
G1 X102.007 Y108.534 E2.08959
G1 X102.153 Y108.493 E2.09665
G1 X102.303 Y108.465 E2.10375
G1 X102.461 Y108.453 E2.11113
G1 X102.614 Y108.457 E2.11826
G1 X102.765 Y108.476 E2.12535
G1 X102.924 Y108.511 E2.13293
G1 X103.094 Y108.568 E2.14128
G1 X103.268 Y108.657 E2.15038
G1 X103.402 Y108.742 E2.15777
G1 X103.522 Y108.838 E2.16492
G1 X103.635 Y108.948 E2.17226
G1 X103.724 Y109.054 E2.17871
G1 X103.827 Y109.204 E2.18718
G1 X103.915 Y109.366 E2.19577
G1 X103.977 Y109.535 E2.20415
G1 X104.016 Y109.689 E2.21155
G1 X104.039 Y109.831 E2.21824
G1 X104.047 Y109.998 E2.22603
G1 X104.04 Y110.15 E2.23311
G1 X104.017 Y110.307 E2.2405
G1 X103.982 Y110.442 E2.247
G1 X103.915 Y110.631 E2.25633
G1 X103.82 Y110.806 E2.26561
G1 X103.736 Y110.93 E2.27258
G1 X103.616 Y111.074 E2.28131
G1 X103.436 Y111.235 E2.29255
G1 X103.279 Y111.337 E2.30127
G1 X103.14 Y111.409 E2.30856
G1 X102.996 Y111.466 E2.31577
G1 X102.851 Y111.506 E2.32278
G1 X102.697 Y111.535 E2.33007
G1 X102.539 Y111.547 E2.33745
G1 X102.386 Y111.543 E2.34458
G1 X102.235 Y111.524 E2.35166
G1 X102.076 Y111.489 E2.35925
G1 X101.906 Y111.432 E2.36759
G1 X101.732 Y111.343 E2.3767
G1 X101.598 Y111.258 E2.38408
G1 X101.479 Y111.163 E2.39117
G1 X101.377 Y111.063 E2.39783
G1 X101.251 Y110.914 E2.40691
G1 X101.189 Y110.823 E2.41204
G1 X101.089 Y110.639 E2.42179
G1 X101.023 Y110.458 E2.43076
G1 X100.98 Y110.29 E2.43884
G1 X100.96 Y110.155 E2.44519
G1 X100.953 Y110.008 E2.45204
G1 X100.961 Y109.843 E2.45974
G1 X100.984 Y109.69 E2.46694
G1 X101.024 Y109.535 E2.47439
G1 X101.085 Y109.367 E2.48272
G1 X101.178 Y109.195 E2.49182
G1 X101.263 Y109.07 E2.49886
G1 X101.368 Y108.944 E2.5065
G1 X101.472 Y108.843 E2.51325
G0 F9000 X101.744 Y109.137
G1 F1800 X101.826 Y109.072 E2.51812
G1 X101.923 Y109.009 E2.52351
G1 X102.026 Y108.956 E2.5289
G1 X102.132 Y108.914 E2.53421
G1 X102.247 Y108.882 E2.53977
G1 X102.349 Y108.863 E2.5446
G1 X102.472 Y108.854 E2.55034
G1 X102.585 Y108.857 E2.55561
G1 X102.702 Y108.871 E2.56109
G1 X102.807 Y108.894 E2.5661
G1 X102.941 Y108.939 E2.57268
G1 X103.074 Y109.007 E2.57964
G1 X103.162 Y109.064 E2.58452
G1 X103.264 Y109.145 E2.59058
G1 X103.341 Y109.22 E2.59559
G1 X103.4 Y109.29 E2.59985
G1 X103.487 Y109.417 E2.60702
G1 X103.549 Y109.531 E2.61306
G1 X103.592 Y109.648 E2.61887
G1 X103.623 Y109.769 E2.62468
G1 X103.639 Y109.869 E2.6294
G1 X103.646 Y109.998 E2.63541
G1 X103.64 Y110.116 E2.64091
G1 X103.623 Y110.237 E2.6466
G1 X103.603 Y110.316 E2.6504
G1 X103.548 Y110.47 E2.65801
G1 X103.481 Y110.592 E2.66449
G1 X103.415 Y110.691 E2.67003
G1 X103.327 Y110.797 E2.67645
G1 X103.194 Y110.915 E2.68473
G1 X103.079 Y110.99 E2.69112
G1 X102.967 Y111.048 E2.697
G1 X102.882 Y111.082 E2.70126
G1 X102.749 Y111.119 E2.70769
G1 X102.651 Y111.137 E2.71233
G1 X102.528 Y111.146 E2.71807
G1 X102.415 Y111.143 E2.72333
G1 X102.298 Y111.129 E2.72882
G1 X102.193 Y111.106 E2.73382
G1 X102.059 Y111.061 E2.74041
G1 X101.926 Y110.993 E2.74736
G1 X101.838 Y110.936 E2.75224
G1 X101.742 Y110.86 E2.75795
G1 X101.665 Y110.785 E2.76295
G1 X101.576 Y110.68 E2.76936
G1 X101.526 Y110.606 E2.77352
G1 X101.456 Y110.477 E2.78035
G1 X101.404 Y110.334 E2.78744
G1 X101.372 Y110.21 E2.7934
G1 X101.36 Y110.13 E2.79717
G1 X101.354 Y109.996 E2.80341
G1 X101.359 Y109.889 E2.8084
G1 X101.376 Y109.771 E2.81395
G1 X101.404 Y109.663 E2.81915
G1 X101.454 Y109.524 E2.82603
G1 X101.514 Y109.414 E2.83186
G1 X101.59 Y109.303 E2.83812
G1 X101.655 Y109.225 E2.84285
G1 X101.744 Y109.137 E2.84868
G0 F9000 X102.006 Y109.44
G1 F1800 X102.062 Y109.395 E2.85203
G1 X102.123 Y109.356 E2.8554
G1 X102.182 Y109.325 E2.8585
G1 X102.27 Y109.291 E2.86289
G1 X102.329 Y109.274 E2.86575
G1 X102.406 Y109.26 E2.8694
G1 X102.482 Y109.254 E2.87295
G1 X102.556 Y109.256 E2.87639
G1 X102.63 Y109.265 E2.87986
G1 X102.705 Y109.282 E2.88345
G1 X102.783 Y109.308 E2.88727
G1 X102.875 Y109.355 E2.89208
G1 X102.932 Y109.391 E2.89522
G1 X102.997 Y109.443 E2.8991
G1 X103.048 Y109.492 E2.90239
G1 X103.083 Y109.534 E2.90494
G1 X103.142 Y109.62 E2.9098
G1 X103.185 Y109.7 E2.91402
G1 X103.209 Y109.766 E2.91729
G1 X103.23 Y109.844 E2.92106
G1 X103.242 Y109.918 E2.92455
G1 X103.246 Y109.998 E2.92828
G1 X103.242 Y110.071 E2.93168
G1 X103.231 Y110.154 E2.93558
G1 X103.218 Y110.203 E2.93794
G1 X103.182 Y110.306 E2.94302
G1 X103.14 Y110.384 E2.94715
G1 X103.099 Y110.445 E2.95057
G1 X103.04 Y110.515 E2.95483
G1 X102.944 Y110.601 E2.96083
G1 X102.884 Y110.64 E2.96416
G1 X102.801 Y110.683 E2.96852
G1 X102.75 Y110.704 E2.97109
G1 X102.668 Y110.726 E2.97504
G1 X102.594 Y110.74 E2.97855
G1 X102.518 Y110.746 E2.9821
G1 X102.444 Y110.744 E2.98554
G1 X102.37 Y110.735 E2.98901
G1 X102.295 Y110.718 E2.99259
G1 X102.217 Y110.692 E2.99642
G1 X102.125 Y110.645 E3.00123
G1 X102.068 Y110.609 E3.00437
G1 X102.004 Y110.558 E3.00818
G1 X101.964 Y110.518 E3.01082
G1 X101.893 Y110.435 E3.0159
G1 X101.87 Y110.401 E3.01781
G1 X101.819 Y110.306 E3.02284
G1 X101.787 Y110.218 E3.0272
G1 X101.764 Y110.129 E3.03148
G1 X101.759 Y110.094 E3.03312
G1 X101.755 Y109.995 E3.03774
G1 X101.758 Y109.918 E3.04132
G1 X101.767 Y109.86 E3.04406
G1 X101.789 Y109.772 E3.04828
G1 X101.817 Y109.694 E3.05214
G1 X101.861 Y109.614 E3.05639
G1 X101.907 Y109.546 E3.06021
G1 X101.95 Y109.495 E3.06332
G1 X102.006 Y109.44 E3.06698
G0 F9000 X102.277 Y109.735
G1 F1800 X102.293 Y109.722 E3.06794
G1 X102.323 Y109.702 E3.06961
G1 X102.35 Y109.689 E3.07101
G1 X102.395 Y109.671 E3.07327
G1 X102.422 Y109.663 E3.07458
G1 X102.461 Y109.656 E3.07642
G1 X102.482 Y109.655 E3.0774
G1 X102.528 Y109.656 E3.07954
G1 X102.567 Y109.661 E3.08137
G1 X102.594 Y109.667 E3.08266
G1 X102.632 Y109.679 E3.08452
G1 X102.667 Y109.697 E3.08635
G1 X102.701 Y109.719 E3.08824
G1 X102.735 Y109.746 E3.09026
G1 X102.749 Y109.759 E3.09115
G1 X102.766 Y109.779 E3.09237
G1 X102.801 Y109.83 E3.09525
G1 X102.819 Y109.864 E3.09704
G1 X102.828 Y109.889 E3.09828
G1 X102.84 Y109.934 E3.10045
G1 X102.843 Y109.951 E3.10125
G1 X102.845 Y109.998 E3.10344
G1 X102.843 Y110.036 E3.10521
G1 X102.839 Y110.068 E3.10672
G1 X102.834 Y110.089 E3.10772
G1 X102.816 Y110.141 E3.11028
G1 X102.796 Y110.177 E3.1122
G1 X102.775 Y110.209 E3.11398
G1 X102.751 Y110.238 E3.11574
G1 X102.706 Y110.278 E3.11854
G1 X102.675 Y110.298 E3.12026
G1 X102.636 Y110.318 E3.1223
G1 X102.618 Y110.325 E3.1232
G1 X102.577 Y110.337 E3.12519
G1 X102.539 Y110.344 E3.12699
G1 X102.518 Y110.345 E3.12796
G1 X102.472 Y110.344 E3.13011
G1 X102.433 Y110.339 E3.13194
G1 X102.406 Y110.333 E3.13323
G1 X102.368 Y110.321 E3.13508
G1 X102.332 Y110.302 E3.13698
G1 X102.299 Y110.281 E3.1388
G1 X102.272 Y110.259 E3.14042
G1 X102.253 Y110.241 E3.14164
G1 X102.212 Y110.193 E3.14458
G1 X102.185 Y110.143 E3.14722
G1 X102.171 Y110.104 E3.14915
G1 X102.158 Y110.054 E3.15156
G1 X102.157 Y110.049 E3.1518
G1 X102.155 Y109.995 E3.15431
G1 X102.156 Y109.962 E3.15585
G1 X102.16 Y109.935 E3.15712
G1 X102.172 Y109.891 E3.15924
G1 X102.185 Y109.854 E3.16107
G1 X102.202 Y109.823 E3.16272
G1 X102.228 Y109.786 E3.16482
G1 X102.241 Y109.77 E3.16578
G1 X102.277 Y109.735 E3.16812
G1 F2400 E2.36812
G1 F300 Z0.48
G0 F9000 X114.752 Y109.998 Z0.48
G1 F300 Z0.28
G1 F2400 E3.16812
G1 F1800 X114.765 Y109.73 E3.18061
G1 X114.804 Y109.463 E3.19318
G1 X114.878 Y109.175 E3.20703
G1 X114.987 Y108.875 E3.22189
G1 X115.153 Y108.569 E3.2381
G1 X115.307 Y108.343 E3.25083
G1 X115.482 Y108.133 E3.26356
G1 X115.683 Y107.937 E3.27663
G1 X115.888 Y107.774 E3.28883
G1 X116.117 Y107.625 E3.30155
G1 X116.364 Y107.497 E3.3145
G1 X116.619 Y107.397 E3.32726
G1 X116.886 Y107.322 E3.34017
G1 X117.153 Y107.273 E3.35281
G1 X117.421 Y107.252 E3.36533
G1 X117.709 Y107.26 E3.37875
G1 X117.974 Y107.292 E3.39118
G1 X118.233 Y107.35 E3.40353
G1 X118.563 Y107.461 E3.41975
G1 X118.868 Y107.616 E3.43568
G1 X119.098 Y107.763 E3.44839
G1 X119.318 Y107.938 E3.46148
G1 X119.515 Y108.13 E3.47429
G1 X119.679 Y108.325 E3.48615
G1 X119.848 Y108.571 E3.50005
G1 X120.015 Y108.877 E3.51628
G1 X120.12 Y109.168 E3.53069
G1 X120.192 Y109.447 E3.5441
G1 X120.234 Y109.712 E3.5566
G1 X120.248 Y109.999 E3.56998
G1 X120.235 Y110.269 E3.58256
G1 X120.196 Y110.542 E3.5954
G1 X120.132 Y110.792 E3.60742
G1 X120.016 Y111.118 E3.62353
G1 X119.845 Y111.432 E3.64018
G1 X119.693 Y111.658 E3.65286
G1 X119.48 Y111.912 E3.6683
G1 X119.17 Y112.188 E3.68763
G1 X118.883 Y112.375 E3.70358
G1 X118.636 Y112.503 E3.71653
G1 X118.389 Y112.601 E3.7289
G1 X118.114 Y112.678 E3.7422
G1 X117.847 Y112.727 E3.75484
G1 X117.579 Y112.748 E3.76736
G1 X117.291 Y112.74 E3.78078
G1 X117.026 Y112.708 E3.7932
G1 X116.767 Y112.65 E3.80556
G1 X116.437 Y112.539 E3.82178
G1 X116.132 Y112.384 E3.83771
G1 X115.902 Y112.237 E3.85042
G1 X115.682 Y112.062 E3.86351
G1 X115.496 Y111.88 E3.87562
G1 X115.297 Y111.644 E3.89
G1 X115.164 Y111.45 E3.90095
G1 X114.993 Y111.134 E3.91768
G1 X114.875 Y110.811 E3.93369
G1 X114.801 Y110.525 E3.94745
G1 X114.766 Y110.28 E3.95897
G1 X114.752 Y109.998 E3.97212
G0 F9000 X115.152 Y109.997
G1 F1800 X115.162 Y109.778 E3.98233
G1 X115.198 Y109.533 E3.99386
G1 X115.256 Y109.307 E4.00472
G1 X115.355 Y109.034 E4.01825
G1 X115.491 Y108.783 E4.03154
G1 X115.63 Y108.58 E4.043
