;FLAVOR:Marlin
;TIME:3762
;Filament used: 6.64454m
;Layer height: 0.2
;MINX:28.201
;MINY:25.959
;MINZ:0.2
;MAXX:194.037
;MAXY:191.795
;MAXZ:7
;TARGET_MACHINE.NAME:Creality Ender-3 V3 SE
;Generated with Cura_SteamEngine 5.10.0
M220 S100 ;Reset Feedrate
M221 S100 ;Reset Flowrate

G28 ;Home

M420 S1; Use saved mesh leveling data

G92 E0 ;Reset Extruder
G1 Z2.0 F3000 ;Move Z Axis up
G1 X-3 Y20 Z0.28 F5000.0 ;Move to start position
M190 S55 ; Set bed temperature and wait
M109 S210 ; Set hotend temperature and wait
G1 X-3 Y100.0 Z0.28 F1500.0 E15 ;Draw the first line
G1 X-2 Y100.0 Z0.28 F5000.0 ;Move to side a little
G1 X-2 Y20 Z0.28 F1500.0 E30 ;Draw the second line
G92 E0 ;Reset Extruder
G1 E-1.0000 F1800 ;Retract a bit
G1 Z2.0 F3000 ;Move Z Axis up
G1 E0.0000 F1800 

M82 ;absolute extrusion mode
G92 E0
G92 E0
G1 F2400 E-0.8
;LAYER_COUNT:35
;LAYER:0
M107
;MESH:rods-arm1 bottom 996r.stl
G0 F9000 X110.947 Y129.412 Z0.2
;TYPE:WALL-INNER
G1 F2400 E0
G1 F1800 X183.571 Y56.788 E3.41601
G1 X176.497 Y49.715 E3.74873
G1 X176.41 Y49.498 E3.7565
G1 X176.404 Y49.262 E3.76435
G1 X176.454 Y49.105 E3.76983
G1 X176.571 Y48.939 E3.77659
G1 X183.995 Y41.515 E4.12579
G1 X184.171 Y41.393 E4.13291
G1 X184.335 Y41.345 E4.1386
G1 X184.595 Y41.365 E4.14727
G1 X184.793 Y41.463 E4.15462
G1 X187.956 Y44.627 E4.30342
G1 X193.471 Y39.112 E4.56283
G1 X180.885 Y26.525 E5.15486
G1 X175.373 Y32.041 E5.41422
G1 X178.537 Y35.208 E5.56312
G1 X178.631 Y35.401 E5.57026
G1 X178.634 Y35.738 E5.58147
G1 X178.539 Y35.943 E5.58898
G1 X171.018 Y43.46 E5.94265
G1 X170.734 Y43.592 E5.95307
G1 X170.498 Y43.586 E5.96092
G1 X170.268 Y43.478 E5.96937
G1 X163.208 Y36.425 E6.30129
G1 X32.822 Y166.812 E12.43427
G1 X32.337 Y167.32 E12.45763
G1 X31.865 Y167.869 E12.48171
G1 X31.439 Y168.414 E12.50472
G1 X31.024 Y169.006 E12.52876
G1 X30.655 Y169.586 E12.55163
G1 X30.302 Y170.208 E12.57541
G1 X29.991 Y170.825 E12.59839
G1 X29.695 Y171.494 E12.62273
G1 X29.446 Y172.139 E12.64572
G1 X29.219 Y172.827 E12.66982
G1 X29.031 Y173.506 E12.69325
G1 X28.877 Y174.19 E12.71657
G1 X28.754 Y174.893 E12.74031
G1 X28.666 Y175.601 E12.76404
G1 X28.62 Y176.297 E12.78724
G1 X28.601 Y176.996 E12.81049
G1 X28.62 Y177.694 E12.83372
G1 X28.67 Y178.391 E12.85696
G1 X28.754 Y179.1 E12.88071
G1 X28.877 Y179.803 E12.90444
G1 X29.027 Y180.478 E12.92744
G1 X29.219 Y181.169 E12.9513
G1 X29.445 Y181.853 E12.97525
G1 X29.695 Y182.498 E12.99826
G1 X29.983 Y183.151 E13.022
G1 X30.298 Y183.776 E13.04528
G1 X30.651 Y184.399 E13.06909
G1 X31.024 Y184.991 E13.09237
G1 X31.434 Y185.574 E13.11607
G1 X31.887 Y186.15 E13.14045
G1 X32.325 Y186.661 E13.16283
G1 X32.822 Y187.18 E13.18673
G1 X33.316 Y187.655 E13.20952
G1 X33.865 Y188.127 E13.23361
G1 X34.422 Y188.561 E13.25709
G1 X34.994 Y188.964 E13.28036
G1 X35.589 Y189.341 E13.30379
G1 X36.259 Y189.719 E13.32938
G1 X36.839 Y190.01 E13.35096
G1 X37.486 Y190.301 E13.37456
G1 X38.141 Y190.55 E13.39786
G1 X38.82 Y190.774 E13.42164
G1 X39.503 Y190.965 E13.44523
G1 X40.193 Y191.119 E13.46875
G1 X40.896 Y191.242 E13.49248
G1 X41.591 Y191.326 E13.51577
G1 X42.302 Y191.38 E13.53948
G1 X42.993 Y191.395 E13.56247
G1 X43.698 Y191.38 E13.58592
G1 X44.409 Y191.326 E13.60964
G1 X45.104 Y191.242 E13.63292
G1 X45.818 Y191.119 E13.65702
G1 X46.497 Y190.966 E13.68017
G1 X47.173 Y190.777 E13.70352
G1 X47.858 Y190.55 E13.72752
G1 X48.502 Y190.305 E13.75044
G1 X49.162 Y190.009 E13.7745
G1 X49.782 Y189.698 E13.79757
G1 X50.403 Y189.348 E13.82127
G1 X50.993 Y188.973 E13.84453
G1 X51.582 Y188.558 E13.86849
G1 X52.127 Y188.131 E13.89152
G1 X52.661 Y187.674 E13.9149
G1 X53.184 Y187.174 E13.93896
G1 X110.947 Y129.412 E16.65593
G1 F2400 E15.85593
G0 F9000 X53.044 Y187.031
G0 X38.403 Y185.106
G0 X36.721 Y185.678
G1 F2400 E16.65593
G1 F1800 X36.204 Y185.616 E16.67325
G1 X35.824 Y185.514 E16.68634
G1 X35.425 Y185.32 E16.70109
G1 X35.091 Y185.063 E16.71511
G1 X34.814 Y184.773 E16.72845
G1 X34.513 Y184.288 E16.74743
G1 X34.365 Y183.72 E16.76696
G1 X34.336 Y183.383 E16.77821
G1 X34.37 Y182.935 E16.79315
G1 X34.497 Y182.488 E16.80861
G1 X34.779 Y181.982 E16.82787
G1 X35.123 Y181.625 E16.84436
G1 X35.463 Y181.383 E16.85824
G1 X35.869 Y181.187 E16.87324
G1 X36.28 Y181.088 E16.8873
G1 X36.689 Y181.061 E16.90093
G1 X37.094 Y181.108 E16.91449
G1 X37.572 Y181.244 E16.93102
G1 X38.072 Y181.561 E16.95071
G1 X38.381 Y181.863 E16.96508
G1 X38.663 Y182.241 E16.98077
G1 X38.856 Y182.75 E16.99887
G1 X38.923 Y183.125 E17.01154
G1 X38.928 Y183.543 E17.02545
G1 X38.847 Y184.012 E17.04128
G1 X38.678 Y184.424 E17.05609
G1 X38.5 Y184.71 E17.06729
G1 X38.272 Y184.981 E17.07907
G1 X37.924 Y185.265 E17.09401
G1 X37.605 Y185.45 E17.10628
G1 X37.202 Y185.589 E17.12046
G1 X36.721 Y185.678 E17.13672
G0 F9000 X36.698 Y185.275
;TYPE:WALL-OUTER
G1 F1800 X36.224 Y185.213 E17.15262
G1 X35.945 Y185.129 E17.16232
G1 X35.607 Y184.961 E17.17487
G1 X35.319 Y184.731 E17.18713
G1 X35.122 Y184.511 E17.19695
G1 X34.895 Y184.147 E17.21122
G1 X34.76 Y183.655 E17.22819
G1 X34.736 Y183.367 E17.2378
G1 X34.771 Y182.989 E17.25043
G1 X34.88 Y182.623 E17.26313
G1 X35.094 Y182.235 E17.27786
G1 X35.379 Y181.933 E17.29168
G1 X35.666 Y181.727 E17.30343
G1 X36.004 Y181.567 E17.31586
G1 X36.382 Y181.476 E17.3288
G1 X36.665 Y181.46 E17.33822
G1 X37.035 Y181.504 E17.35062
G1 X37.419 Y181.619 E17.36395
G1 X37.803 Y181.858 E17.37899
G1 X38.074 Y182.119 E17.39151
G1 X38.314 Y182.446 E17.405
G1 X38.478 Y182.885 E17.42058
G1 X38.524 Y183.156 E17.42973
G1 X38.528 Y183.532 E17.44223
G1 X38.464 Y183.884 E17.45413
G1 X38.32 Y184.246 E17.46709
G1 X38.157 Y184.502 E17.47718
G1 X37.984 Y184.703 E17.486
G1 X37.675 Y184.951 E17.49918
G1 X37.455 Y185.075 E17.50758
G1 X37.092 Y185.205 E17.52041
G1 X36.698 Y185.275 E17.53372
G1 F2400 E16.73372
G0 F9000 X36.663 Y185.58
G0 X37.541 Y185.314
G0 X38.154 Y184.887
G0 X38.542 Y184.362
G0 X39.029 Y182.699
G0 X53.044 Y187.031
G0 X110.941 Y129.983
G1 F2400 E17.53372
G1 F1800 X184.137 Y56.788 E20.97661
G1 X176.811 Y49.461 E21.32122
G1 X176.798 Y49.33 E21.3256
G1 X176.842 Y49.235 E21.32908
G1 X184.307 Y41.774 E21.68012
G1 X184.391 Y41.741 E21.68312
G1 X184.537 Y41.777 E21.68812
G1 X187.956 Y45.193 E21.84887
G1 X194.037 Y39.112 E22.1349
G1 X180.885 Y25.959 E22.75356
G1 X174.807 Y32.041 E23.03954
G1 X178.198 Y35.434 E23.19909
G1 X178.255 Y35.605 E23.20509
G1 X178.198 Y35.718 E23.2093
G1 X170.761 Y43.154 E23.55909
G1 X170.666 Y43.198 E23.56257
G1 X170.51 Y43.16 E23.56791
G1 X163.208 Y35.859 E23.91135
G1 X32.536 Y166.532 E30.05778
G1 X32.041 Y167.051 E30.08164
G1 X31.555 Y167.615 E30.1064
G1 X31.117 Y168.176 E30.13007
G1 X30.691 Y168.784 E30.15476
G1 X30.312 Y169.38 E30.17826
G1 X29.949 Y170.019 E30.2027
G1 X29.629 Y170.654 E30.22635
G1 X29.325 Y171.341 E30.25134
G1 X29.069 Y172.004 E30.27497
G1 X28.836 Y172.711 E30.29973
G1 X28.643 Y173.409 E30.32382
G1 X28.485 Y174.112 E30.34779
G1 X28.358 Y174.834 E30.37217
G1 X28.268 Y175.563 E30.3966
G1 X28.22 Y176.278 E30.42043
G1 X28.201 Y176.996 E30.44432
G1 X28.22 Y177.714 E30.46821
G1 X28.272 Y178.429 E30.49206
G1 X28.358 Y179.158 E30.51647
G1 X28.485 Y179.881 E30.54089
G1 X28.639 Y180.575 E30.56453
G1 X28.836 Y181.285 E30.58904
G1 X29.069 Y181.988 E30.61367
G1 X29.325 Y182.651 E30.63731
G1 X29.621 Y183.322 E30.6617
G1 X29.945 Y183.965 E30.68565
G1 X30.308 Y184.605 E30.71012
G1 X30.691 Y185.213 E30.73402
G1 X31.113 Y185.812 E30.75839
G1 X31.555 Y186.377 E30.78225
G1 X32.029 Y186.929 E30.80645
G1 X32.538 Y187.462 E30.83096
G1 X33.047 Y187.951 E30.85444
G1 X33.611 Y188.437 E30.8792
G1 X34.184 Y188.883 E30.90335
G1 X34.772 Y189.297 E30.92727
G1 X35.383 Y189.684 E30.95132
G1 X36.023 Y190.047 E30.9758
G1 X36.667 Y190.371 E30.99977
G1 X37.333 Y190.671 E31.02407
G1 X38.007 Y190.927 E31.04805
G1 X38.703 Y191.156 E31.07242
G1 X39.405 Y191.353 E31.09667
G1 X40.115 Y191.511 E31.12086
G1 X40.838 Y191.638 E31.14528
G1 X41.552 Y191.724 E31.1692
G1 X42.282 Y191.78 E31.19355
G1 X42.993 Y191.795 E31.2172
G1 X43.718 Y191.78 E31.24132
G1 X44.448 Y191.724 E31.26567
G1 X45.162 Y191.638 E31.28959
G1 X45.896 Y191.511 E31.31437
G1 X46.595 Y191.354 E31.33819
G1 X47.289 Y191.16 E31.36216
G1 X47.992 Y190.927 E31.38679
G1 X48.655 Y190.675 E31.41038
G1 X49.334 Y190.371 E31.43513
G1 X49.97 Y190.051 E31.45881
G1 X50.609 Y189.692 E31.48319
G1 X51.216 Y189.305 E31.50713
G1 X51.82 Y188.879 E31.53171
G1 X52.381 Y188.441 E31.55538
G1 X52.929 Y187.971 E31.5794
G1 X53.464 Y187.46 E31.604
G1 X110.941 Y129.983 E34.30755
G1 F2400 E33.50755
G0 F9000 X110.726 Y129.767
G0 X53.044 Y187.031
G0 X38.403 Y185.106
G0 X36.739 Y186.043
;TYPE:SKIN
G1 F2400 E34.30755
G1 F1800 X37.299 Y185.937 E34.3265
G1 X37.77 Y185.769 E34.34313
G1 X38.133 Y185.555 E34.35715
G1 X38.536 Y185.228 E34.37441
G1 X38.787 Y184.93 E34.38737
G1 X38.995 Y184.594 E34.40051
G1 X39.192 Y184.102 E34.41814
G1 X39.288 Y183.6 E34.43514
G1 X39.28 Y183.065 E34.45293
G1 X39.201 Y182.644 E34.46718
G1 X38.986 Y182.079 E34.48729
G1 X38.628 Y181.592 E34.50739
G1 X38.245 Y181.241 E34.52467
G1 X37.706 Y180.909 E34.54573
G1 X37.163 Y180.756 E34.56449
G1 X36.709 Y180.7 E34.5797
G1 X36.242 Y180.724 E34.59526
G1 X35.747 Y180.847 E34.61222
G1 X35.278 Y181.071 E34.62951
G1 X34.872 Y181.356 E34.64601
G1 X34.481 Y181.777 E34.66512
G1 X34.16 Y182.374 E34.68766
G1 X34.012 Y182.878 E34.70513
G1 X33.968 Y183.37 E34.72156
G1 X34.01 Y183.783 E34.73537
G1 X34.178 Y184.432 E34.75767
G1 X34.536 Y185.004 E34.78011
G1 X34.822 Y185.312 E34.79409
G1 X35.241 Y185.628 E34.81154
G1 X35.667 Y185.84 E34.82737
G1 X36.065 Y185.957 E34.84117
G1 X36.739 Y186.043 E34.86377
G1 F2400 E34.06377
G0 F9000 X36.726 Y185.781
G0 X37.832 Y185.152
G0 X38.369 Y184.64
G0 X38.638 Y184.097
G0 X39.029 Y182.699
G0 X53.044 Y187.031
G0 X110.952 Y128.894
G1 F2400 E34.86377
G1 F1800 X52.927 Y186.917 E37.59304
G1 X52.413 Y187.411 E37.61675
G1 X51.901 Y187.845 E37.63907
G1 X51.36 Y188.271 E37.66198
G1 X50.796 Y188.669 E37.68494
G1 X50.225 Y189.032 E37.70744
G1 X49.605 Y189.379 E37.73107
G1 X49.013 Y189.679 E37.75315
G1 X48.351 Y189.975 E37.77726
G1 X47.741 Y190.207 E37.79897
G1 X47.057 Y190.432 E37.82292
G1 X46.402 Y190.618 E37.84557
G1 X45.753 Y190.763 E37.86768
G1 X45.043 Y190.886 E37.89165
G1 X44.38 Y190.964 E37.91385
G1 X43.67 Y191.02 E37.93754
G1 X42.993 Y191.032 E37.96006
G1 X42.326 Y191.02 E37.98225
G1 X41.616 Y190.964 E38.00594
G1 X40.958 Y190.886 E38.02798
G1 X40.256 Y190.763 E38.05168
G1 X39.594 Y190.614 E38.07425
G1 X38.931 Y190.428 E38.09715
G1 X38.255 Y190.207 E38.12081
G1 X37.617 Y189.963 E38.14353
G1 X36.986 Y189.679 E38.16654
G1 X36.383 Y189.379 E38.18894
G1 X35.767 Y189.028 E38.21252
G1 X35.2 Y188.669 E38.23485
G1 X34.64 Y188.275 E38.25762
G1 X34.088 Y187.841 E38.28097
G1 X33.551 Y187.38 E38.30451
G1 X33.07 Y186.918 E38.3267
G1 X32.585 Y186.41 E38.35006
G1 X32.167 Y185.921 E38.37145
G1 X31.741 Y185.38 E38.39435
G1 X31.327 Y184.796 E38.41816
G1 X30.956 Y184.205 E38.44137
G1 X30.609 Y183.597 E38.46466
G1 X30.306 Y182.994 E38.4871
G1 X30.025 Y182.355 E38.51032
G1 X29.761 Y181.664 E38.53492
G1 X29.58 Y181.118 E38.55405
G1 X29.375 Y180.383 E38.57943
G1 X29.233 Y179.736 E38.60147
G1 X29.106 Y179.034 E38.62519
G1 X29.028 Y178.361 E38.64773
G1 X28.98 Y177.666 E38.6709
G1 X28.961 Y177.003 E38.69296
G1 X28.98 Y176.318 E38.71575
G1 X29.024 Y175.643 E38.73825
G1 X29.11 Y174.954 E38.76134
G1 X29.233 Y174.252 E38.78505
G1 X29.379 Y173.601 E38.80724
G1 X29.56 Y172.938 E38.8301
G1 X29.781 Y172.268 E38.85356
G1 X30.025 Y171.641 E38.87594
G1 X30.321 Y170.97 E38.90033
G1 X30.617 Y170.382 E38.92223
G1 X30.956 Y169.779 E38.94523
G1 X31.319 Y169.212 E38.96763
G1 X31.729 Y168.627 E38.99139
G1 X32.136 Y168.103 E39.01345
G1 X32.601 Y167.559 E39.03726
G1 X33.075 Y167.064 E39.06005
G1 X163.205 Y36.935 E45.18094
G1 X170.015 Y43.742 E45.5012
G1 X170.266 Y43.89 E45.51089
G1 X170.684 Y43.96 E45.52498
G1 X171.035 Y43.869 E45.53704
G1 X171.25 Y43.732 E45.54552
G1 X178.829 Y36.155 E45.90197
G1 X178.978 Y35.835 E45.91371
G1 X179.011 Y35.529 E45.92395
G1 X178.919 Y35.158 E45.93666
G1 X178.753 Y34.913 E45.9465
G1 X175.879 Y32.039 E46.08169
G1 X180.884 Y27.035 E46.31708
G1 X192.961 Y39.112 E46.88515
G1 X187.956 Y44.117 E47.12057
G1 X185.014 Y41.174 E47.25897
G1 X184.564 Y40.992 E47.27512
G1 X184.257 Y40.991 E47.28533
G1 X183.83 Y41.166 E47.30068
G1 X176.262 Y48.739 E47.65677
G1 X176.123 Y48.957 E47.66537
G1 X176.038 Y49.285 E47.67664
G1 X176.061 Y49.59 E47.68681
G1 X176.24 Y49.963 E47.70057
G1 X183.061 Y56.788 E48.02151
G1 X110.952 Y128.894 E51.41322
G1 F2400 E50.61322
G0 F9000 X111.136 Y129.079
G0 X52.553 Y187.555
G0 X50.904 Y188.84
G0 X49.093 Y189.865
G0 X47.125 Y190.624
G0 X45.08 Y191.083
G0 X42.993 Y191.235
G0 X40.921 Y191.083
G0 X38.867 Y190.62
G0 X36.908 Y189.865
G0 X35.083 Y188.831
G0 X33.425 Y187.536
G0 X32.278 Y186.328
G0 X31.383 Y185.325
G0 X31.759 Y185.06
G1 F2400 E51.41322
G1 F1800 X34.945 Y188.245 E51.56306
G0 F9000 X34.68 Y188.62
G0 X36.226 Y189.586
G0 X36.453 Y189.189
G1 F1800 X30.809 Y183.544 E51.82856
G0 F9000 X30.41 Y183.77
G0 X29.868 Y182.642
G0 X30.288 Y182.458
G1 F1800 X37.539 Y189.708 E52.1696
G0 F9000 X38.459 Y190.063
G1 F1800 X29.928 Y181.532 E52.57087
G0 F9000 X29.672 Y180.71
G1 F1800 X39.28 Y190.318 E53.0228
G0 F9000 X40.036 Y190.508
G1 F1800 X35.516 Y185.988 E53.23541
G0 F9000 X36.282 Y186.188
G1 F1800 X40.738 Y190.644 E53.44501
G0 F9000 X41.395 Y190.736
G1 F1800 X36.881 Y186.222 E53.65733
G0 F9000 X37.352 Y186.127
G1 F1800 X42.019 Y190.794 E53.87685
G0 F9000 X42.615 Y190.825
G1 F1800 X37.774 Y185.983 E54.10458
G0 F9000 X38.139 Y185.782
G1 F1800 X43.184 Y190.828 E54.34191
G0 F9000 X43.736 Y190.814
G1 F1800 X38.465 Y185.543 E54.58984
G0 F9000 X38.759 Y185.272
G1 F1800 X44.262 Y190.775 E54.84868
G0 F9000 X44.769 Y190.716
G1 F1800 X39.005 Y184.952 E55.1198
G0 F9000 X39.213 Y184.594
G1 F1800 X45.263 Y190.644 E55.40438
G0 F9000 X45.745 Y190.56
G1 F1800 X39.371 Y184.186 E55.70419
G0 F9000 X39.468 Y183.718
G1 F1800 X46.207 Y190.457 E56.02117
G0 F9000 X46.654 Y190.338
G1 F1800 X39.476 Y183.16 E56.3588
G0 F9000 X39.345 Y182.463
G1 F1800 X47.091 Y190.21 E56.72317
G0 F9000 X47.517 Y190.07
G1 F1800 X29.923 Y172.475 E57.55077
G0 F9000 X30.075 Y172.062
G1 F1800 X47.933 Y189.92 E58.39075
G0 F9000 X48.339 Y189.761
G1 F1800 X30.237 Y171.658 E59.24224
G0 F9000 X30.409 Y171.265
G1 F1800 X48.73 Y189.586 E60.104
G0 F9000 X49.114 Y189.404
G1 F1800 X30.589 Y170.879 E60.97536
G0 F9000 X30.779 Y170.503
G1 F1800 X49.489 Y189.213 E61.85542
G0 F9000 X49.852 Y189.011
G1 F1800 X30.982 Y170.14 E62.74303
G0 F9000 X31.19 Y169.783
G1 F1800 X50.21 Y188.803 E63.63767
G0 F9000 X50.557 Y188.584
G1 F1800 X31.411 Y169.438 E64.53824
G0 F9000 X31.64 Y169.102
G1 F1800 X50.893 Y188.355 E65.44385
G0 F9000 X51.225 Y188.121
G1 F1800 X31.873 Y168.769 E66.3541
G0 F9000 X32.119 Y168.449
G1 F1800 X51.542 Y187.873 E67.26773
G0 F9000 X51.856 Y187.62
G1 F1800 X32.371 Y168.135 E68.18424
G0 F9000 X32.632 Y167.83
G1 F1800 X52.162 Y187.361 E69.1029
G0 F9000 X52.457 Y187.09
G1 F1800 X32.901 Y167.534 E70.02275
G0 F9000 X33.178 Y167.246
G1 F1800 X52.745 Y186.813 E70.94312
G0 F9000 X53.03 Y186.532
G1 F1800 X33.46 Y166.962 E71.86363
G0 F9000 X33.743 Y166.679
G1 F1800 X53.313 Y186.249 E72.78415
G0 F9000 X53.596 Y185.966
G1 F1800 X34.026 Y166.396 E73.70466
G0 F9000 X34.309 Y166.114
G1 F1800 X53.879 Y185.683 E74.62515
G0 F9000 X54.162 Y185.401
G1 F1800 X34.592 Y165.831 E75.54566
G0 F9000 X34.875 Y165.548
G1 F1800 X54.444 Y185.118 E76.46615
G0 F9000 X54.727 Y184.835
G1 F1800 X35.157 Y165.265 E77.38666
G0 F9000 X35.44 Y164.982
G1 F1800 X55.01 Y184.552 E78.30718
G0 F9000 X55.293 Y184.269
G1 F1800 X35.723 Y164.699 E79.22769
