;FLAVOR:Marlin
;TIME:9720
;Filament used: 19.0699m
;Layer height: 0.28
;MINX:67.7
;MINY:63.2
;MINZ:0.28
;MAXX:152.3
;MAXY:157.8
;MAXZ:100.16
;TARGET_MACHINE.NAME:Creality Ender-3 V3 SE
;Generated with Cura_SteamEngine 5.10.0
M220 S100 ;Reset Feedrate
M221 S100 ;Reset Flowrate

G28 ;Home

M420 S1; Use saved mesh leveling data

G92 E0 ;Reset Extruder
G1 Z2.0 F3000 ;Move Z Axis up
G1 X-3 Y20 Z0.28 F5000.0 ;Move to start position
M190 S65 ; Set bed temperature and wait
M109 S210.0 ; Set hotend temperature and wait
G1 X-3 Y100.0 Z0.28 F1500.0 E15 ;Draw the first line
G1 X-2 Y100.0 Z0.28 F5000.0 ;Move to side a little
G1 X-2 Y20 Z0.28 F1500.0 E30 ;Draw the second line
G92 E0 ;Reset Extruder
G1 E-1.0000 F1800 ;Retract a bit
G1 Z2.0 F3000 ;Move Z Axis up
G1 E0.0000 F1800 

M82 ;absolute extrusion mode
G92 E0
G92 E0
G1 F2400 E-0.8
;LAYER_COUNT:357
;LAYER:0
M107
G1 F300 Z0.48
G0 F9000 X69.966 Y65.549 Z0.48
;TYPE:SKIRT
G1 F300 Z0.28
G1 F2400 E0
G1 F1800 X70.254 Y65.318 E0.01719
G1 X70.411 Y65.231 E0.02555
G1 X70.688 Y65.131 E0.03926
G1 X70.944 Y65.105 E0.05124
G1 X71.308 Y65.13 E0.06823
G1 X71.558 Y65.221 E0.08062
G1 X71.826 Y65.374 E0.09499
G1 X72.027 Y65.543 E0.10722
G1 X72.265 Y65.89 E0.12681
G1 X72.348 Y66.135 E0.13886
G1 X72.404 Y66.494 E0.15578
G1 X72.342 Y66.908 E0.17527
G1 X72.23 Y67.158 E0.18802
G1 X72.033 Y67.451 E0.20447
G1 X71.758 Y67.671 E0.22086
G1 X71.514 Y67.798 E0.23367
G1 X71.238 Y67.877 E0.24704
G1 X71.058 Y67.895 E0.25546
G1 X70.692 Y67.87 E0.27255
G1 X70.442 Y67.779 E0.28493
G1 X70.178 Y67.628 E0.2991
G1 X69.969 Y67.453 E0.31179
G1 X69.735 Y67.111 E0.33108
G1 X69.652 Y66.866 E0.34313
G1 X69.596 Y66.506 E0.36009
G1 X69.648 Y66.148 E0.37694
G1 X69.733 Y65.896 E0.38932
G1 X69.966 Y65.549 E0.40879
G0 F9000 X70.263 Y65.824
G1 F1800 X70.477 Y65.652 E0.42157
G1 X70.579 Y65.596 E0.42699
G1 X70.778 Y65.524 E0.43684
G1 X70.951 Y65.506 E0.44494
G1 X71.225 Y65.525 E0.45773
G1 X71.389 Y65.584 E0.46585
G1 X71.594 Y65.702 E0.47686
G1 X71.729 Y65.816 E0.48509
G1 X71.903 Y66.07 E0.49942
G1 X71.959 Y66.234 E0.50749
G1 X71.999 Y66.493 E0.5197
G1 X71.954 Y66.797 E0.53401
G1 X71.88 Y66.962 E0.54243
G1 X71.737 Y67.175 E0.55437
G1 X71.537 Y67.335 E0.5663
G1 X71.364 Y67.425 E0.57538
G1 X71.162 Y67.482 E0.58515
G1 X71.05 Y67.494 E0.5904
G1 X70.775 Y67.475 E0.60323
G1 X70.611 Y67.416 E0.61135
G1 X70.406 Y67.298 E0.62236
G1 X70.269 Y67.183 E0.63069
G1 X70.097 Y66.931 E0.6449
G1 X70.041 Y66.767 E0.65297
G1 X70.001 Y66.505 E0.66531
G1 X70.039 Y66.239 E0.67782
G1 X70.094 Y66.075 E0.68588
G1 X70.263 Y65.824 E0.69997
G0 F9000 X70.561 Y66.098
G1 F1800 X70.701 Y65.985 E0.70834
G1 X70.742 Y65.962 E0.71053
G1 X70.869 Y65.916 E0.71682
G1 X70.956 Y65.908 E0.72089
G1 X71.142 Y65.921 E0.72957
G1 X71.219 Y65.948 E0.73337
G1 X71.366 Y66.033 E0.74128
G1 X71.429 Y66.086 E0.74511
G1 X71.543 Y66.252 E0.75449
G1 X71.569 Y66.328 E0.75823
G1 X71.595 Y66.493 E0.76601
G1 X71.568 Y66.681 E0.77485
G1 X71.528 Y66.768 E0.77931
G1 X71.438 Y66.903 E0.78686
G1 X71.323 Y66.995 E0.79372
G1 X71.216 Y67.051 E0.79935
G1 X71.084 Y67.088 E0.80573
G1 X71.043 Y67.092 E0.80765
G1 X70.858 Y67.079 E0.81628
G1 X70.781 Y67.052 E0.82008
G1 X70.637 Y66.969 E0.82782
G1 X70.568 Y66.912 E0.83199
G1 X70.459 Y66.751 E0.84104
G1 X70.43 Y66.667 E0.84518
G1 X70.405 Y66.505 E0.85281
G1 X70.43 Y66.329 E0.86109
G1 X70.456 Y66.254 E0.86479
G1 X70.561 Y66.098 E0.87354
G0 F9000 X70.858 Y66.373
G1 F1800 X70.92 Y66.322 E0.87728
G1 X70.955 Y66.31 E0.879
G1 X70.963 Y66.309 E0.87938
G1 X71.056 Y66.315 E0.88372
G1 X71.132 Y66.36 E0.88783
G1 X71.18 Y66.429 E0.89175
G1 X71.19 Y66.497 E0.89495
G1 X71.179 Y66.57 E0.89838
G1 X71.141 Y66.627 E0.90157
G1 X71.098 Y66.662 E0.90416
G1 X71.071 Y66.676 E0.90557
G1 X71.022 Y66.69 E0.90794
G1 X70.945 Y66.685 E0.91154
G1 X70.868 Y66.64 E0.91569
G1 X70.821 Y66.572 E0.91954
G1 X70.81 Y66.501 E0.92289
G1 X70.82 Y66.428 E0.92632
G1 X70.858 Y66.373 E0.92943
G1 F2400 E0.12943
G1 F300 Z0.48
G0 F9000 X70.944 Y114.105 Z0.48
G1 F300 Z0.28
G1 F2400 E0.92943
G1 F1800 X71.308 Y114.13 E0.94642
G1 X71.558 Y114.221 E0.95881
G1 X71.826 Y114.374 E0.97318
G1 X72.027 Y114.543 E0.9854
G1 X72.265 Y114.89 E1.005
G1 X72.348 Y115.135 E1.01704
G1 X72.404 Y115.494 E1.03396
G1 X72.342 Y115.908 E1.05345
G1 X72.23 Y116.158 E1.06621
G1 X72.033 Y116.451 E1.08265
G1 X71.758 Y116.671 E1.09905
G1 X71.514 Y116.798 E1.11186
G1 X71.238 Y116.877 E1.12522
G1 X71.058 Y116.895 E1.13365
G1 X70.692 Y116.87 E1.15073
G1 X70.442 Y116.779 E1.16312
G1 X70.178 Y116.628 E1.17728
G1 X69.969 Y116.453 E1.18997
G1 X69.735 Y116.111 E1.20927
G1 X69.652 Y115.866 E1.22131
G1 X69.596 Y115.506 E1.23828
G1 X69.648 Y115.148 E1.25512
G1 X69.733 Y114.896 E1.26751
G1 X69.966 Y114.549 E1.28697
G1 X70.254 Y114.318 E1.30416
G1 X70.411 Y114.231 E1.31252
G1 X70.688 Y114.131 E1.32623
G1 X70.944 Y114.105 E1.33821
G0 F9000 X70.951 Y114.506
G1 F1800 X71.225 Y114.525 E1.351
G1 X71.389 Y114.584 E1.35912
G1 X71.594 Y114.702 E1.37013
G1 X71.729 Y114.816 E1.37836
G1 X71.903 Y115.07 E1.3927
G1 X71.959 Y115.234 E1.40077
G1 X71.999 Y115.493 E1.41297
G1 X71.954 Y115.797 E1.42728
G1 X71.88 Y115.962 E1.4357
G1 X71.737 Y116.175 E1.44765
G1 X71.537 Y116.335 E1.45957
G1 X71.364 Y116.425 E1.46865
G1 X71.162 Y116.482 E1.47843
G1 X71.05 Y116.494 E1.48367
G1 X70.775 Y116.475 E1.49651
G1 X70.611 Y116.416 E1.50462
G1 X70.406 Y116.298 E1.51564
G1 X70.269 Y116.183 E1.52396
G1 X70.097 Y115.931 E1.53817
G1 X70.041 Y115.767 E1.54624
G1 X70.001 Y115.505 E1.55858
G1 X70.039 Y115.239 E1.57109
G1 X70.094 Y115.075 E1.57915
G1 X70.263 Y114.824 E1.59324
G1 X70.477 Y114.652 E1.60602
G1 X70.579 Y114.596 E1.61144
G1 X70.778 Y114.524 E1.6213
G1 X70.951 Y114.506 E1.62939
G0 F9000 X70.956 Y114.908
G1 F1800 X71.142 Y114.921 E1.63808
G1 X71.219 Y114.948 E1.64188
G1 X71.366 Y115.033 E1.64978
G1 X71.429 Y115.086 E1.65362
G1 X71.543 Y115.252 E1.66299
G1 X71.569 Y115.328 E1.66673
G1 X71.595 Y115.493 E1.67451
G1 X71.568 Y115.681 E1.68336
G1 X71.528 Y115.768 E1.68781
G1 X71.438 Y115.903 E1.69537
G1 X71.323 Y115.995 E1.70223
G1 X71.216 Y116.051 E1.70785
G1 X71.084 Y116.088 E1.71423
G1 X71.043 Y116.092 E1.71615
G1 X70.858 Y116.079 E1.72479
G1 X70.781 Y116.052 E1.72859
G1 X70.637 Y115.969 E1.73633
G1 X70.568 Y115.912 E1.74049
G1 X70.459 Y115.751 E1.74955
G1 X70.43 Y115.667 E1.75369
G1 X70.405 Y115.505 E1.76132
G1 X70.43 Y115.329 E1.7696
G1 X70.456 Y115.254 E1.77329
G1 X70.561 Y115.098 E1.78205
G1 X70.701 Y114.985 E1.79043
G1 X70.742 Y114.962 E1.79261
G1 X70.869 Y114.916 E1.7989
G1 X70.956 Y114.908 E1.80297
G0 F9000 X70.963 Y115.309
G1 F1800 X71.056 Y115.315 E1.80731
G1 X71.132 Y115.36 E1.81142
G1 X71.18 Y115.429 E1.81534
G1 X71.19 Y115.497 E1.81854
G1 X71.179 Y115.57 E1.82198
G1 X71.141 Y115.627 E1.82517
G1 X71.098 Y115.662 E1.82775
G1 X71.071 Y115.676 E1.82916
G1 X71.022 Y115.69 E1.83154
G1 X70.945 Y115.685 E1.83513
G1 X70.868 Y115.64 E1.83928
G1 X70.821 Y115.572 E1.84313
G1 X70.81 Y115.501 E1.84648
G1 X70.82 Y115.428 E1.84991
G1 X70.858 Y115.373 E1.85302
G1 X70.92 Y115.322 E1.85676
G1 X70.955 Y115.31 E1.85848
G1 X70.963 Y115.309 E1.85886
G1 F2400 E1.05886
G1 F300 Z0.48
G0 F9000 X94.7 Y125 Z0.48
G1 F300 Z0.28
G1 F2400 E1.85886
G1 F1800 X129.3 Y125 E3.46998
G1 X129.3 Y157.8 E4.99728
G1 X94.7 Y157.8 E6.6084
G1 X94.7 Y125 E8.13571
G0 F9000 X95.1 Y125.4
G1 F1800 X128.9 Y125.4 E9.70958
G1 X128.9 Y157.4 E11.19963
G1 X95.1 Y157.4 E12.7735
G1 X95.1 Y125.4 E14.26356
G0 F9000 X95.5 Y125.8
G1 F1800 X128.5 Y125.8 E15.80018
G1 X128.5 Y157 E17.25298
G1 X95.5 Y157 E18.7896
G1 X95.5 Y125.8 E20.2424
G0 F9000 X95.9 Y126.2
G1 F1800 X128.1 Y126.2 E21.74177
G1 X128.1 Y156.6 E23.15732
G1 X95.9 Y156.6 E24.65668
G1 X95.9 Y126.2 E26.07224
G0 F9000 X96.3 Y126.6
G1 F1800 X127.7 Y126.6 E27.53435
G1 X127.7 Y156.2 E28.91265
G1 X96.3 Y156.2 E30.37477
G1 X96.3 Y126.6 E31.75307
G0 F9000 X96.7 Y127
G1 F1800 X127.3 Y127 E33.17793
G1 X127.3 Y155.8 E34.51898
G1 X96.7 Y155.8 E35.94384
G1 X96.7 Y127 E37.28489
G0 F9000 X97.1 Y127.4
G1 F1800 X126.9 Y127.4 E38.67251
G1 X126.9 Y155.4 E39.9763
G1 X97.1 Y155.4 E41.36392
G1 X97.1 Y127.4 E42.66771
G0 F9000 X97.5 Y127.8
G1 F1800 X126.5 Y127.8 E44.01807
G1 X126.5 Y155 E45.28462
G1 X97.5 Y155 E46.63498
G1 X97.5 Y127.8 E47.90153
G0 F9000 X97.9 Y128.2
G1 F1800 X126.1 Y128.2 E49.21464
G1 X126.1 Y154.6 E50.44393
G1 X97.9 Y154.6 E51.75704
G1 X97.9 Y128.2 E52.98634
G0 F9000 X98.3 Y128.6
G1 F1800 X125.7 Y128.6 E54.2622
G1 X125.7 Y154.2 E55.45424
G1 X98.3 Y154.2 E56.7301
G1 X98.3 Y128.6 E57.92214
G1 F2400 E57.12214
G1 F300 Z0.48
G0 F9000 X127.735 Y116.111 Z0.48
G1 F300 Z0.28
G1 F2400 E57.92214
G1 F1800 X127.652 Y115.866 E57.93419
G1 X127.596 Y115.506 E57.95115
G1 X127.648 Y115.148 E57.968
G1 X127.733 Y114.896 E57.98038
G1 X127.966 Y114.549 E57.99984
G1 X128.254 Y114.318 E58.01703
G1 X128.411 Y114.231 E58.02539
G1 X128.688 Y114.131 E58.0391
G1 X128.944 Y114.105 E58.05109
G1 X129.308 Y114.13 E58.06808
G1 X129.558 Y114.221 E58.08046
G1 X129.826 Y114.374 E58.09483
G1 X130.027 Y114.543 E58.10706
G1 X130.265 Y114.89 E58.12665
G1 X130.348 Y115.135 E58.1387
G1 X130.404 Y115.494 E58.15562
G1 X130.342 Y115.908 E58.17511
G1 X130.23 Y116.158 E58.18787
G1 X130.033 Y116.451 E58.20431
G1 X129.758 Y116.671 E58.22071
G1 X129.514 Y116.798 E58.23351
G1 X129.238 Y116.877 E58.24688
G1 X129.058 Y116.895 E58.25531
G1 X128.692 Y116.87 E58.27239
G1 X128.442 Y116.779 E58.28478
G1 X128.178 Y116.628 E58.29894
G1 X127.969 Y116.453 E58.31163
G1 X127.735 Y116.111 E58.33093
G0 F9000 X128.097 Y115.931
G1 F1800 X128.041 Y115.767 E58.339
G1 X128.001 Y115.505 E58.35134
G1 X128.039 Y115.239 E58.36385
G1 X128.094 Y115.075 E58.3719
G1 X128.263 Y114.824 E58.38599
G1 X128.477 Y114.652 E58.39878
G1 X128.579 Y114.596 E58.4042
G1 X128.778 Y114.524 E58.41405
G1 X128.951 Y114.506 E58.42215
G1 X129.225 Y114.525 E58.43494
G1 X129.389 Y114.584 E58.44305
G1 X129.594 Y114.702 E58.45407
G1 X129.729 Y114.816 E58.4623
G1 X129.903 Y115.07 E58.47663
G1 X129.959 Y115.234 E58.4847
G1 X129.999 Y115.493 E58.4969
G1 X129.954 Y115.797 E58.51121
G1 X129.88 Y115.962 E58.51963
G1 X129.737 Y116.175 E58.53158
G1 X129.537 Y116.335 E58.54351
G1 X129.364 Y116.425 E58.55259
G1 X129.162 Y116.482 E58.56236
G1 X129.05 Y116.494 E58.56761
G1 X128.775 Y116.475 E58.58044
G1 X128.611 Y116.416 E58.58856
G1 X128.406 Y116.298 E58.59957
G1 X128.269 Y116.183 E58.6079
G1 X128.097 Y115.931 E58.62211
G0 F9000 X128.459 Y115.751
G1 F1800 X128.43 Y115.667 E58.62625
G1 X128.405 Y115.505 E58.63388
G1 X128.43 Y115.329 E58.64216
G1 X128.456 Y115.254 E58.64585
G1 X128.561 Y115.098 E58.65461
G1 X128.701 Y114.985 E58.66299
G1 X128.742 Y114.962 E58.66517
G1 X128.869 Y114.916 E58.67146
G1 X128.956 Y114.908 E58.67553
G1 X129.142 Y114.921 E58.68421
G1 X129.219 Y114.948 E58.68801
G1 X129.366 Y115.033 E58.69592
G1 X129.429 Y115.086 E58.69975
G1 X129.543 Y115.252 E58.70913
G1 X129.569 Y115.328 E58.71287
G1 X129.595 Y115.493 E58.72065
G1 X129.568 Y115.681 E58.72949
G1 X129.528 Y115.768 E58.73395
G1 X129.438 Y115.903 E58.74151
G1 X129.323 Y115.995 E58.74836
G1 X129.216 Y116.051 E58.75399
G1 X129.084 Y116.088 E58.76037
G1 X129.043 Y116.092 E58.76229
G1 X128.858 Y116.079 E58.77092
G1 X128.781 Y116.052 E58.77472
G1 X128.637 Y115.969 E58.78246
G1 X128.568 Y115.912 E58.78663
G1 X128.459 Y115.751 E58.79568
G0 F9000 X128.821 Y115.572
G1 F1800 X128.81 Y115.501 E58.79903
G1 X128.82 Y115.428 E58.80246
G1 X128.858 Y115.373 E58.80557
G1 X128.92 Y115.322 E58.80931
G1 X128.955 Y115.31 E58.81103
G1 X128.963 Y115.309 E58.81141
G1 X129.056 Y115.315 E58.81575
G1 X129.132 Y115.36 E58.81986
G1 X129.18 Y115.429 E58.82378
G1 X129.19 Y115.497 E58.82698
G1 X129.179 Y115.57 E58.83041
G1 X129.141 Y115.627 E58.8336
G1 X129.098 Y115.662 E58.83619
G1 X129.071 Y115.676 E58.8376
G1 X129.022 Y115.69 E58.83998
G1 X128.945 Y115.685 E58.84357
G1 X128.868 Y115.64 E58.84772
G1 X128.821 Y115.572 E58.85157
G1 F2400 E58.05157
G1 F300 Z0.48
G0 F9000 X129.058 Y67.895 Z0.48
G1 F300 Z0.28
G1 F2400 E58.85157
G1 F1800 X128.692 Y67.87 E58.86865
G1 X128.442 Y67.779 E58.88104
G1 X128.178 Y67.628 E58.8952
G1 X127.969 Y67.453 E58.9079
G1 X127.735 Y67.111 E58.92719
G1 X127.652 Y66.866 E58.93924
G1 X127.596 Y66.506 E58.9562
G1 X127.648 Y66.148 E58.97305
G1 X127.733 Y65.896 E58.98543
G1 X127.966 Y65.549 E59.00489
G1 X128.254 Y65.318 E59.02208
G1 X128.411 Y65.231 E59.03044
G1 X128.688 Y65.131 E59.04415
G1 X128.944 Y65.105 E59.05614
G1 X129.308 Y65.13 E59.07313
G1 X129.558 Y65.221 E59.08551
G1 X129.826 Y65.374 E59.09988
G1 X130.027 Y65.543 E59.11211
G1 X130.265 Y65.89 E59.1317
G1 X130.348 Y66.135 E59.14375
G1 X130.404 Y66.494 E59.16067
G1 X130.342 Y66.908 E59.18016
G1 X130.23 Y67.158 E59.19292
G1 X130.033 Y67.451 E59.20936
G1 X129.758 Y67.671 E59.22576
G1 X129.514 Y67.798 E59.23856
G1 X129.238 Y67.877 E59.25193
G1 X129.058 Y67.895 E59.26036
G0 F9000 X129.05 Y67.494
G1 F1800 X128.775 Y67.475 E59.27319
G1 X128.611 Y67.416 E59.28131
G1 X128.406 Y67.298 E59.29232
G1 X128.269 Y67.183 E59.30065
G1 X128.097 Y66.931 E59.31486
G1 X128.041 Y66.767 E59.32293
G1 X128.001 Y66.505 E59.33527
G1 X128.039 Y66.239 E59.34778
G1 X128.094 Y66.075 E59.35583
G1 X128.263 Y65.824 E59.36992
G1 X128.477 Y65.652 E59.38271
G1 X128.579 Y65.596 E59.38813
G1 X128.778 Y65.524 E59.39798
G1 X128.951 Y65.506 E59.40608
G1 X129.225 Y65.525 E59.41887
G1 X129.389 Y65.584 E59.42698
G1 X129.594 Y65.702 E59.438
G1 X129.729 Y65.816 E59.44623
G1 X129.903 Y66.07 E59.46056
G1 X129.959 Y66.234 E59.46863
G1 X129.999 Y66.493 E59.48083
G1 X129.954 Y66.797 E59.49514
G1 X129.88 Y66.962 E59.50356
G1 X129.737 Y67.175 E59.51551
G1 X129.537 Y67.335 E59.52744
G1 X129.364 Y67.425 E59.53652
G1 X129.162 Y67.482 E59.54629
G1 X129.05 Y67.494 E59.55154
G0 F9000 X129.043 Y67.092
G1 F1800 X128.858 Y67.079 E59.56017
G1 X128.781 Y67.052 E59.56397
G1 X128.637 Y66.969 E59.57171
G1 X128.568 Y66.912 E59.57588
G1 X128.459 Y66.751 E59.58493
G1 X128.43 Y66.667 E59.58907
G1 X128.405 Y66.505 E59.5967
G1 X128.43 Y66.329 E59.60498
G1 X128.456 Y66.254 E59.60868
G1 X128.561 Y66.098 E59.61743
G1 X128.701 Y65.985 E59.62581
G1 X128.742 Y65.962 E59.628
G1 X128.869 Y65.916 E59.63429
G1 X128.956 Y65.908 E59.63836
G1 X129.142 Y65.921 E59.64704
G1 X129.219 Y65.948 E59.65084
G1 X129.366 Y66.033 E59.65874
G1 X129.429 Y66.086 E59.66258
G1 X129.543 Y66.252 E59.67195
G1 X129.569 Y66.328 E59.6757
G1 X129.595 Y66.493 E59.68347
G1 X129.568 Y66.681 E59.69232
G1 X129.528 Y66.768 E59.69678
G1 X129.438 Y66.903 E59.70433
G1 X129.323 Y66.995 E59.71119
G1 X129.216 Y67.051 E59.71681
G1 X129.084 Y67.088 E59.7232
G1 X129.043 Y67.092 E59.72511
G0 F9000 X129.022 Y66.69
G1 F1800 X128.945 Y66.685 E59.72871
G1 X128.868 Y66.64 E59.73286
G1 X128.821 Y66.572 E59.73671
G1 X128.81 Y66.501 E59.74005
G1 X128.82 Y66.428 E59.74348
G1 X128.858 Y66.373 E59.7466
G1 X128.92 Y66.322 E59.75034
G1 X128.955 Y66.31 E59.75206
G1 X128.963 Y66.309 E59.75243
G1 X129.056 Y66.315 E59.75677
G1 X129.132 Y66.36 E59.76089
G1 X129.18 Y66.429 E59.7648
G1 X129.19 Y66.497 E59.768
G1 X129.179 Y66.57 E59.77144
G1 X129.141 Y66.627 E59.77463
G1 X129.098 Y66.662 E59.77721
G1 X129.071 Y66.676 E59.77863
G1 X129.022 Y66.69 E59.781
G1 F2400 E58.981
G1 F300 Z0.48
G0 F9000 X125.3 Y129 Z0.48
;TYPE:SUPPORT
G1 F300 Z0.28
G1 F2400 E59.781
G1 F1800 X125.3 Y153.8 E60.93579
G1 X98.7 Y153.8 E62.1744
G1 X98.7 Y129 E63.32919
G1 X125.3 Y129 E64.5678
G0 F9000 X125.22 Y130
G1 F1800 X98.78 Y130 E65.79895
G1 F2400 E64.99895
G1 F300 Z0.48
G0 F9000 X100 Y129.08 Z0.48
G1 F300 Z0.28
G1 F2400 E65.79895
G1 F1800 X100 Y153.72 E66.9463
G1 F2400 E66.1463
G1 F300 Z0.48
G0 F9000 X102 Y153.72 Z0.48
G1 F300 Z0.28
G1 F2400 E66.9463
