;FLAVOR:Marlin
;TIME:613
;Filament used: 0.899257m
;Layer height: 0.28
;MINX:85.973
;MINY:98.364
;MINZ:0.28
;MAXX:134.024
;MAXY:121.632
;MAXZ:8.12
;TARGET_MACHINE.NAME:Creality Ender-3 V3 SE
;Generated with Cura_SteamEngine 5.10.0
M220 S100 ;Reset Feedrate
M221 S100 ;Reset Flowrate

G28 ;Home

M420 S1; Use saved mesh leveling data

G92 E0 ;Reset Extruder
G1 Z2.0 F3000 ;Move Z Axis up
G1 X-3 Y20 Z0.28 F5000.0 ;Move to start position
M190 S65 ; Set bed temperature and wait
M109 S210.0 ; Set hotend temperature and wait
G1 X-3 Y100.0 Z0.28 F1500.0 E15 ;Draw the first line
G1 X-2 Y100.0 Z0.28 F5000.0 ;Move to side a little
G1 X-2 Y20 Z0.28 F1500.0 E30 ;Draw the second line
G92 E0 ;Reset Extruder
G1 E-1.0000 F1800 ;Retract a bit
G1 Z2.0 F3000 ;Move Z Axis up
G1 E0.0000 F1800 

M82 ;absolute extrusion mode
G92 E0
G92 E0
G1 F2400 E-0.8
;LAYER_COUNT:29
;LAYER:0
M107
G1 F300 Z0.48
;MESH:curvedplate-bottom.stl
G0 F9000 X102.727 Y112.586 Z0.48
;TYPE:WALL-INNER
G1 F300 Z0.28
G1 F2400 E0
G1 F1800 X102.247 Y112.589 E0.02235
G1 X101.689 Y112.472 E0.0489
G1 X101.237 Y112.271 E0.07193
G1 X100.895 Y112.046 E0.091
G1 X100.407 Y111.579 E0.12245
G1 X100.106 Y111.013 E0.1523
G1 X99.973 Y110.637 E0.17087
G1 X99.896 Y110.048 E0.19853
G1 X99.92 Y109.631 E0.21798
G1 X100.062 Y109.081 E0.24443
G1 X100.38 Y108.45 E0.27733
G1 X100.81 Y108.02 E0.30565
G1 X101.274 Y107.701 E0.33187
G1 X101.675 Y107.528 E0.3522
G1 X102.092 Y107.428 E0.37217
G1 X102.524 Y107.396 E0.39234
G1 X102.972 Y107.44 E0.4133
G1 X103.503 Y107.597 E0.43909
G1 X104.049 Y107.883 E0.46779
G1 X104.646 Y108.491 E0.50746
G1 X104.959 Y109.146 E0.54127
G1 X105.087 Y109.7 E0.56774
G1 X105.087 Y110.296 E0.59549
G1 X104.96 Y110.844 E0.62169
G1 X104.783 Y111.245 E0.6421
G1 X104.448 Y111.725 E0.66935
G1 X104.101 Y112.043 E0.69127
G1 X103.657 Y112.349 E0.71638
G1 X103.072 Y112.536 E0.74498
G1 X102.727 Y112.586 E0.76121
G1 F2400 E-0.03879
G1 F300 Z0.48
G0 F9000 X110 Y115.896 Z0.48
G1 F300 Z0.28
G1 F2400 E0.76121
G1 F1800 X122.7 Y115.896 E1.35258
G1 X122.703 Y104.1 E1.90185
G1 X97.297 Y104.101 E3.08486
G1 X97.296 Y115.896 E3.63408
G1 X110 Y115.896 E4.22563
G1 F2400 E3.42563
G1 F300 Z0.48
G0 F9000 X117.247 Y112.589 Z0.48
G1 F300 Z0.28
G1 F2400 E4.22563
G1 F1800 X116.689 Y112.472 E4.25218
G1 X116.237 Y112.271 E4.27521
G1 X115.907 Y112.059 E4.29348
G1 X115.41 Y111.581 E4.32559
G1 X115.122 Y111.059 E4.35335
G1 X114.975 Y110.642 E4.37394
G1 X114.893 Y110.064 E4.40112
G1 X114.92 Y109.655 E4.42021
G1 X115.06 Y109.084 E4.44758
G1 X115.38 Y108.45 E4.48065
G1 X115.81 Y108.02 E4.50897
G1 X116.274 Y107.701 E4.53519
G1 X116.675 Y107.528 E4.55552
G1 X117.092 Y107.428 E4.57549
G1 X117.524 Y107.396 E4.59566
G1 X117.972 Y107.44 E4.61662
G1 X118.503 Y107.597 E4.64241
G1 X119.046 Y107.881 E4.67094
G1 X119.646 Y108.489 E4.71071
G1 X119.959 Y109.147 E4.74464
G1 X120.088 Y109.704 E4.77127
G1 X120.089 Y110.284 E4.79827
G1 X119.96 Y110.844 E4.82503
G1 X119.783 Y111.245 E4.84544
G1 X119.45 Y111.722 E4.87253
G1 X119.101 Y112.043 E4.89461
G1 X118.657 Y112.349 E4.91972
G1 X118.072 Y112.536 E4.94832
G1 X117.727 Y112.586 E4.96455
G1 X117.247 Y112.589 E4.9869
G0 F9000 X117.637 Y112.192
;TYPE:WALL-OUTER
G1 F1800 X117.305 Y112.189 E5.00236
G1 X116.794 Y112.081 E5.02668
G1 X116.452 Y111.933 E5.04403
G1 X116.145 Y111.733 E5.06109
G1 X115.73 Y111.335 E5.08787
G1 X115.483 Y110.879 E5.11202
G1 X115.362 Y110.525 E5.12944
G1 X115.296 Y110.066 E5.15103
G1 X115.317 Y109.703 E5.16796
G1 X115.449 Y109.201 E5.19213
G1 X115.707 Y108.689 E5.21883
G1 X116.054 Y108.342 E5.24168
G1 X116.488 Y108.044 E5.26619
G1 X116.817 Y107.905 E5.28282
G1 X117.161 Y107.822 E5.2993
G1 X117.509 Y107.796 E5.31555
G1 X117.878 Y107.833 E5.33282
G1 X118.369 Y107.978 E5.35666
G1 X118.82 Y108.221 E5.38051
G1 X119.315 Y108.724 E5.41337
G1 X119.583 Y109.298 E5.44287
G1 X119.688 Y109.776 E5.46566
G1 X119.686 Y110.255 E5.48796
G1 X119.572 Y110.733 E5.51085
G1 X119.44 Y111.033 E5.52611
G1 X119.134 Y111.47 E5.55095
G1 X118.887 Y111.704 E5.56679
G1 X118.478 Y111.985 E5.5899
G1 X118.003 Y112.142 E5.61319
G1 X117.637 Y112.192 E5.63039
G1 F2400 E4.83039
G1 F300 Z0.48
G0 F9000 X110 Y116.296 Z0.48
G1 F300 Z0.28
G1 F2400 E5.63039
G1 F1800 X123.1 Y116.296 E6.24038
G1 X123.103 Y103.7 E6.82691
G1 X96.897 Y103.701 E8.04717
G1 X96.896 Y116.296 E8.63364
G1 X110 Y116.296 E9.24382
G1 F2400 E8.44382
G1 F300 Z0.48
G0 F9000 X102.637 Y112.192 Z0.48
G1 F300 Z0.28
G1 F2400 E9.24382
G1 F1800 X102.305 Y112.189 E9.25928
G1 X101.794 Y112.081 E9.2836
G1 X101.452 Y111.933 E9.30095
G1 X101.145 Y111.733 E9.31801
G1 X100.73 Y111.335 E9.34479
G1 X100.483 Y110.879 E9.36894
G1 X100.362 Y110.531 E9.38609
G1 X100.296 Y110.035 E9.40939
G1 X100.322 Y109.678 E9.42606
G1 X100.449 Y109.201 E9.44904
G1 X100.707 Y108.689 E9.47574
G1 X101.054 Y108.342 E9.49859
G1 X101.488 Y108.044 E9.52311
G1 X101.817 Y107.905 E9.53974
G1 X102.161 Y107.822 E9.55621
G1 X102.509 Y107.796 E9.57246
G1 X102.878 Y107.833 E9.58973
G1 X103.369 Y107.978 E9.61357
G1 X103.809 Y108.209 E9.63671
G1 X104.314 Y108.723 E9.67026
G1 X104.583 Y109.298 E9.69982
G1 X104.687 Y109.75 E9.72142
G1 X104.687 Y110.246 E9.74452
G1 X104.572 Y110.733 E9.76782
G1 X104.44 Y111.033 E9.78308
G1 X104.134 Y111.47 E9.80792
G1 X103.898 Y111.694 E9.82307
G1 X103.479 Y111.985 E9.84683
G1 X103.003 Y112.142 E9.87016
G1 X102.637 Y112.192 E9.88737
G1 F2400 E9.08737
G1 F300 Z0.48
G0 F9000 X117.226 Y112.949 Z0.48
;TYPE:SKIN
G1 F300 Z0.28
G1 F2400 E9.88737
G1 F1800 X117.682 Y112.952 E9.9086
G1 X118.135 Y112.89 E9.92989
G1 X118.817 Y112.674 E9.9632
G1 X119.363 Y112.296 E9.99412
G1 X119.71 Y111.97 E10.01629
G1 X120.088 Y111.44 E10.04661
G1 X120.308 Y110.937 E10.07217
G1 X120.446 Y110.331 E10.10111
G1 X120.443 Y109.642 E10.13319
G1 X120.303 Y109.042 E10.16188
G1 X120.017 Y108.43 E10.19334
G1 X119.848 Y108.184 E10.20724
G1 X119.26 Y107.589 E10.24619
G1 X118.654 Y107.267 E10.27814
G1 X118.057 Y107.088 E10.30716
G1 X117.545 Y107.032 E10.33115
G1 X117.044 Y107.068 E10.35453
G1 X116.572 Y107.181 E10.37713
G1 X116.116 Y107.376 E10.40023
G1 X115.591 Y107.73 E10.42971
G1 X115.194 Y108.122 E10.45569
G1 X115.03 Y108.341 E10.46843
G1 X114.713 Y108.977 E10.50152
G1 X114.561 Y109.615 E10.53206
G1 X114.532 Y110.083 E10.55389
G1 X114.621 Y110.713 E10.58352
G1 X114.783 Y111.183 E10.60667
G1 X115.115 Y111.796 E10.63913
G1 X115.668 Y112.332 E10.67499
G1 X116.096 Y112.609 E10.69873
G1 X116.571 Y112.809 E10.72273
G1 X117.226 Y112.949 E10.75392
G1 F2400 E9.95392
G1 F300 Z0.48
G0 F9000 X110 Y115.536 Z0.48
G1 F300 Z0.28
G1 F2400 E10.75392
G1 F1800 X97.656 Y115.536 E11.32871
G1 X97.656 Y104.46 E11.84445
G1 X122.34 Y104.46 E12.99384
G1 X122.34 Y115.536 E13.50959
G1 X110 Y115.536 E14.08419
G1 F2400 E13.28419
G1 F300 Z0.48
G0 F9000 X102.682 Y112.952 Z0.48
G1 F300 Z0.28
G1 F2400 E14.08419
G1 F1800 X103.135 Y112.89 E14.10548
G1 X103.813 Y112.674 E14.13861
G1 X104.353 Y112.306 E14.16904
G1 X104.74 Y111.935 E14.194
G1 X105.108 Y111.404 E14.22409
G1 X105.308 Y110.937 E14.24774
G1 X105.444 Y110.33 E14.27671
G1 X105.439 Y109.65 E14.30837
G1 X105.293 Y109.005 E14.33917
G1 X105.002 Y108.406 E14.37017
G1 X104.854 Y108.19 E14.38237
G1 X104.266 Y107.59 E14.42149
G1 X103.654 Y107.267 E14.45371
G1 X103.057 Y107.088 E14.48273
G1 X102.545 Y107.032 E14.50671
G1 X102.044 Y107.068 E14.5301
G1 X101.572 Y107.181 E14.5527
G1 X101.116 Y107.376 E14.57579
G1 X100.591 Y107.73 E14.60528
G1 X100.194 Y108.122 E14.63126
G1 X100.029 Y108.347 E14.64425
G1 X99.733 Y108.93 E14.67469
G1 X99.566 Y109.562 E14.70513
G1 X99.532 Y110.068 E14.72875
G1 X99.617 Y110.712 E14.759
G1 X99.787 Y111.196 E14.78288
G1 X100.119 Y111.804 E14.81514
G1 X100.686 Y112.342 E14.85153
G1 X101.121 Y112.621 E14.8756
G1 X101.573 Y112.813 E14.89847
G1 X102.182 Y112.944 E14.92747
G1 X102.682 Y112.952 E14.95076
G1 F2400 E14.15076
G1 F300 Z0.48
G0 F9000 X97.856 Y114.826 Z0.48
G1 F300 Z0.28
G1 F2400 E14.95076
G1 F1800 X98.366 Y115.336 E14.98434
G0 F9000 X98.931 Y115.336
G1 F1800 X97.856 Y114.261 E15.05513
G0 F9000 X97.856 Y113.695
G1 F1800 X99.497 Y115.336 E15.16319
G0 F9000 X100.063 Y115.336
G1 F1800 X97.856 Y113.129 E15.30853
G0 F9000 X97.856 Y112.564
G1 F1800 X100.628 Y115.336 E15.49107
G0 F9000 X101.194 Y115.336
G1 F1800 X97.856 Y111.998 E15.71088
G0 F9000 X97.856 Y111.432
G1 F1800 X101.76 Y115.336 E15.96797
G0 F9000 X102.325 Y115.336
G1 F1800 X97.856 Y110.867 E16.26226
G0 F9000 X97.856 Y110.301
G1 F1800 X102.891 Y115.336 E16.59382
G0 F9000 X103.457 Y115.336
G1 F1800 X100.737 Y112.617 E16.77291
G0 F9000 X101.743 Y113.057
G1 F1800 X104.022 Y115.336 E16.92298
G0 F9000 X104.588 Y115.336
G1 F1800 X102.402 Y113.151 E17.0669
G0 F9000 X102.936 Y113.118
G1 F1800 X105.154 Y115.336 E17.21296
G0 F9000 X105.72 Y115.336
G1 F1800 X103.398 Y113.015 E17.36584
G0 F9000 X103.829 Y112.88
G1 F1800 X106.285 Y115.336 E17.52757
G0 F9000 X106.851 Y115.336
G1 F1800 X104.181 Y112.666 E17.70339
G0 F9000 X104.511 Y112.431
G1 F1800 X107.417 Y115.336 E17.89472
G0 F9000 X107.982 Y115.336
G1 F1800 X104.803 Y112.157 E18.10407
G0 F9000 X105.051 Y111.84
G1 F1800 X108.548 Y115.336 E18.33432
G0 F9000 X109.114 Y115.336
G1 F1800 X105.282 Y111.504 E18.58666
G0 F9000 X105.449 Y111.106
G1 F1800 X109.679 Y115.336 E18.86521
G0 F9000 X110.245 Y115.336
G1 F1800 X105.572 Y110.664 E19.17291
G0 F9000 X105.642 Y110.168
G1 F1800 X110.811 Y115.336 E19.51326
G0 F9000 X111.376 Y115.336
G1 F1800 X105.63 Y109.59 E19.89164
G0 F9000 X105.425 Y108.819
G1 F1800 X111.942 Y115.336 E20.3208
G0 F9000 X112.508 Y115.336
G1 F1800 X101.832 Y104.66 E21.02383
G0 F9000 X101.266 Y104.66
G1 F1800 X103.662 Y107.056 E21.18161
G0 F9000 X102.909 Y106.869
G1 F1800 X100.7 Y104.66 E21.32708
G0 F9000 X100.135 Y104.66
G1 F1800 X102.323 Y106.848 E21.47116
G0 F9000 X101.823 Y106.915
G1 F1800 X99.569 Y104.66 E21.61963
G0 F9000 X99.003 Y104.66
G1 F1800 X101.384 Y107.041 E21.77642
G0 F9000 X100.995 Y107.217
G1 F1800 X98.438 Y104.66 E21.9448
G0 F9000 X97.872 Y104.66
G1 F1800 X100.656 Y107.444 E22.12813
G0 F9000 X100.343 Y107.697
G1 F1800 X97.856 Y105.21 E22.29191
G0 F9000 X97.856 Y105.775
G1 F1800 X100.061 Y107.98 E22.43711
G0 F9000 X99.823 Y108.308
G1 F1800 X97.856 Y106.341 E22.56664
G0 F9000 X97.856 Y106.907
G1 F1800 X99.633 Y108.684 E22.68366
G0 F9000 X99.479 Y109.096
G1 F1800 X97.856 Y107.472 E22.79057
G0 F9000 X97.856 Y108.038
G1 F1800 X99.363 Y109.546 E22.88984
G0 F9000 X99.331 Y110.079
G1 F1800 X97.856 Y108.604 E22.98697
G0 F9000 X97.856 Y109.17
G1 F1800 X99.418 Y110.732 E23.08983
G0 F9000 X99.854 Y111.733
G1 F1800 X97.856 Y109.735 E23.2214
G1 F2400 E22.4214
G1 F300 Z0.48
G0 F9000 X102.398 Y104.66 Z0.48
G1 F300 Z0.28
G1 F2400 E23.2214
G1 F1800 X113.073 Y115.336 E23.9244
G0 F9000 X113.639 Y115.336
G1 F1800 X102.963 Y104.66 E24.62744
G0 F9000 X103.529 Y104.66
G1 F1800 X114.205 Y115.336 E25.33047
G0 F9000 X114.771 Y115.336
G1 F1800 X104.095 Y104.66 E26.0335
G0 F9000 X104.66 Y104.66
G1 F1800 X115.336 Y115.336 E26.73653
G0 F9000 X115.902 Y115.336
G1 F1800 X105.226 Y104.66 E27.43957
G0 F9000 X105.792 Y104.66
G1 F1800 X116.468 Y115.336 E28.1426
G0 F9000 X117.033 Y115.336
G1 F1800 X106.357 Y104.66 E28.84563
G0 F9000 X106.923 Y104.66
G1 F1800 X117.599 Y115.336 E29.54866
G0 F9000 X118.165 Y115.336
G1 F1800 X107.489 Y104.66 E30.2517
G0 F9000 X108.054 Y104.66
G1 F1800 X114.568 Y111.173 E30.68062
G0 F9000 X114.378 Y110.418
G1 F1800 X108.62 Y104.66 E31.0598
G0 F9000 X109.186 Y104.66
G1 F1800 X114.35 Y109.824 E31.39986
G0 F9000 X114.424 Y109.333
G1 F1800 X109.751 Y104.66 E31.70758
G0 F9000 X110.317 Y104.66
G1 F1800 X114.534 Y108.877 E31.98528
G0 F9000 X114.723 Y108.501
G1 F1800 X110.883 Y104.66 E32.23818
G0 F9000 X111.449 Y104.66
G1 F1800 X114.931 Y108.143 E32.46751
G0 F9000 X115.195 Y107.842
G1 F1800 X112.014 Y104.66 E32.67702
G0 F9000 X112.58 Y104.66
G1 F1800 X115.481 Y107.562 E32.86808
G0 F9000 X115.818 Y107.332
G1 F1800 X113.146 Y104.66 E33.04404
G0 F9000 X113.711 Y104.66
G1 F1800 X116.183 Y107.132 E33.20683
G0 F9000 X116.591 Y106.974
G1 F1800 X114.277 Y104.66 E33.35921
G0 F9000 X114.843 Y104.66
G1 F1800 X117.054 Y106.871 E33.5048
G0 F9000 X117.586 Y106.838
G1 F1800 X115.408 Y104.66 E33.64823
G0 F9000 X115.974 Y104.66
G1 F1800 X118.249 Y106.935 E33.79804
G0 F9000 X119.22 Y107.34
G1 F1800 X116.54 Y104.66 E33.97453
G0 F9000 X117.105 Y104.66
G1 F1800 X122.14 Y109.695 E34.30609
G0 F9000 X122.14 Y110.261
G1 F1800 X120.138 Y108.259 E34.43792
G0 F9000 X120.555 Y109.241
G1 F1800 X122.14 Y110.826 E34.5423
G0 F9000 X122.14 Y111.392
G1 F1800 X120.646 Y109.898 E34.64068
G0 F9000 X120.625 Y110.442
G1 F1800 X122.14 Y111.958 E34.74048
G0 F9000 X122.14 Y112.523
G1 F1800 X120.521 Y110.904 E34.84709
G0 F9000 X120.364 Y111.313
G1 F1800 X122.14 Y113.089 E34.96405
G0 F9000 X122.14 Y113.655
G1 F1800 X120.164 Y111.679 E35.09417
G0 F9000 X119.93 Y112.011
G1 F1800 X122.14 Y114.22 E35.23967
G0 F9000 X122.14 Y114.786
G1 F1800 X119.652 Y112.298 E35.40351
G0 F9000 X119.342 Y112.554
G1 F1800 X122.124 Y115.336 E35.58671
G0 F9000 X121.559 Y115.336
G1 F1800 X119.008 Y112.786 E35.75466
G0 F9000 X118.607 Y112.95
G1 F1800 X120.993 Y115.336 E35.91178
G0 F9000 X120.427 Y115.336
G1 F1800 X118.177 Y113.085 E36.05998
G0 F9000 X117.674 Y113.148
G1 F1800 X119.862 Y115.336 E36.20407
G0 F9000 X119.296 Y115.336
G1 F1800 X117.088 Y113.128 E36.34947
G0 F9000 X116.307 Y112.913
G1 F1800 X118.73 Y115.336 E36.50903
G1 F2400 E35.70903
G1 F300 Z0.48
G0 F9000 X122.14 Y109.129 Z0.48
G1 F300 Z0.28
G1 F2400 E36.50903
G1 F1800 X117.671 Y104.66 E36.80332
G0 F9000 X118.237 Y104.66
G1 F1800 X122.14 Y108.564 E37.06037
G0 F9000 X122.14 Y107.998
G1 F1800 X118.802 Y104.66 E37.28018
G0 F9000 X119.368 Y104.66
G1 F1800 X122.14 Y107.432 E37.46272
G0 F9000 X122.14 Y106.866
G1 F1800 X119.934 Y104.66 E37.60799
G0 F9000 X120.499 Y104.66
G1 F1800 X122.14 Y106.301 E37.71605
G0 F9000 X122.14 Y105.735
G1 F1800 X121.065 Y104.66 E37.78685
G0 F9000 X121.631 Y104.66
G1 F1800 X122.14 Y105.169 E37.82036
M104 S210
G1 F2400 E37.02036
G1 F300 Z0.48
;MESH:NONMESH
G0 F9000 X102.26 Y112.589 Z0.48
;TIME_ELAPSED:41.903892
;LAYER:1
M106 S85
;MESH:curvedplate-bottom.stl
G0 F12000 X102.26 Y112.589 Z0.76
;TYPE:WALL-INNER
G1 F300 Z0.56
G1 F2400 E37.82036
G1 F3600 X101.822 Y112.515 E37.84105
G1 X101.269 Y112.311 E37.86849
G1 X100.791 Y111.96 E37.89611
G1 X100.385 Y111.549 E37.92301
G1 X100.063 Y110.924 E37.95575
G1 X99.887 Y110.221 E37.98949
G1 X99.919 Y109.641 E38.01654
G1 X100.094 Y108.944 E38.05
G1 X100.493 Y108.335 E38.0839
G1 X100.905 Y107.939 E38.11051
G1 X101.42 Y107.609 E38.139
G1 X102.092 Y107.428 E38.1714
G1 X102.535 Y107.392 E38.1921
G1 X103.091 Y107.463 E38.2182
G1 X103.65 Y107.642 E38.24553
G1 X104.272 Y108.069 E38.28066
G1 X104.702 Y108.613 E38.31295
G1 X104.919 Y109.055 E38.33588
G1 X105.088 Y109.6 E38.36245
G1 X105.086 Y110.274 E38.39383
G1 X105.002 Y110.72 E38.41496
G1 X104.79 Y111.229 E38.44064
G1 X104.456 Y111.739 E38.46903
G1 X103.914 Y112.184 E38.50168
G1 X103.399 Y112.458 E38.52884
G1 X102.856 Y112.576 E38.55472
G1 X102.26 Y112.589 E38.58248
G1 F2400 E37.78248
G1 F300 Z0.76
G0 F12000 X110 Y116.192 Z0.76
G1 F300 Z0.56
G1 F2400 E38.58248
G1 F3600 X123.308 Y116.192 E39.20215
G1 X123.308 Y103.804 E39.77899
G1 X96.688 Y103.804 E41.01853
G1 X96.688 Y116.192 E41.59537
G1 X110 Y116.192 E42.21523
G1 F2400 E41.41523
G1 F300 Z0.76
G0 F12000 X117.26 Y112.589 Z0.76
G1 F300 Z0.56
G1 F2400 E42.21523
G1 F3600 X116.822 Y112.515 E42.23591
G1 X116.271 Y112.312 E42.26325
G1 X115.812 Y111.981 E42.28961
G1 X115.382 Y111.546 E42.31809
G1 X115.062 Y110.92 E42.35082
G1 X114.887 Y110.22 E42.38442
G1 X114.919 Y109.661 E42.41049
G1 X115.093 Y108.947 E42.44471
G1 X115.493 Y108.335 E42.47876
