;FLAVOR:Marlin
;TIME:12494
;Filament used: 19.5823m
;Layer height: 0.28
;MINX:9.2
;MINY:56.216
;MINZ:0.28
;MAXX:210.8
;MAXY:163.78
;MAXZ:11.12
;TARGET_MACHINE.NAME:Creality Ender-3 V3 SE
;Generated with Cura_SteamEngine 5.10.0
M220 S100 ;Reset Feedrate
M221 S100 ;Reset Flowrate

G28 ;Home

M420 S1; Use saved mesh leveling data

G92 E0 ;Reset Extruder
G1 Z2.0 F3000 ;Move Z Axis up
G1 X-3 Y20 Z0.28 F5000.0 ;Move to start position
M190 S65 ; Set bed temperature and wait
M109 S210.0 ; Set hotend temperature and wait
G1 X-3 Y100.0 Z0.28 F1500.0 E15 ;Draw the first line
G1 X-2 Y100.0 Z0.28 F5000.0 ;Move to side a little
G1 X-2 Y20 Z0.28 F1500.0 E30 ;Draw the second line
G92 E0 ;Reset Extruder
G1 E-1.0000 F1800 ;Retract a bit
G1 Z2.0 F3000 ;Move Z Axis up
G1 E0.0000 F1800 

M82 ;absolute extrusion mode
G92 E0
G92 E0
G1 F2400 E-0.8
;LAYER_COUNT:39
;LAYER:0
M107
G1 F300 Z0.48
G0 F9000 X9.2 Y73.514 Z0.48
;TYPE:SKIRT
G1 F300 Z0.28
G1 F2400 E0
G1 F1800 X9.4 Y73.514 E0.00931
G1 X9.4 Y83.425 E0.47081
G1 X9.439 Y83.544 E0.47664
G1 X9.6 Y83.625 E0.48503
G1 X210.4 Y83.625 E9.83512
G1 X210.519 Y83.586 E9.84095
G1 X210.6 Y83.425 E9.84935
G1 X210.6 Y73.514 E10.31084
G1 X210.8 Y73.514 E10.32016
G1 X210.8 Y146.485 E13.71799
G1 X210.6 Y146.485 E13.72731
G1 X210.6 Y136.574 E14.1888
G1 X210.561 Y136.455 E14.19463
G1 X210.4 Y136.374 E14.20303
G1 X9.6 Y136.375 E23.55312
G1 X9.481 Y136.414 E23.55895
G1 X9.4 Y136.575 E23.56734
G1 X9.4 Y146.486 E24.02884
G1 X9.2 Y146.486 E24.03815
G1 X9.2 Y73.514 E27.43603
G1 F2400 E26.63603
G1 F300 Z0.48
G0 F9000 X9.6 Y84.025 Z0.48
G1 F300 Z0.28
G1 F2400 E27.43603
G1 F1800 X210.4 Y84.025 E36.78612
G1 X210.4 Y135.974 E39.20508
G1 X9.6 Y135.975 E48.55517
G1 X9.6 Y84.025 E50.97418
G0 F9000 X10 Y84.425
G1 F1800 X210 Y84.425 E60.28702
G1 X210 Y135.574 E62.66873
G1 X10 Y135.575 E71.98157
G1 X10 Y84.425 E74.36333
G0 F9000 X10.4 Y84.825
G1 F1800 X209.6 Y84.825 E83.63891
G1 X209.6 Y135.174 E85.98337
G1 X10.4 Y135.175 E95.25896
G1 X10.4 Y84.825 E97.60347
G0 F9000 X10.8 Y85.225
G1 F1800 X209.2 Y85.225 E106.8418
G1 X209.2 Y134.774 E109.14901
G1 X10.8 Y134.775 E118.38735
G1 X10.8 Y85.225 E120.6946
G0 F9000 X11.2 Y85.625
G1 F1800 X208.8 Y85.625 E129.89569
G1 X208.8 Y134.374 E132.16564
G1 X11.2 Y134.375 E141.36673
G1 X11.2 Y85.625 E143.63673
G0 F9000 X11.6 Y86.025
G1 F1800 X208.4 Y86.025 E152.80056
G1 X208.4 Y133.974 E155.03327
G1 X11.6 Y133.975 E164.1971
G1 X11.6 Y86.025 E166.42986
G0 F9000 X12 Y86.425
G1 F1800 X208 Y86.425 E175.55644
G1 X208 Y133.574 E177.75189
G1 X12 Y133.575 E186.87847
G1 X12 Y86.425 E189.07397
G0 F9000 X12.4 Y86.825
G1 F1800 X207.6 Y86.825 E198.1633
G1 X207.6 Y133.174 E200.32151
G1 X12.4 Y133.175 E209.41084
G1 X12.4 Y86.825 E211.56909
G0 F9000 X12.8 Y87.225
G1 F1800 X207.2 Y87.225 E220.62117
G1 X207.2 Y132.774 E222.74212
G1 X12.8 Y132.775 E231.7942
G1 X12.8 Y87.225 E233.9152
G0 F9000 X13.2 Y87.624
;TYPE:SUPPORT
G1 F1800 X206.8 Y87.624 E242.93002
G1 X206.8 Y132.372 E245.01368
G1 X13.2 Y132.372 E254.0285
G1 X13.2 Y87.624 E256.11216
G0 F9000 X13.28 Y88
G1 F1800 X206.72 Y88 E265.11953
G0 F9000 X206 Y87.704
G1 F1800 X206 Y132.292 E267.19574
G0 F9000 X206.72 Y132
G1 F1800 X13.28 Y132 E276.20312
G0 F9000 X14 Y132.292
G1 F1800 X14 Y87.704 E278.27932
G1 F2400 E277.47932
G1 F300 Z0.48
G0 F9000 X16 Y87.704 Z0.48
G1 F300 Z0.28
G1 F2400 E278.27932
G1 F1800 X16 Y132.292 E280.35552
G1 F2400 E279.55552
G1 F300 Z0.48
G0 F9000 X18 Y132.292 Z0.48
G1 F300 Z0.28
G1 F2400 E280.35552
G1 F1800 X18 Y87.704 E282.43173
G1 F2400 E281.63173
G1 F300 Z0.48
G0 F9000 X20 Y87.704 Z0.48
G1 F300 Z0.28
G1 F2400 E282.43173
G1 F1800 X20 Y132.292 E284.50793
G1 F2400 E283.70793
G1 F300 Z0.48
G0 F9000 X22 Y132.292 Z0.48
G1 F300 Z0.28
G1 F2400 E284.50793
G1 F1800 X22 Y87.704 E286.58414
G1 F2400 E285.78414
G1 F300 Z0.48
G0 F9000 X24 Y87.704 Z0.48
G1 F300 Z0.28
G1 F2400 E286.58414
G1 F1800 X24 Y132.292 E288.66034
G1 F2400 E287.86034
G1 F300 Z0.48
G0 F9000 X26 Y132.292 Z0.48
G1 F300 Z0.28
G1 F2400 E288.66034
G1 F1800 X26 Y87.704 E290.73654
G1 F2400 E289.93654
G1 F300 Z0.48
G0 F9000 X28 Y87.704 Z0.48
G1 F300 Z0.28
G1 F2400 E290.73654
G1 F1800 X28 Y132.292 E292.81275
G1 F2400 E292.01275
G1 F300 Z0.48
G0 F9000 X30 Y132.292 Z0.48
G1 F300 Z0.28
G1 F2400 E292.81275
G1 F1800 X30 Y87.704 E294.88895
G1 F2400 E294.08895
G1 F300 Z0.48
G0 F9000 X32 Y87.704 Z0.48
G1 F300 Z0.28
G1 F2400 E294.88895
G1 F1800 X32 Y132.292 E296.96516
G1 F2400 E296.16516
G1 F300 Z0.48
G0 F9000 X34 Y132.292 Z0.48
G1 F300 Z0.28
G1 F2400 E296.96516
G1 F1800 X34 Y87.704 E299.04136
G1 F2400 E298.24136
G1 F300 Z0.48
G0 F9000 X36 Y87.704 Z0.48
G1 F300 Z0.28
G1 F2400 E299.04136
G1 F1800 X36 Y132.292 E301.11756
G1 F2400 E300.31756
G1 F300 Z0.48
G0 F9000 X38 Y132.292 Z0.48
G1 F300 Z0.28
G1 F2400 E301.11756
G1 F1800 X38 Y87.704 E303.19377
G1 F2400 E302.39377
G1 F300 Z0.48
G0 F9000 X40 Y87.704 Z0.48
G1 F300 Z0.28
G1 F2400 E303.19377
G1 F1800 X40 Y132.292 E305.26997
G1 F2400 E304.46997
G1 F300 Z0.48
G0 F9000 X42 Y132.292 Z0.48
G1 F300 Z0.28
G1 F2400 E305.26997
G1 F1800 X42 Y87.704 E307.34618
G1 F2400 E306.54618
G1 F300 Z0.48
G0 F9000 X44 Y87.704 Z0.48
G1 F300 Z0.28
G1 F2400 E307.34618
G1 F1800 X44 Y132.292 E309.42238
G1 F2400 E308.62238
G1 F300 Z0.48
G0 F9000 X46 Y132.292 Z0.48
G1 F300 Z0.28
G1 F2400 E309.42238
G1 F1800 X46 Y87.704 E311.49858
G1 F2400 E310.69858
G1 F300 Z0.48
G0 F9000 X48 Y87.704 Z0.48
G1 F300 Z0.28
G1 F2400 E311.49858
G1 F1800 X48 Y132.292 E313.57479
G1 F2400 E312.77479
G1 F300 Z0.48
G0 F9000 X50 Y132.292 Z0.48
G1 F300 Z0.28
G1 F2400 E313.57479
G1 F1800 X50 Y87.704 E315.65099
G1 F2400 E314.85099
G1 F300 Z0.48
G0 F9000 X52 Y87.704 Z0.48
G1 F300 Z0.28
G1 F2400 E315.65099
G1 F1800 X52 Y132.292 E317.7272
G1 F2400 E316.9272
G1 F300 Z0.48
G0 F9000 X54 Y132.292 Z0.48
G1 F300 Z0.28
G1 F2400 E317.7272
G1 F1800 X54 Y87.704 E319.8034
G1 F2400 E319.0034
G1 F300 Z0.48
G0 F9000 X56 Y87.704 Z0.48
G1 F300 Z0.28
G1 F2400 E319.8034
G1 F1800 X56 Y132.292 E321.87961
G1 F2400 E321.07961
G1 F300 Z0.48
G0 F9000 X58 Y132.292 Z0.48
G1 F300 Z0.28
G1 F2400 E321.87961
G1 F1800 X58 Y87.704 E323.95581
G1 F2400 E323.15581
G1 F300 Z0.48
G0 F9000 X60 Y87.704 Z0.48
G1 F300 Z0.28
G1 F2400 E323.95581
G1 F1800 X60 Y132.292 E326.03201
G1 F2400 E325.23201
G1 F300 Z0.48
G0 F9000 X62 Y132.292 Z0.48
G1 F300 Z0.28
G1 F2400 E326.03201
G1 F1800 X62 Y87.704 E328.10822
G1 F2400 E327.30822
G1 F300 Z0.48
G0 F9000 X64 Y87.704 Z0.48
G1 F300 Z0.28
G1 F2400 E328.10822
G1 F1800 X64 Y132.292 E330.18442
G1 F2400 E329.38442
G1 F300 Z0.48
G0 F9000 X66 Y132.292 Z0.48
G1 F300 Z0.28
G1 F2400 E330.18442
G1 F1800 X66 Y87.704 E332.26063
G1 F2400 E331.46063
G1 F300 Z0.48
G0 F9000 X68 Y87.704 Z0.48
G1 F300 Z0.28
G1 F2400 E332.26063
G1 F1800 X68 Y132.292 E334.33683
G1 F2400 E333.53683
G1 F300 Z0.48
G0 F9000 X70 Y132.292 Z0.48
G1 F300 Z0.28
G1 F2400 E334.33683
G1 F1800 X70 Y87.704 E336.41303
G1 F2400 E335.61303
G1 F300 Z0.48
G0 F9000 X72 Y87.704 Z0.48
G1 F300 Z0.28
G1 F2400 E336.41303
G1 F1800 X72 Y132.292 E338.48924
G1 F2400 E337.68924
G1 F300 Z0.48
G0 F9000 X74 Y132.292 Z0.48
G1 F300 Z0.28
G1 F2400 E338.48924
G1 F1800 X74 Y87.704 E340.56544
G1 F2400 E339.76544
G1 F300 Z0.48
G0 F9000 X76 Y87.704 Z0.48
G1 F300 Z0.28
G1 F2400 E340.56544
G1 F1800 X76 Y132.292 E342.64165
G1 F2400 E341.84165
G1 F300 Z0.48
G0 F9000 X78 Y132.292 Z0.48
G1 F300 Z0.28
G1 F2400 E342.64165
G1 F1800 X78 Y87.704 E344.71785
G1 F2400 E343.91785
G1 F300 Z0.48
G0 F9000 X80 Y87.704 Z0.48
G1 F300 Z0.28
G1 F2400 E344.71785
G1 F1800 X80 Y132.292 E346.79405
G1 F2400 E345.99405
G1 F300 Z0.48
G0 F9000 X82 Y132.292 Z0.48
G1 F300 Z0.28
G1 F2400 E346.79405
G1 F1800 X82 Y87.704 E348.87026
G1 F2400 E348.07026
G1 F300 Z0.48
G0 F9000 X84 Y87.704 Z0.48
G1 F300 Z0.28
G1 F2400 E348.87026
G1 F1800 X84 Y132.292 E350.94646
G1 F2400 E350.14646
G1 F300 Z0.48
G0 F9000 X86 Y132.292 Z0.48
G1 F300 Z0.28
G1 F2400 E350.94646
G1 F1800 X86 Y87.704 E353.02267
G1 F2400 E352.22267
G1 F300 Z0.48
G0 F9000 X88 Y87.704 Z0.48
G1 F300 Z0.28
G1 F2400 E353.02267
G1 F1800 X88 Y132.292 E355.09887
G1 F2400 E354.29887
G1 F300 Z0.48
G0 F9000 X90 Y132.292 Z0.48
G1 F300 Z0.28
G1 F2400 E355.09887
G1 F1800 X90 Y87.704 E357.17507
G1 F2400 E356.37507
G1 F300 Z0.48
G0 F9000 X92 Y87.704 Z0.48
G1 F300 Z0.28
G1 F2400 E357.17507
G1 F1800 X92 Y132.292 E359.25128
G1 F2400 E358.45128
G1 F300 Z0.48
G0 F9000 X94 Y132.292 Z0.48
G1 F300 Z0.28
G1 F2400 E359.25128
G1 F1800 X94 Y87.704 E361.32748
G1 F2400 E360.52748
G1 F300 Z0.48
G0 F9000 X96 Y87.704 Z0.48
G1 F300 Z0.28
G1 F2400 E361.32748
G1 F1800 X96 Y132.292 E363.40369
G1 F2400 E362.60369
G1 F300 Z0.48
G0 F9000 X98 Y132.292 Z0.48
G1 F300 Z0.28
G1 F2400 E363.40369
G1 F1800 X98 Y87.704 E365.47989
G1 F2400 E364.67989
G1 F300 Z0.48
G0 F9000 X100 Y87.704 Z0.48
G1 F300 Z0.28
G1 F2400 E365.47989
G1 F1800 X100 Y132.292 E367.55609
G1 F2400 E366.75609
G1 F300 Z0.48
G0 F9000 X102 Y132.292 Z0.48
G1 F300 Z0.28
G1 F2400 E367.55609
G1 F1800 X102 Y87.704 E369.6323
G1 F2400 E368.8323
G1 F300 Z0.48
G0 F9000 X104 Y87.704 Z0.48
G1 F300 Z0.28
G1 F2400 E369.6323
G1 F1800 X104 Y132.292 E371.7085
G1 F2400 E370.9085
G1 F300 Z0.48
G0 F9000 X106 Y132.292 Z0.48
G1 F300 Z0.28
G1 F2400 E371.7085
G1 F1800 X106 Y87.704 E373.78471
G1 F2400 E372.98471
G1 F300 Z0.48
G0 F9000 X108 Y87.704 Z0.48
G1 F300 Z0.28
G1 F2400 E373.78471
G1 F1800 X108 Y132.292 E375.86091
G1 F2400 E375.06091
G1 F300 Z0.48
G0 F9000 X110 Y132.292 Z0.48
G1 F300 Z0.28
G1 F2400 E375.86091
G1 F1800 X110 Y87.704 E377.93711
G1 F2400 E377.13711
G1 F300 Z0.48
G0 F9000 X112 Y87.704 Z0.48
G1 F300 Z0.28
G1 F2400 E377.93711
G1 F1800 X112 Y132.292 E380.01332
G1 F2400 E379.21332
G1 F300 Z0.48
G0 F9000 X114 Y132.292 Z0.48
G1 F300 Z0.28
G1 F2400 E380.01332
G1 F1800 X114 Y87.704 E382.08952
G1 F2400 E381.28952
G1 F300 Z0.48
G0 F9000 X116 Y87.704 Z0.48
G1 F300 Z0.28
G1 F2400 E382.08952
G1 F1800 X116 Y132.292 E384.16573
G1 F2400 E383.36573
G1 F300 Z0.48
G0 F9000 X118 Y132.292 Z0.48
G1 F300 Z0.28
G1 F2400 E384.16573
G1 F1800 X118 Y87.704 E386.24193
G1 F2400 E385.44193
G1 F300 Z0.48
G0 F9000 X120 Y87.704 Z0.48
G1 F300 Z0.28
G1 F2400 E386.24193
G1 F1800 X120 Y132.292 E388.31814
G1 F2400 E387.51814
G1 F300 Z0.48
G0 F9000 X122 Y132.292 Z0.48
G1 F300 Z0.28
G1 F2400 E388.31814
G1 F1800 X122 Y87.704 E390.39434
G1 F2400 E389.59434
G1 F300 Z0.48
G0 F9000 X124 Y87.704 Z0.48
G1 F300 Z0.28
G1 F2400 E390.39434
G1 F1800 X124 Y132.292 E392.47054
G1 F2400 E391.67054
G1 F300 Z0.48
G0 F9000 X126 Y132.292 Z0.48
G1 F300 Z0.28
G1 F2400 E392.47054
G1 F1800 X126 Y87.704 E394.54675
G1 F2400 E393.74675
G1 F300 Z0.48
G0 F9000 X128 Y87.704 Z0.48
G1 F300 Z0.28
G1 F2400 E394.54675
G1 F1800 X128 Y132.292 E396.62295
G1 F2400 E395.82295
G1 F300 Z0.48
G0 F9000 X130 Y132.292 Z0.48
G1 F300 Z0.28
G1 F2400 E396.62295
G1 F1800 X130 Y87.704 E398.69916
G1 F2400 E397.89916
G1 F300 Z0.48
G0 F9000 X132 Y87.704 Z0.48
G1 F300 Z0.28
G1 F2400 E398.69916
G1 F1800 X132 Y132.292 E400.77536
G1 F2400 E399.97536
G1 F300 Z0.48
G0 F9000 X134 Y132.292 Z0.48
G1 F300 Z0.28
G1 F2400 E400.77536
G1 F1800 X134 Y87.704 E402.85156
G1 F2400 E402.05156
G1 F300 Z0.48
G0 F9000 X136 Y87.704 Z0.48
G1 F300 Z0.28
G1 F2400 E402.85156
G1 F1800 X136 Y132.292 E404.92777
G1 F2400 E404.12777
G1 F300 Z0.48
G0 F9000 X138 Y132.292 Z0.48
G1 F300 Z0.28
G1 F2400 E404.92777
G1 F1800 X138 Y87.704 E407.00397
G1 F2400 E406.20397
G1 F300 Z0.48
G0 F9000 X140 Y87.704 Z0.48
G1 F300 Z0.28
G1 F2400 E407.00397
G1 F1800 X140 Y132.292 E409.08018
G1 F2400 E408.28018
G1 F300 Z0.48
G0 F9000 X142 Y132.292 Z0.48
G1 F300 Z0.28
G1 F2400 E409.08018
G1 F1800 X142 Y87.704 E411.15638
G1 F2400 E410.35638
G1 F300 Z0.48
G0 F9000 X144 Y87.704 Z0.48
G1 F300 Z0.28
G1 F2400 E411.15638
G1 F1800 X144 Y132.292 E413.23258
G1 F2400 E412.43258
G1 F300 Z0.48
G0 F9000 X146 Y132.292 Z0.48
G1 F300 Z0.28
G1 F2400 E413.23258
G1 F1800 X146 Y87.704 E415.30879
G1 F2400 E414.50879
G1 F300 Z0.48
G0 F9000 X148 Y87.704 Z0.48
G1 F300 Z0.28
G1 F2400 E415.30879
G1 F1800 X148 Y132.292 E417.38499
G1 F2400 E416.58499
G1 F300 Z0.48
G0 F9000 X150 Y132.292 Z0.48
G1 F300 Z0.28
G1 F2400 E417.38499
G1 F1800 X150 Y87.704 E419.4612
G1 F2400 E418.6612
G1 F300 Z0.48
G0 F9000 X152 Y87.704 Z0.48
G1 F300 Z0.28
G1 F2400 E419.4612
G1 F1800 X152 Y132.292 E421.5374
G1 F2400 E420.7374
G1 F300 Z0.48
G0 F9000 X154 Y132.292 Z0.48
G1 F300 Z0.28
G1 F2400 E421.5374
G1 F1800 X154 Y87.704 E423.6136
G1 F2400 E422.8136
G1 F300 Z0.48
G0 F9000 X156 Y87.704 Z0.48
G1 F300 Z0.28
G1 F2400 E423.6136
G1 F1800 X156 Y132.292 E425.68981
G1 F2400 E424.88981
G1 F300 Z0.48
G0 F9000 X158 Y132.292 Z0.48
G1 F300 Z0.28
G1 F2400 E425.68981
G1 F1800 X158 Y87.704 E427.76601
G1 F2400 E426.96601
G1 F300 Z0.48
G0 F9000 X160 Y87.704 Z0.48
G1 F300 Z0.28
G1 F2400 E427.76601
G1 F1800 X160 Y132.292 E429.84222
G1 F2400 E429.04222
G1 F300 Z0.48
G0 F9000 X162 Y132.292 Z0.48
G1 F300 Z0.28
G1 F2400 E429.84222
G1 F1800 X162 Y87.704 E431.91842
G1 F2400 E431.11842
G1 F300 Z0.48
G0 F9000 X164 Y87.704 Z0.48
G1 F300 Z0.28
G1 F2400 E431.91842
G1 F1800 X164 Y132.292 E433.99462
G1 F2400 E433.19462
G1 F300 Z0.48
G0 F9000 X166 Y132.292 Z0.48
G1 F300 Z0.28
G1 F2400 E433.99462
G1 F1800 X166 Y87.704 E436.07083
G1 F2400 E435.27083
G1 F300 Z0.48
G0 F9000 X168 Y87.704 Z0.48
G1 F300 Z0.28
G1 F2400 E436.07083
G1 F1800 X168 Y132.292 E438.14703
G1 F2400 E437.34703
G1 F300 Z0.48
G0 F9000 X170 Y132.292 Z0.48
G1 F300 Z0.28
G1 F2400 E438.14703
G1 F1800 X170 Y87.704 E440.22324
G1 F2400 E439.42324
G1 F300 Z0.48
G0 F9000 X172 Y87.704 Z0.48
G1 F300 Z0.28
G1 F2400 E440.22324
G1 F1800 X172 Y132.292 E442.29944
G1 F2400 E441.49944
G1 F300 Z0.48
G0 F9000 X174 Y132.292 Z0.48
G1 F300 Z0.28
G1 F2400 E442.29944
G1 F1800 X174 Y87.704 E444.37564
G1 F2400 E443.57564
G1 F300 Z0.48
G0 F9000 X176 Y87.704 Z0.48
G1 F300 Z0.28
G1 F2400 E444.37564
G1 F1800 X176 Y132.292 E446.45185
G1 F2400 E445.65185
G1 F300 Z0.48
G0 F9000 X178 Y132.292 Z0.48
G1 F300 Z0.28
G1 F2400 E446.45185
G1 F1800 X178 Y87.704 E448.52805
G1 F2400 E447.72805
G1 F300 Z0.48
G0 F9000 X180 Y87.704 Z0.48
G1 F300 Z0.28
G1 F2400 E448.52805
G1 F1800 X180 Y132.292 E450.60426
G1 F2400 E449.80426
G1 F300 Z0.48
G0 F9000 X182 Y132.292 Z0.48
G1 F300 Z0.28
G1 F2400 E450.60426
G1 F1800 X182 Y87.704 E452.68046
G1 F2400 E451.88046
G1 F300 Z0.48
G0 F9000 X184 Y87.704 Z0.48
G1 F300 Z0.28
G1 F2400 E452.68046
G1 F1800 X184 Y132.292 E454.75666
G1 F2400 E453.95666
G1 F300 Z0.48
G0 F9000 X186 Y132.292 Z0.48
G1 F300 Z0.28
G1 F2400 E454.75666
G1 F1800 X186 Y87.704 E456.83287
G1 F2400 E456.03287
G1 F300 Z0.48
G0 F9000 X188 Y87.704 Z0.48
G1 F300 Z0.28
G1 F2400 E456.83287
G1 F1800 X188 Y132.292 E458.90907
G1 F2400 E458.10907
G1 F300 Z0.48
G0 F9000 X190 Y132.292 Z0.48
G1 F300 Z0.28
G1 F2400 E458.90907
G1 F1800 X190 Y87.704 E460.98528
G1 F2400 E460.18528
G1 F300 Z0.48
G0 F9000 X192 Y87.704 Z0.48
G1 F300 Z0.28
G1 F2400 E460.98528
G1 F1800 X192 Y132.292 E463.06148
G1 F2400 E462.26148
G1 F300 Z0.48
G0 F9000 X194 Y132.292 Z0.48
G1 F300 Z0.28
G1 F2400 E463.06148
G1 F1800 X194 Y87.704 E465.13769
G1 F2400 E464.33769
G1 F300 Z0.48
G0 F9000 X196 Y87.704 Z0.48
G1 F300 Z0.28
G1 F2400 E465.13769
G1 F1800 X196 Y132.292 E467.21389
G1 F2400 E466.41389
G1 F300 Z0.48
G0 F9000 X198 Y132.292 Z0.48
G1 F300 Z0.28
G1 F2400 E467.21389
G1 F1800 X198 Y87.704 E469.29009
G1 F2400 E468.49009
G1 F300 Z0.48
G0 F9000 X200 Y87.704 Z0.48
G1 F300 Z0.28
G1 F2400 E469.29009
G1 F1800 X200 Y132.292 E471.3663
G1 F2400 E470.5663
G1 F300 Z0.48
G0 F9000 X202 Y132.292 Z0.48
G1 F300 Z0.28
G1 F2400 E471.3663
