;FLAVOR:Marlin
;TIME:6957
;Filament used: 18.0533m
;Layer height: 0.28
;MINX:40.201
;MINY:40.22
;MINZ:0.28
;MAXX:179.799
;MAXY:179.776
;MAXZ:9.72
;TARGET_MACHINE.NAME:Creality Ender-3 V3 SE
;Generated with Cura_SteamEngine 5.10.0
M220 S100 ;Reset Feedrate
M221 S100 ;Reset Flowrate

G28 ;Home

M420 S1; Use saved mesh leveling data

G92 E0 ;Reset Extruder
G1 Z2.0 F3000 ;Move Z Axis up
G1 X-3 Y20 Z0.28 F5000.0 ;Move to start position
M190 S65 ; Set bed temperature and wait
M109 S210.0 ; Set hotend temperature and wait
G1 X-3 Y100.0 Z0.28 F1500.0 E15 ;Draw the first line
G1 X-2 Y100.0 Z0.28 F5000.0 ;Move to side a little
G1 X-2 Y20 Z0.28 F1500.0 E30 ;Draw the second line
G92 E0 ;Reset Extruder
G1 E-1.0000 F1800 ;Retract a bit
G1 Z2.0 F3000 ;Move Z Axis up
G1 E0.0000 F1800 

M82 ;absolute extrusion mode
G92 E0
G92 E0
G1 F2400 E-0.8
;LAYER_COUNT:34
;LAYER:0
M107
G1 F300 Z0.48
G0 F9000 X100.962 Y108.356 Z0.48
;TYPE:SKIRT
G1 F300 Z0.28
G1 F2400 E0
G1 F1800 X101.23 Y108.14 E0.01603
G1 X101.459 Y108.007 E0.02836
G1 X101.673 Y107.909 E0.03932
G1 X101.894 Y107.835 E0.05017
G1 X102.156 Y107.774 E0.0627
G1 X102.431 Y107.752 E0.07554
G1 X102.679 Y107.759 E0.0871
G1 X102.884 Y107.784 E0.09671
G1 X103.091 Y107.831 E0.1066
G1 X103.317 Y107.906 E0.11768
G1 X103.521 Y107.997 E0.12809
G1 X103.76 Y108.134 E0.14091
G1 X104.028 Y108.345 E0.1568
G1 X104.227 Y108.561 E0.17047
G1 X104.357 Y108.731 E0.18044
G1 X104.472 Y108.916 E0.19058
G1 X104.573 Y109.129 E0.20156
G1 X104.641 Y109.311 E0.2106
G1 X104.702 Y109.547 E0.22195
G1 X104.736 Y109.763 E0.23214
G1 X104.748 Y109.999 E0.24314
G1 X104.738 Y110.214 E0.25316
G1 X104.706 Y110.433 E0.26347
G1 X104.649 Y110.66 E0.27436
G1 X104.575 Y110.867 E0.2846
G1 X104.48 Y111.065 E0.29483
G1 X104.358 Y111.266 E0.30578
G1 X104.24 Y111.425 E0.315
G1 X104.039 Y111.643 E0.3288
G1 X103.77 Y111.86 E0.3449
G1 X103.541 Y111.993 E0.35723
G1 X103.327 Y112.091 E0.36819
G1 X103.106 Y112.165 E0.37904
G1 X102.844 Y112.226 E0.39157
G1 X102.569 Y112.248 E0.40441
G1 X102.321 Y112.241 E0.41596
G1 X102.116 Y112.216 E0.42558
G1 X101.909 Y112.169 E0.43546
G1 X101.683 Y112.094 E0.44655
G1 X101.482 Y112.005 E0.45679
G1 X101.233 Y111.862 E0.47016
G1 X100.98 Y111.661 E0.4852
G1 X100.777 Y111.446 E0.49897
G1 X100.652 Y111.281 E0.50861
G1 X100.52 Y111.065 E0.5204
G1 X100.429 Y110.876 E0.53017
G1 X100.358 Y110.685 E0.53966
G1 X100.298 Y110.453 E0.55081
G1 X100.263 Y110.232 E0.56123
G1 X100.252 Y109.999 E0.57209
G1 X100.263 Y109.776 E0.58249
G1 X100.294 Y109.567 E0.59233
G1 X100.351 Y109.339 E0.60327
G1 X100.427 Y109.129 E0.61367
G1 X100.523 Y108.929 E0.624
G1 X100.638 Y108.739 E0.63434
G1 X100.769 Y108.564 E0.64452
G1 X100.962 Y108.356 E0.65773
G0 F9000 X101.236 Y108.649
G1 F1800 X101.459 Y108.468 E0.67111
G1 X101.637 Y108.365 E0.68068
G1 X101.823 Y108.28 E0.69021
G1 X102.005 Y108.219 E0.69915
G1 X102.213 Y108.171 E0.70909
G1 X102.442 Y108.153 E0.71978
G1 X102.651 Y108.158 E0.72952
G1 X102.815 Y108.179 E0.73721
G1 X102.983 Y108.217 E0.74524
G1 X103.175 Y108.281 E0.75466
G1 X103.337 Y108.353 E0.76291
G1 X103.539 Y108.468 E0.77374
G1 X103.755 Y108.638 E0.78654
G1 X103.917 Y108.815 E0.79771
G1 X104.028 Y108.959 E0.80618
G1 X104.121 Y109.11 E0.81443
G1 X104.203 Y109.282 E0.82331
G1 X104.258 Y109.429 E0.83061
G1 X104.311 Y109.631 E0.84034
G1 X104.339 Y109.809 E0.84873
G1 X104.348 Y109.999 E0.85759
G1 X104.341 Y110.163 E0.86523
G1 X104.313 Y110.355 E0.87426
G1 X104.266 Y110.541 E0.8832
G1 X104.203 Y110.717 E0.8919
G1 X104.126 Y110.878 E0.90021
G1 X104.03 Y111.037 E0.90886
G1 X103.931 Y111.17 E0.91658
G1 X103.764 Y111.351 E0.92805
G1 X103.541 Y111.532 E0.94142
G1 X103.364 Y111.634 E0.95093
G1 X103.177 Y111.72 E0.96052
G1 X102.995 Y111.781 E0.96946
G1 X102.787 Y111.829 E0.9794
G1 X102.558 Y111.847 E0.99009
G1 X102.349 Y111.842 E0.99983
G1 X102.185 Y111.821 E1.00753
G1 X102.017 Y111.783 E1.01555
G1 X101.825 Y111.719 E1.02497
G1 X101.661 Y111.647 E1.03331
G1 X101.46 Y111.532 E1.04409
G1 X101.25 Y111.365 E1.05659
G1 X101.088 Y111.192 E1.06762
G1 X100.981 Y111.051 E1.07587
G1 X100.872 Y110.874 E1.08555
G1 X100.796 Y110.717 E1.09367
G1 X100.74 Y110.565 E1.10121
G1 X100.689 Y110.369 E1.11064
G1 X100.661 Y110.191 E1.11903
G1 X100.652 Y109.999 E1.12798
G1 X100.66 Y109.826 E1.13605
G1 X100.686 Y109.645 E1.14456
G1 X100.735 Y109.453 E1.15379
G1 X100.793 Y109.292 E1.16176
G1 X100.877 Y109.118 E1.17075
G1 X100.97 Y108.964 E1.17913
G1 X101.078 Y108.82 E1.18751
G1 X101.236 Y108.649 E1.19835
G0 F9000 X101.51 Y108.941
G1 F1800 X101.684 Y108.8 E1.20878
G1 X101.821 Y108.721 E1.21614
G1 X101.97 Y108.653 E1.22377
G1 X102.11 Y108.606 E1.23065
G1 X102.276 Y108.567 E1.23859
G1 X102.452 Y108.553 E1.24681
G1 X102.622 Y108.558 E1.25473
G1 X102.746 Y108.573 E1.26054
G1 X102.882 Y108.604 E1.26704
G1 X103.028 Y108.652 E1.2742
G1 X103.154 Y108.708 E1.28062
G1 X103.309 Y108.798 E1.28896
G1 X103.487 Y108.938 E1.29951
G1 X103.608 Y109.069 E1.30781
G1 X103.696 Y109.184 E1.31455
G1 X103.77 Y109.304 E1.32112
G1 X103.837 Y109.444 E1.32834
G1 X103.878 Y109.555 E1.33385
G1 X103.919 Y109.713 E1.34146
G1 X103.939 Y109.844 E1.34763
G1 X103.947 Y109.999 E1.35485
G1 X103.941 Y110.133 E1.3611
G1 X103.919 Y110.285 E1.36825
G1 X103.885 Y110.421 E1.37478
G1 X103.835 Y110.56 E1.38166
G1 X103.776 Y110.684 E1.38805
G1 X103.697 Y110.814 E1.39513
G1 X103.617 Y110.921 E1.40136
G1 X103.489 Y111.06 E1.41015
G1 X103.316 Y111.2 E1.42052
G1 X103.179 Y111.279 E1.42788
G1 X103.03 Y111.347 E1.43551
G1 X102.89 Y111.394 E1.44238
G1 X102.724 Y111.433 E1.45032
G1 X102.548 Y111.447 E1.45855
G1 X102.378 Y111.442 E1.46646
G1 X102.254 Y111.427 E1.47228
G1 X102.118 Y111.396 E1.47878
G1 X101.972 Y111.348 E1.48593
G1 X101.848 Y111.292 E1.49227
G1 X101.683 Y111.198 E1.50111
G1 X101.524 Y111.072 E1.51056
G1 X101.389 Y110.928 E1.51975
G1 X101.313 Y110.828 E1.5256
G1 X101.223 Y110.681 E1.53362
G1 X101.166 Y110.564 E1.53968
G1 X101.122 Y110.445 E1.54559
G1 X101.081 Y110.287 E1.55319
G1 X101.061 Y110.156 E1.55936
G1 X101.053 Y109.999 E1.56668
G1 X101.06 Y109.86 E1.57316
G1 X101.08 Y109.722 E1.57966
G1 X101.116 Y109.578 E1.58657
G1 X101.166 Y109.439 E1.59345
G1 X101.226 Y109.316 E1.59982
G1 X101.306 Y109.183 E1.60704
G1 X101.387 Y109.074 E1.61337
G1 X101.51 Y108.941 E1.6218
G0 F9000 X101.781 Y109.237
G1 F1800 X101.911 Y109.132 E1.62958
G1 X102.01 Y109.074 E1.63493
G1 X102.12 Y109.024 E1.64055
G1 X102.221 Y108.99 E1.64552
G1 X102.333 Y108.964 E1.65087
G1 X102.472 Y108.953 E1.65736
G1 X102.583 Y108.956 E1.66253
G1 X102.676 Y108.968 E1.6669
G1 X102.775 Y108.99 E1.67162
G1 X102.877 Y109.024 E1.67663
G1 X102.978 Y109.069 E1.68178
G1 X103.088 Y109.132 E1.68768
G1 X103.209 Y109.228 E1.69487
G1 X103.308 Y109.335 E1.70166
G1 X103.366 Y109.411 E1.70611
G1 X103.417 Y109.493 E1.71061
G1 X103.466 Y109.596 E1.71592
G1 X103.498 Y109.681 E1.72015
G1 X103.527 Y109.795 E1.72563
G1 X103.542 Y109.886 E1.72992
G1 X103.547 Y109.994 E1.73495
G1 X103.542 Y110.107 E1.74022
G1 X103.528 Y110.198 E1.74451
G1 X103.502 Y110.301 E1.74946
G1 X103.463 Y110.411 E1.75489
G1 X103.425 Y110.49 E1.75897
G1 X103.364 Y110.59 E1.76443
G1 X103.307 Y110.668 E1.76892
G1 X103.218 Y110.764 E1.77502
G1 X103.089 Y110.868 E1.78274
G1 X102.99 Y110.926 E1.78808
G1 X102.88 Y110.976 E1.7937
G1 X102.779 Y111.01 E1.79867
G1 X102.667 Y111.036 E1.80402
G1 X102.528 Y111.047 E1.81051
G1 X102.417 Y111.044 E1.81568
G1 X102.324 Y111.032 E1.82005
G1 X102.225 Y111.01 E1.82477
G1 X102.123 Y110.976 E1.82978
G1 X102.023 Y110.932 E1.83487
G1 X101.907 Y110.866 E1.84108
G1 X101.794 Y110.776 E1.84781
G1 X101.699 Y110.674 E1.8543
G1 X101.641 Y110.598 E1.85875
G1 X101.574 Y110.488 E1.86475
G1 X101.536 Y110.411 E1.86875
G1 X101.502 Y110.319 E1.87331
G1 X101.473 Y110.205 E1.87879
G1 X101.458 Y110.114 E1.88308
G1 X101.453 Y109.998 E1.88849
G1 X101.457 Y109.905 E1.89283
G1 X101.473 Y109.801 E1.89773
G1 X101.5 Y109.692 E1.90295
G1 X101.535 Y109.594 E1.9078
G1 X101.58 Y109.5 E1.91265
G1 X101.633 Y109.412 E1.91744
G1 X101.695 Y109.33 E1.92222
G1 X101.781 Y109.237 E1.92812
G0 F9000 X102.059 Y109.526
G1 F1800 X102.14 Y109.461 E1.93296
G1 X102.187 Y109.433 E1.9355
G1 X102.268 Y109.396 E1.93965
G1 X102.326 Y109.377 E1.94249
G1 X102.396 Y109.361 E1.94584
G1 X102.483 Y109.354 E1.9499
G1 X102.555 Y109.356 E1.95325
G1 X102.607 Y109.362 E1.95569
G1 X102.664 Y109.375 E1.95841
G1 X102.742 Y109.401 E1.96224
G1 X102.791 Y109.423 E1.96474
G1 X102.863 Y109.464 E1.9686
G1 X102.938 Y109.523 E1.97305
G1 X102.999 Y109.589 E1.97723
G1 X103.037 Y109.639 E1.98015
G1 X103.067 Y109.687 E1.98279
G1 X103.097 Y109.752 E1.98612
G1 X103.116 Y109.801 E1.98857
G1 X103.133 Y109.868 E1.99179
G1 X103.143 Y109.93 E1.99471
G1 X103.146 Y110.007 E1.9983
G1 X103.144 Y110.061 E2.00082
G1 X103.137 Y110.112 E2.00322
G1 X103.117 Y110.19 E2.00696
G1 X103.094 Y110.255 E2.01018
G1 X103.074 Y110.298 E2.01238
G1 X103.034 Y110.364 E2.01598
G1 X103 Y110.409 E2.0186
G1 X102.939 Y110.476 E2.02282
G1 X102.86 Y110.539 E2.02753
G1 X102.813 Y110.567 E2.03007
G1 X102.732 Y110.604 E2.03422
G1 X102.674 Y110.623 E2.03706
G1 X102.604 Y110.639 E2.04041
G1 X102.517 Y110.646 E2.04447
G1 X102.445 Y110.644 E2.04783
G1 X102.393 Y110.638 E2.05026
G1 X102.336 Y110.625 E2.05298
G1 X102.258 Y110.599 E2.05681
G1 X102.213 Y110.579 E2.05911
G1 X102.13 Y110.532 E2.06355
G1 X102.065 Y110.48 E2.06742
G1 X102.005 Y110.416 E2.07151
G1 X101.973 Y110.374 E2.07397
G1 X101.926 Y110.298 E2.07813
G1 X101.903 Y110.25 E2.08061
G1 X101.884 Y110.199 E2.08314
G1 X101.867 Y110.132 E2.08636
G1 X101.857 Y110.07 E2.08928
G1 X101.854 Y109.999 E2.09259
G1 X101.858 Y109.922 E2.09618
G1 X101.865 Y109.878 E2.09826
G1 X101.881 Y109.815 E2.10128
G1 X101.903 Y109.753 E2.10435
G1 X101.934 Y109.689 E2.10766
G1 X101.966 Y109.635 E2.11058
G1 X102 Y109.59 E2.11321
G1 X102.059 Y109.526 E2.11726
G0 F9000 X102.327 Y109.824
G1 F1800 X102.368 Y109.791 E2.11971
G1 X102.418 Y109.768 E2.12227
G1 X102.438 Y109.761 E2.12326
G1 X102.459 Y109.756 E2.12427
G1 X102.484 Y109.754 E2.12543
G1 X102.526 Y109.755 E2.12739
G1 X102.54 Y109.757 E2.12805
G1 X102.551 Y109.759 E2.12857
G1 X102.595 Y109.774 E2.13073
G1 X102.615 Y109.783 E2.13176
G1 X102.641 Y109.798 E2.13315
G1 X102.663 Y109.815 E2.13445
G1 X102.689 Y109.843 E2.13623
G1 X102.71 Y109.871 E2.13786
G1 X102.714 Y109.877 E2.13819
G1 X102.728 Y109.907 E2.13973
G1 X102.733 Y109.919 E2.14034
G1 X102.742 Y109.952 E2.14193
G1 X102.743 Y109.963 E2.14245
G1 X102.746 Y110.009 E2.14459
G1 X102.745 Y110.026 E2.14539
G1 X102.743 Y110.039 E2.146
G1 X102.735 Y110.072 E2.14758
G1 X102.725 Y110.1 E2.14896
G1 X102.697 Y110.148 E2.15155
G1 X102.667 Y110.181 E2.15363
G1 X102.632 Y110.209 E2.15572
G1 X102.582 Y110.232 E2.15828
G1 X102.562 Y110.239 E2.15926
G1 X102.541 Y110.244 E2.16027
G1 X102.516 Y110.246 E2.16144
G1 X102.474 Y110.245 E2.16339
G1 X102.46 Y110.243 E2.16405
G1 X102.449 Y110.241 E2.16457
G1 X102.405 Y110.226 E2.16674
G1 X102.383 Y110.216 E2.16786
G1 X102.357 Y110.201 E2.16926
G1 X102.337 Y110.185 E2.17045
G1 X102.306 Y110.152 E2.17256
G1 X102.283 Y110.114 E2.17463
G1 X102.266 Y110.079 E2.17644
G1 X102.258 Y110.048 E2.17793
G1 X102.257 Y110.037 E2.17845
G1 X102.255 Y109.998 E2.18027
G1 X102.256 Y109.965 E2.1818
G1 X102.258 Y109.953 E2.18237
G1 X102.267 Y109.921 E2.18392
G1 X102.27 Y109.911 E2.1844
G1 X102.283 Y109.886 E2.18572
G1 X102.302 Y109.854 E2.18745
G1 X102.313 Y109.84 E2.18828
G1 X102.327 Y109.824 E2.18927
G1 F2400 E1.38927
G1 F300 Z0.48
G0 F9000 X115.252 Y109.999 Z0.48
G1 F300 Z0.28
G1 F2400 E2.18927
G1 F1800 X115.263 Y109.776 E2.19966
G1 X115.294 Y109.567 E2.2095
G1 X115.351 Y109.339 E2.22045
G1 X115.427 Y109.129 E2.23084
G1 X115.523 Y108.929 E2.24117
G1 X115.638 Y108.739 E2.25152
G1 X115.769 Y108.564 E2.2617
G1 X115.962 Y108.356 E2.27491
G1 X116.23 Y108.14 E2.29094
G1 X116.459 Y108.007 E2.30327
G1 X116.673 Y107.909 E2.31423
G1 X116.894 Y107.835 E2.32508
G1 X117.156 Y107.774 E2.3376
G1 X117.431 Y107.752 E2.35045
G1 X117.679 Y107.759 E2.362
G1 X117.884 Y107.784 E2.37162
G1 X118.091 Y107.831 E2.3815
G1 X118.317 Y107.906 E2.39259
G1 X118.521 Y107.997 E2.40299
G1 X118.76 Y108.134 E2.41582
G1 X119.028 Y108.345 E2.4317
G1 X119.227 Y108.561 E2.44538
G1 X119.357 Y108.731 E2.45534
G1 X119.472 Y108.916 E2.46549
G1 X119.573 Y109.129 E2.47646
G1 X119.641 Y109.311 E2.48551
G1 X119.702 Y109.547 E2.49686
G1 X119.736 Y109.763 E2.50704
G1 X119.748 Y109.999 E2.51805
G1 X119.738 Y110.214 E2.52807
G1 X119.706 Y110.433 E2.53837
G1 X119.649 Y110.66 E2.54927
G1 X119.575 Y110.867 E2.55951
G1 X119.48 Y111.065 E2.56973
G1 X119.358 Y111.266 E2.58068
G1 X119.24 Y111.425 E2.5899
G1 X119.039 Y111.643 E2.60371
G1 X118.77 Y111.86 E2.6198
G1 X118.541 Y111.993 E2.63213
G1 X118.327 Y112.091 E2.64309
G1 X118.106 Y112.165 E2.65395
G1 X117.844 Y112.226 E2.66647
G1 X117.569 Y112.248 E2.67932
G1 X117.321 Y112.241 E2.69087
G1 X117.116 Y112.216 E2.70049
G1 X116.909 Y112.169 E2.71037
G1 X116.683 Y112.094 E2.72146
G1 X116.482 Y112.005 E2.7317
G1 X116.233 Y111.862 E2.74507
G1 X115.98 Y111.661 E2.76011
G1 X115.777 Y111.446 E2.77388
G1 X115.652 Y111.281 E2.78352
G1 X115.52 Y111.065 E2.79531
G1 X115.429 Y110.876 E2.80507
G1 X115.358 Y110.685 E2.81456
G1 X115.298 Y110.453 E2.82572
G1 X115.263 Y110.232 E2.83614
G1 X115.252 Y109.999 E2.847
G0 F9000 X115.652 Y109.999
G1 F1800 X115.66 Y109.826 E2.85507
G1 X115.686 Y109.645 E2.86358
G1 X115.735 Y109.453 E2.87281
G1 X115.793 Y109.292 E2.88078
G1 X115.877 Y109.118 E2.88977
G1 X115.97 Y108.964 E2.89815
G1 X116.078 Y108.82 E2.90653
G1 X116.236 Y108.649 E2.91737
G1 X116.459 Y108.468 E2.93075
G1 X116.637 Y108.365 E2.94032
G1 X116.823 Y108.28 E2.94985
G1 X117.005 Y108.219 E2.95878
G1 X117.213 Y108.171 E2.96872
G1 X117.442 Y108.153 E2.97942
G1 X117.651 Y108.158 E2.98915
G1 X117.815 Y108.179 E2.99685
G1 X117.983 Y108.217 E3.00487
G1 X118.175 Y108.281 E3.0143
G1 X118.337 Y108.353 E3.02255
G1 X118.539 Y108.468 E3.03338
G1 X118.755 Y108.638 E3.04617
G1 X118.917 Y108.815 E3.05735
G1 X119.028 Y108.959 E3.06581
G1 X119.121 Y109.11 E3.07407
G1 X119.203 Y109.282 E3.08294
G1 X119.258 Y109.429 E3.09025
G1 X119.311 Y109.631 E3.09998
G1 X119.339 Y109.809 E3.10837
G1 X119.348 Y109.999 E3.11722
G1 X119.341 Y110.163 E3.12487
G1 X119.313 Y110.355 E3.1339
G1 X119.266 Y110.541 E3.14284
G1 X119.203 Y110.717 E3.15154
G1 X119.126 Y110.878 E3.15985
G1 X119.03 Y111.037 E3.1685
G1 X118.931 Y111.17 E3.17622
G1 X118.764 Y111.351 E3.18769
G1 X118.541 Y111.532 E3.20106
G1 X118.364 Y111.634 E3.21057
G1 X118.177 Y111.72 E3.22016
G1 X117.995 Y111.781 E3.2291
G1 X117.787 Y111.829 E3.23903
G1 X117.558 Y111.847 E3.24973
G1 X117.349 Y111.842 E3.25947
G1 X117.185 Y111.821 E3.26716
G1 X117.017 Y111.783 E3.27518
G1 X116.825 Y111.719 E3.28461
G1 X116.661 Y111.647 E3.29295
G1 X116.46 Y111.532 E3.30373
G1 X116.25 Y111.365 E3.31623
G1 X116.088 Y111.192 E3.32726
G1 X115.981 Y111.051 E3.3355
G1 X115.872 Y110.874 E3.34518
G1 X115.796 Y110.717 E3.35331
G1 X115.74 Y110.565 E3.36085
G1 X115.689 Y110.369 E3.37028
G1 X115.661 Y110.191 E3.37867
G1 X115.652 Y109.999 E3.38762
G0 F9000 X116.053 Y109.999
G1 F1800 X116.06 Y109.86 E3.3941
G1 X116.08 Y109.722 E3.40059
G1 X116.116 Y109.578 E3.4075
G1 X116.166 Y109.439 E3.41438
G1 X116.226 Y109.316 E3.42075
G1 X116.306 Y109.183 E3.42798
G1 X116.387 Y109.074 E3.43431
G1 X116.51 Y108.941 E3.44274
G1 X116.684 Y108.8 E3.45317
G1 X116.821 Y108.721 E3.46053
G1 X116.97 Y108.653 E3.46816
G1 X117.11 Y108.606 E3.47504
G1 X117.276 Y108.567 E3.48298
G1 X117.452 Y108.553 E3.4912
G1 X117.622 Y108.558 E3.49912
G1 X117.746 Y108.573 E3.50493
G1 X117.882 Y108.604 E3.51143
G1 X118.028 Y108.652 E3.51858
G1 X118.154 Y108.708 E3.525
