;FLAVOR:Marlin
;TIME:2378
;Filament used: 4.34704m
;Layer height: 0.28
;MINX:75.201
;MINY:75.248
;MINZ:0.28
;MAXX:144.799
;MAXY:144.748
;MAXZ:10.28
;TARGET_MACHINE.NAME:Creality Ender-3 V3 SE
;Generated with Cura_SteamEngine 5.10.0
M220 S100 ;Reset Feedrate
M221 S100 ;Reset Flowrate

G28 ;Home

M420 S1; Use saved mesh leveling data

G92 E0 ;Reset Extruder
G1 Z2.0 F3000 ;Move Z Axis up
G1 X-3 Y20 Z0.28 F5000.0 ;Move to start position
M190 S60 ; Set bed temperature and wait
M109 S200 ; Set hotend temperature and wait
G1 X-3 Y100.0 Z0.28 F1500.0 E15 ;Draw the first line
G1 X-2 Y100.0 Z0.28 F5000.0 ;Move to side a little
G1 X-2 Y20 Z0.28 F1500.0 E30 ;Draw the second line
G92 E0 ;Reset Extruder
G1 E-1.0000 F1800 ;Retract a bit
G1 Z2.0 F3000 ;Move Z Axis up
G1 E0.0000 F1800 

M82 ;absolute extrusion mode
G92 E0
G92 E0
G1 F2400 E-0.8
;LAYER_COUNT:36
;LAYER:0
M107
G1 F300 Z0.48
G0 F9000 X99.885 Y108.093 Z0.48
;TYPE:SKIRT
G1 F300 Z0.28
G1 F2400 E0
G1 F1800 X100.091 Y107.937 E0.01203
G1 X100.332 Y107.792 E0.02513
G1 X100.578 Y107.679 E0.03773
G1 X100.834 Y107.591 E0.05034
G1 X101.093 Y107.535 E0.06268
G1 X101.365 Y107.505 E0.07542
G1 X101.635 Y107.505 E0.08799
G1 X101.907 Y107.535 E0.10074
G1 X102.166 Y107.591 E0.11307
G1 X102.422 Y107.679 E0.12568
G1 X102.668 Y107.792 E0.13828
G1 X102.909 Y107.937 E0.15138
G1 X103.115 Y108.093 E0.16341
G1 X103.316 Y108.282 E0.17626
G1 X103.484 Y108.482 E0.18842
G1 X103.641 Y108.714 E0.20147
G1 X103.772 Y108.958 E0.21436
G1 X103.864 Y109.191 E0.22603
G1 X103.941 Y109.468 E0.23941
G1 X103.983 Y109.725 E0.25154
G1 X103.999 Y110 E0.26437
G1 X103.983 Y110.272 E0.27705
G1 X103.941 Y110.532 E0.28932
G1 X103.865 Y110.805 E0.30251
G1 X103.772 Y111.042 E0.31437
G1 X103.641 Y111.286 E0.32726
G1 X103.484 Y111.518 E0.34031
G1 X103.316 Y111.718 E0.35247
G1 X103.115 Y111.907 E0.36532
G1 X102.91 Y112.062 E0.37728
G1 X102.668 Y112.208 E0.39045
G1 X102.422 Y112.321 E0.40305
G1 X102.166 Y112.409 E0.41566
G1 X101.907 Y112.465 E0.42799
G1 X101.635 Y112.495 E0.44074
G1 X101.365 Y112.495 E0.45331
G1 X101.093 Y112.465 E0.46605
G1 X100.834 Y112.409 E0.47839
G1 X100.578 Y112.321 E0.491
G1 X100.332 Y112.208 E0.5036
G1 X100.09 Y112.062 E0.51676
G1 X99.885 Y111.907 E0.52873
G1 X99.684 Y111.718 E0.54158
G1 X99.516 Y111.518 E0.55374
G1 X99.359 Y111.286 E0.56678
G1 X99.228 Y111.042 E0.57968
G1 X99.135 Y110.805 E0.59153
G1 X99.059 Y110.532 E0.60473
G1 X99.017 Y110.272 E0.61699
G1 X99.001 Y110 E0.62968
G1 X99.017 Y109.725 E0.64251
G1 X99.059 Y109.468 E0.65463
G1 X99.136 Y109.191 E0.66802
G1 X99.228 Y108.958 E0.67968
G1 X99.359 Y108.714 E0.69258
G1 X99.516 Y108.482 E0.70562
G1 X99.684 Y108.282 E0.71779
G1 X99.885 Y108.093 E0.73063
G0 F9000 X100.147 Y108.395
G1 F1800 X100.308 Y108.274 E0.74001
G1 X100.521 Y108.146 E0.75158
G1 X100.731 Y108.05 E0.76233
G1 X100.942 Y107.977 E0.77273
G1 X101.165 Y107.929 E0.78335
G1 X101.38 Y107.905 E0.79343
G1 X101.62 Y107.905 E0.8046
G1 X101.835 Y107.929 E0.81467
G1 X102.058 Y107.977 E0.8253
G1 X102.269 Y108.05 E0.83569
G1 X102.479 Y108.146 E0.84644
G1 X102.692 Y108.274 E0.85802
G1 X102.853 Y108.395 E0.86739
G1 X103.03 Y108.563 E0.87876
G1 X103.164 Y108.722 E0.88844
G1 X103.299 Y108.922 E0.89967
G1 X103.405 Y109.118 E0.91005
G1 X103.488 Y109.331 E0.9207
G1 X103.547 Y109.544 E0.93099
G1 X103.586 Y109.778 E0.94203
G1 X103.599 Y110 E0.95239
G1 X103.586 Y110.222 E0.96274
G1 X103.547 Y110.456 E0.97379
G1 X103.488 Y110.669 E0.98408
G1 X103.405 Y110.882 E0.99473
G1 X103.299 Y111.078 E1.0051
G1 X103.164 Y111.278 E1.01634
G1 X103.03 Y111.437 E1.02602
G1 X102.853 Y111.605 E1.03738
G1 X102.692 Y111.726 E1.04676
G1 X102.479 Y111.854 E1.05833
G1 X102.269 Y111.95 E1.06908
G1 X102.058 Y112.023 E1.07948
G1 X101.835 Y112.071 E1.0901
G1 X101.62 Y112.095 E1.10018
G1 X101.38 Y112.095 E1.11135
G1 X101.165 Y112.071 E1.12142
G1 X100.942 Y112.023 E1.13205
G1 X100.731 Y111.95 E1.14244
G1 X100.521 Y111.854 E1.15319
G1 X100.308 Y111.726 E1.16477
G1 X100.147 Y111.605 E1.17414
G1 X99.97 Y111.437 E1.18551
G1 X99.836 Y111.278 E1.19519
G1 X99.701 Y111.078 E1.20642
G1 X99.595 Y110.882 E1.2168
G1 X99.512 Y110.669 E1.22745
G1 X99.453 Y110.456 E1.23774
G1 X99.414 Y110.222 E1.24878
G1 X99.401 Y110 E1.25914
G1 X99.414 Y109.778 E1.26949
G1 X99.453 Y109.544 E1.28054
G1 X99.512 Y109.331 E1.29083
G1 X99.595 Y109.118 E1.30148
G1 X99.701 Y108.922 E1.31185
G1 X99.836 Y108.722 E1.32309
G1 X99.97 Y108.563 E1.33277
G1 X100.147 Y108.395 E1.34413
G0 F9000 X100.405 Y108.702
G1 F1800 X100.536 Y108.603 E1.35178
G1 X100.708 Y108.499 E1.36114
G1 X100.871 Y108.424 E1.36949
G1 X101.049 Y108.363 E1.37825
G1 X101.226 Y108.325 E1.38668
G1 X101.406 Y108.305 E1.39512
G1 X101.594 Y108.305 E1.40387
G1 X101.774 Y108.325 E1.4123
G1 X101.951 Y108.363 E1.42073
G1 X102.129 Y108.424 E1.4295
G1 X102.292 Y108.499 E1.43785
G1 X102.464 Y108.603 E1.44721
G1 X102.595 Y108.702 E1.45486
G1 X102.735 Y108.835 E1.46385
G1 X102.846 Y108.966 E1.47184
G1 X102.951 Y109.121 E1.48056
G1 X103.045 Y109.296 E1.48981
G1 X103.109 Y109.458 E1.49792
G1 X103.155 Y109.624 E1.50594
G1 X103.188 Y109.828 E1.51556
G1 X103.199 Y110 E1.52359
G1 X103.188 Y110.172 E1.53162
G1 X103.155 Y110.376 E1.54124
G1 X103.109 Y110.542 E1.54926
G1 X103.045 Y110.704 E1.55737
G1 X102.951 Y110.879 E1.56662
G1 X102.846 Y111.034 E1.57534
G1 X102.735 Y111.165 E1.58333
G1 X102.595 Y111.298 E1.59232
G1 X102.464 Y111.397 E1.59997
G1 X102.292 Y111.501 E1.60933
G1 X102.129 Y111.576 E1.61768
G1 X101.951 Y111.637 E1.62645
G1 X101.774 Y111.675 E1.63488
G1 X101.594 Y111.695 E1.64331
G1 X101.406 Y111.695 E1.65206
G1 X101.226 Y111.675 E1.6605
G1 X101.049 Y111.637 E1.66893
G1 X100.871 Y111.576 E1.67769
G1 X100.708 Y111.501 E1.68604
G1 X100.536 Y111.397 E1.6954
G1 X100.405 Y111.298 E1.70305
G1 X100.265 Y111.165 E1.71204
G1 X100.154 Y111.034 E1.72003
G1 X100.049 Y110.879 E1.72875
G1 X99.955 Y110.704 E1.738
G1 X99.891 Y110.542 E1.74611
G1 X99.845 Y110.376 E1.75413
G1 X99.812 Y110.172 E1.76376
G1 X99.801 Y110 E1.77178
G1 X99.812 Y109.828 E1.77981
G1 X99.845 Y109.624 E1.78943
G1 X99.891 Y109.458 E1.79745
G1 X99.955 Y109.296 E1.80556
G1 X100.049 Y109.121 E1.81481
G1 X100.154 Y108.966 E1.82353
G1 X100.265 Y108.835 E1.83152
G1 X100.405 Y108.702 E1.84052
G0 F9000 X100.663 Y109.009
G1 F1800 X100.761 Y108.935 E1.84623
G1 X100.897 Y108.853 E1.85363
G1 X101.027 Y108.793 E1.86029
G1 X101.155 Y108.749 E1.8666
G1 X101.287 Y108.721 E1.87288
G1 X101.431 Y108.705 E1.87963
G1 X101.569 Y108.705 E1.88605
G1 X101.713 Y108.721 E1.8928
G1 X101.845 Y108.749 E1.89908
G1 X101.973 Y108.793 E1.90539
G1 X102.103 Y108.853 E1.91205
G1 X102.239 Y108.935 E1.91945
G1 X102.337 Y109.009 E1.92517
G1 X102.446 Y109.112 E1.93215
G1 X102.53 Y109.211 E1.93819
G1 X102.609 Y109.329 E1.94481
G1 X102.682 Y109.464 E1.95195
G1 X102.726 Y109.576 E1.95756
G1 X102.764 Y109.713 E1.96418
G1 X102.789 Y109.867 E1.97144
G1 X102.797 Y110 E1.97764
G1 X102.789 Y110.133 E1.98385
G1 X102.764 Y110.286 E1.99107
G1 X102.726 Y110.424 E1.99773
G1 X102.682 Y110.536 E2.00334
G1 X102.609 Y110.671 E2.01048
G1 X102.53 Y110.789 E2.01709
G1 X102.446 Y110.888 E2.02314
G1 X102.337 Y110.991 E2.03012
G1 X102.239 Y111.065 E2.03584
G1 X102.103 Y111.147 E2.04324
G1 X101.973 Y111.207 E2.0499
G1 X101.845 Y111.251 E2.05621
G1 X101.713 Y111.279 E2.06249
G1 X101.569 Y111.295 E2.06924
G1 X101.431 Y111.295 E2.07566
G1 X101.287 Y111.279 E2.08241
G1 X101.155 Y111.251 E2.08869
G1 X101.027 Y111.207 E2.09499
G1 X100.897 Y111.147 E2.10166
G1 X100.761 Y111.065 E2.10906
G1 X100.663 Y110.991 E2.11477
G1 X100.554 Y110.888 E2.12176
G1 X100.47 Y110.789 E2.1278
G1 X100.391 Y110.671 E2.13441
G1 X100.318 Y110.536 E2.14156
G1 X100.274 Y110.424 E2.14716
G1 X100.236 Y110.286 E2.15383
G1 X100.211 Y110.133 E2.16105
G1 X100.203 Y110 E2.16725
G1 X100.211 Y109.867 E2.17346
G1 X100.236 Y109.713 E2.18072
G1 X100.274 Y109.576 E2.18734
G1 X100.318 Y109.464 E2.19294
G1 X100.391 Y109.329 E2.20009
G1 X100.47 Y109.211 E2.2067
G1 X100.554 Y109.112 E2.21275
G1 X100.663 Y109.009 E2.21973
G0 F9000 X100.921 Y109.315
G1 F1800 X100.99 Y109.263 E2.22376
G1 X101.077 Y109.211 E2.22847
G1 X101.176 Y109.165 E2.23356
G1 X101.263 Y109.135 E2.23784
G1 X101.359 Y109.115 E2.24241
G1 X101.446 Y109.105 E2.24649
G1 X101.554 Y109.105 E2.25152
G1 X101.641 Y109.115 E2.25559
G1 X101.737 Y109.135 E2.26016
G1 X101.824 Y109.165 E2.26444
G1 X101.923 Y109.211 E2.26953
G1 X102.01 Y109.263 E2.27425
G1 X102.079 Y109.315 E2.27827
G1 X102.151 Y109.383 E2.28288
G1 X102.208 Y109.451 E2.28701
G1 X102.269 Y109.541 E2.29208
G1 X102.314 Y109.625 E2.29651
G1 X102.349 Y109.713 E2.30092
G1 X102.374 Y109.802 E2.30523
G1 X102.391 Y109.908 E2.31023
G1 X102.397 Y110 E2.31452
G1 X102.391 Y110.092 E2.31881
G1 X102.374 Y110.198 E2.32381
G1 X102.35 Y110.284 E2.32797
G1 X102.314 Y110.375 E2.33253
G1 X102.269 Y110.459 E2.33696
G1 X102.208 Y110.549 E2.34203
G1 X102.151 Y110.617 E2.34616
G1 X102.08 Y110.684 E2.3507
G1 X102.01 Y110.737 E2.35479
G1 X101.923 Y110.789 E2.35951
G1 X101.824 Y110.835 E2.36459
G1 X101.737 Y110.865 E2.36888
G1 X101.641 Y110.885 E2.37345
G1 X101.554 Y110.895 E2.37752
G1 X101.446 Y110.895 E2.38255
G1 X101.359 Y110.885 E2.38663
G1 X101.263 Y110.865 E2.3912
G1 X101.176 Y110.835 E2.39548
G1 X101.077 Y110.789 E2.40057
G1 X100.99 Y110.737 E2.40528
G1 X100.92 Y110.684 E2.40937
G1 X100.849 Y110.617 E2.41392
G1 X100.792 Y110.549 E2.41805
G1 X100.731 Y110.459 E2.42311
G1 X100.686 Y110.375 E2.42755
G1 X100.65 Y110.284 E2.43211
G1 X100.626 Y110.198 E2.43626
G1 X100.609 Y110.092 E2.44126
G1 X100.603 Y110 E2.44556
G1 X100.609 Y109.908 E2.44985
G1 X100.626 Y109.802 E2.45485
G1 X100.651 Y109.713 E2.45915
G1 X100.686 Y109.625 E2.46356
G1 X100.731 Y109.541 E2.468
G1 X100.792 Y109.451 E2.47306
G1 X100.849 Y109.383 E2.47719
G1 X100.921 Y109.315 E2.48181
G0 F9000 X101.183 Y109.618
G1 F1800 X101.207 Y109.6 E2.4832
G1 X101.273 Y109.561 E2.48677
G1 X101.324 Y109.537 E2.4894
G1 X101.367 Y109.522 E2.49152
G1 X101.42 Y109.511 E2.49404
G1 X101.472 Y109.505 E2.49648
G1 X101.528 Y109.505 E2.49908
G1 X101.58 Y109.511 E2.50152
G1 X101.633 Y109.522 E2.50404
G1 X101.676 Y109.537 E2.50616
G1 X101.727 Y109.561 E2.50879
G1 X101.793 Y109.6 E2.51236
G1 X101.817 Y109.618 E2.51375
G1 X101.865 Y109.664 E2.51685
G1 X101.883 Y109.685 E2.51814
G1 X101.925 Y109.747 E2.52162
G1 X101.954 Y109.8 E2.52444
G1 X101.967 Y109.834 E2.52613
G1 X101.983 Y109.891 E2.52889
G1 X101.994 Y109.958 E2.53205
G1 X101.996 Y109.997 E2.53387
G1 X101.994 Y110.042 E2.53597
G1 X101.983 Y110.109 E2.53913
G1 X101.967 Y110.166 E2.54188
G1 X101.954 Y110.2 E2.54358
G1 X101.926 Y110.251 E2.54629
G1 X101.883 Y110.315 E2.54988
G1 X101.865 Y110.336 E2.55117
G1 X101.817 Y110.382 E2.55426
G1 X101.793 Y110.4 E2.55566
G1 X101.727 Y110.439 E2.55923
G1 X101.676 Y110.463 E2.56185
G1 X101.633 Y110.478 E2.56397
G1 X101.58 Y110.489 E2.56649
G1 X101.528 Y110.495 E2.56893
G1 X101.472 Y110.495 E2.57154
G1 X101.42 Y110.489 E2.57398
G1 X101.367 Y110.478 E2.5765
G1 X101.324 Y110.463 E2.57862
G1 X101.273 Y110.439 E2.58124
G1 X101.207 Y110.4 E2.58481
G1 X101.183 Y110.382 E2.58621
G1 X101.135 Y110.336 E2.5893
G1 X101.117 Y110.315 E2.59059
G1 X101.074 Y110.251 E2.59418
G1 X101.046 Y110.2 E2.59689
G1 X101.033 Y110.166 E2.59859
G1 X101.017 Y110.109 E2.60134
G1 X101.006 Y110.042 E2.60451
G1 X101.004 Y109.997 E2.6066
G1 X101.006 Y109.958 E2.60842
G1 X101.017 Y109.891 E2.61158
G1 X101.033 Y109.834 E2.61434
G1 X101.046 Y109.8 E2.61603
G1 X101.075 Y109.747 E2.61885
G1 X101.117 Y109.685 E2.62233
G1 X101.135 Y109.664 E2.62362
G1 X101.183 Y109.618 E2.62672
G0 F9000 X101.434 Y109.931
G1 F1800 X101.464 Y109.913 E2.62835
G1 X101.473 Y109.909 E2.62881
G1 X101.481 Y109.907 E2.62919
G1 X101.497 Y109.905 E2.62994
G1 X101.503 Y109.905 E2.63022
G1 X101.519 Y109.907 E2.63097
G1 X101.527 Y109.909 E2.63136
G1 X101.536 Y109.913 E2.63181
G1 X101.566 Y109.931 E2.63344
G1 X101.57 Y109.935 E2.63371
G1 X101.579 Y109.948 E2.63444
G1 X101.589 Y109.967 E2.63544
G1 X101.591 Y109.972 E2.63569
G1 X101.595 Y109.999 E2.63696
G1 X101.591 Y110.028 E2.63833
G1 X101.589 Y110.033 E2.63858
G1 X101.581 Y110.049 E2.63941
G1 X101.57 Y110.065 E2.64032
G1 X101.566 Y110.069 E2.64058
G1 X101.536 Y110.087 E2.64221
G1 X101.527 Y110.091 E2.64267
G1 X101.519 Y110.093 E2.64305
G1 X101.503 Y110.095 E2.6438
G1 X101.497 Y110.095 E2.64408
G1 X101.481 Y110.093 E2.64483
G1 X101.473 Y110.091 E2.64522
G1 X101.464 Y110.087 E2.64567
G1 X101.434 Y110.069 E2.6473
G1 X101.43 Y110.065 E2.64757
G1 X101.419 Y110.049 E2.64847
G1 X101.411 Y110.033 E2.6493
G1 X101.409 Y110.028 E2.64955
G1 X101.405 Y109.999 E2.65092
G1 X101.409 Y109.972 E2.65219
G1 X101.411 Y109.967 E2.65244
G1 X101.421 Y109.948 E2.65344
G1 X101.43 Y109.935 E2.65417
G1 X101.434 Y109.931 E2.65444
G1 F2400 E1.85444
G1 F300 Z0.48
G0 F9000 X114.001 Y110 Z0.48
G1 F300 Z0.28
G1 F2400 E2.65444
G1 F1800 X114.017 Y109.725 E2.66727
G1 X114.059 Y109.468 E2.67939
G1 X114.136 Y109.191 E2.69278
G1 X114.228 Y108.958 E2.70444
G1 X114.359 Y108.714 E2.71734
G1 X114.516 Y108.482 E2.73038
G1 X114.684 Y108.282 E2.74254
G1 X114.885 Y108.093 E2.75539
G1 X115.091 Y107.937 E2.76742
G1 X115.332 Y107.792 E2.78052
G1 X115.578 Y107.679 E2.79313
G1 X115.834 Y107.591 E2.80573
G1 X116.093 Y107.535 E2.81807
G1 X116.365 Y107.505 E2.83081
G1 X116.635 Y107.505 E2.84338
G1 X116.907 Y107.535 E2.85613
G1 X117.166 Y107.591 E2.86847
G1 X117.422 Y107.679 E2.88107
G1 X117.668 Y107.792 E2.89368
G1 X117.909 Y107.937 E2.90677
G1 X118.115 Y108.093 E2.91881
G1 X118.316 Y108.282 E2.93165
G1 X118.484 Y108.482 E2.94381
G1 X118.641 Y108.714 E2.95686
G1 X118.772 Y108.958 E2.96975
G1 X118.864 Y109.191 E2.98142
G1 X118.941 Y109.468 E2.99481
G1 X118.983 Y109.725 E3.00693
G1 X118.999 Y110 E3.01976
G1 X118.983 Y110.272 E3.03245
G1 X118.941 Y110.532 E3.04471
G1 X118.865 Y110.805 E3.05791
G1 X118.772 Y111.042 E3.06976
G1 X118.641 Y111.286 E3.08266
G1 X118.484 Y111.518 E3.0957
G1 X118.316 Y111.718 E3.10786
G1 X118.115 Y111.907 E3.12071
G1 X117.91 Y112.062 E3.13268
G1 X117.668 Y112.208 E3.14584
G1 X117.422 Y112.321 E3.15844
G1 X117.166 Y112.409 E3.17105
G1 X116.907 Y112.465 E3.18339
G1 X116.635 Y112.495 E3.19613
G1 X116.365 Y112.495 E3.2087
G1 X116.093 Y112.465 E3.22144
G1 X115.834 Y112.409 E3.23378
G1 X115.578 Y112.321 E3.24639
G1 X115.332 Y112.208 E3.25899
G1 X115.09 Y112.062 E3.27215
G1 X114.885 Y111.907 E3.28412
G1 X114.684 Y111.718 E3.29697
G1 X114.516 Y111.518 E3.30913
G1 X114.359 Y111.286 E3.32217
G1 X114.228 Y111.042 E3.33507
G1 X114.135 Y110.805 E3.34692
G1 X114.059 Y110.532 E3.36012
G1 X114.017 Y110.272 E3.37238
G1 X114.001 Y110 E3.38507
G0 F9000 X114.401 Y110
G1 F1800 X114.414 Y109.778 E3.39543
G1 X114.453 Y109.544 E3.40647
G1 X114.512 Y109.331 E3.41676
G1 X114.595 Y109.118 E3.42741
G1 X114.701 Y108.922 E3.43778
G1 X114.836 Y108.722 E3.44902
G1 X114.97 Y108.563 E3.4587
G1 X115.147 Y108.395 E3.47007
G1 X115.308 Y108.274 E3.47944
G1 X115.521 Y108.146 E3.49101
G1 X115.731 Y108.05 E3.50177
G1 X115.942 Y107.977 E3.51216
G1 X116.165 Y107.929 E3.52278
G1 X116.38 Y107.905 E3.53286
G1 X116.62 Y107.905 E3.54403
G1 X116.835 Y107.929 E3.55411
G1 X117.058 Y107.977 E3.56473
G1 X117.269 Y108.05 E3.57513
G1 X117.479 Y108.146 E3.58588
G1 X117.692 Y108.274 E3.59745
G1 X117.853 Y108.395 E3.60683
G1 X118.03 Y108.563 E3.61819
G1 X118.164 Y108.722 E3.62787
G1 X118.299 Y108.922 E3.63911
G1 X118.405 Y109.118 E3.64948
G1 X118.488 Y109.331 E3.66013
G1 X118.547 Y109.544 E3.67042
G1 X118.586 Y109.778 E3.68147
G1 X118.599 Y110 E3.69182
G1 X118.586 Y110.222 E3.70218
G1 X118.547 Y110.456 E3.71322
G1 X118.488 Y110.669 E3.72351
G1 X118.405 Y110.882 E3.73416
G1 X118.299 Y111.078 E3.74453
